;FLAVOR:Marlin
;TIME:728
;Filament used: 0.399001m
;Layer height: 0.2
;MINX:84.401
;MINY:84.393
;MINZ:0.1
;MAXX:125.599
;MAXY:125.625
;MAXZ:8.1
;Generated with Cura_SteamEngine 4.13.1
M140 S59
M105
M190 S59
M104 S200
M105
M109 S200
M82 ;absolute extrusion mode
G21 ;metric values
G90 ;absolute positioning
M82 ;set extruder to absolute mode
M107 ;start with the fan off
G28 X0 Y0 ;move X/Y to min endstops
G28 Z0 ;move Z to min endstops
G1 Z15.0 F120 ;move the platform down 15mm
G92 E0 ;zero the extruded length
G1 F200 E3 ;extrude 3mm of feed stock
G92 E0 ;zero the extruded length again
G1 F120
M117 Printing...
G5
G92 E0
G92 E0
G1 F4200 E-6
;LAYER_COUNT:41
;LAYER:0
M107
G0 F6000 X90.678 Y90.202 Z0.1
;TYPE:SKIRT
G1 F4200 E0
G1 F1200 X90.976 Y89.907 E0.00907
G1 X91.605 Y89.351 E0.02721
G1 X92.477 Y88.658 E0.05129
G1 X92.721 Y88.473 E0.05791
G1 X93.665 Y87.799 E0.08299
G1 X94.839 Y87.084 E0.11271
G1 X95.073 Y86.945 E0.11859
G1 X95.895 Y86.519 E0.13861
G1 X97.112 Y85.974 E0.16744
G1 X97.531 Y85.795 E0.17729
G1 X98.326 Y85.508 E0.19556
G1 X99.787 Y85.066 E0.22856
G1 X100.765 Y84.836 E0.25028
G1 X102.004 Y84.626 E0.27745
G1 X102.505 Y84.549 E0.28841
G1 X103.364 Y84.463 E0.30707
G1 X104.667 Y84.404 E0.33527
G1 X105.065 Y84.393 E0.34388
G1 X105.919 Y84.416 E0.36234
G1 X107.179 Y84.518 E0.38967
G1 X107.652 Y84.573 E0.39997
G1 X108.475 Y84.689 E0.41794
G1 X109.692 Y84.938 E0.44479
G1 X110.446 Y85.123 E0.46158
G1 X111.013 Y85.293 E0.47437
G1 X112.179 Y85.691 E0.50101
G1 X112.678 Y85.874 E0.5125
G1 X113.399 Y86.183 E0.52946
G1 X114.592 Y86.765 E0.55816
G1 X115.119 Y87.043 E0.57104
G1 X115.663 Y87.37 E0.58476
G1 X116.898 Y88.179 E0.61668
G1 X117.2 Y88.385 E0.62458
G1 X117.821 Y88.865 E0.64155
G1 X118.801 Y89.701 E0.6694
G1 X119.237 Y90.094 E0.68209
G1 X119.728 Y90.585 E0.6971
G1 X120.438 Y91.359 E0.71981
G1 X120.57 Y91.507 E0.72409
G1 X120.92 Y91.908 E0.7356
G1 X121.436 Y92.565 E0.75366
G1 X122.145 Y93.571 E0.78027
G1 X122.479 Y94.073 E0.7933
G1 X122.837 Y94.677 E0.80848
G1 X123.44 Y95.804 E0.83612
G1 X123.721 Y96.37 E0.84978
G1 X123.995 Y97.004 E0.86471
G1 X124.449 Y98.193 E0.89222
G1 X124.633 Y98.71 E0.90409
G1 X124.841 Y99.407 E0.91981
G1 X125.086 Y100.385 E0.94161
G1 X125.23 Y101.029 E0.95588
G1 X125.347 Y101.699 E0.97058
G1 X125.491 Y102.805 E0.99469
G1 X125.548 Y103.41 E1.00783
G1 X125.57 Y103.864 E1.01766
G1 X125.599 Y105.29 E1.04849
G1 X125.592 Y105.862 E1.06086
G1 X125.562 Y106.366 E1.07178
G1 X125.46 Y107.466 E1.09566
G1 X125.408 Y107.917 E1.10547
G1 X125.298 Y108.585 E1.12011
G1 X125.094 Y109.566 E1.14177
G1 X124.936 Y110.24 E1.15674
G1 X124.737 Y110.932 E1.1723
G1 X124.333 Y112.131 E1.19966
G1 X124.163 Y112.6 E1.21044
G1 X123.863 Y113.303 E1.22697
G1 X123.241 Y114.588 E1.25783
G1 X122.931 Y115.169 E1.27207
G1 X122.677 Y115.591 E1.28272
G1 X121.963 Y116.698 E1.31119
G1 X121.559 Y117.277 E1.32646
G1 X121.196 Y117.74 E1.33918
G1 X120.345 Y118.751 E1.36775
G1 X119.868 Y119.275 E1.38307
G1 X119.491 Y119.648 E1.39453
G1 X118.472 Y120.591 E1.42455
G1 X118.047 Y120.96 E1.43671
G1 X117.55 Y121.344 E1.45029
G1 X116.509 Y122.087 E1.47794
G1 X115.875 Y122.506 E1.49437
G1 X115.353 Y122.814 E1.50747
G1 X114.19 Y123.442 E1.53605
G1 X113.658 Y123.707 E1.5489
G1 X113.115 Y123.941 E1.56168
G1 X111.822 Y124.443 E1.59167
G1 X111.147 Y124.676 E1.60711
G1 X110.576 Y124.84 E1.61995
G1 X109.435 Y125.122 E1.64536
G1 X108.672 Y125.279 E1.6622
G1 X108.227 Y125.352 E1.67195
G1 X107.15 Y125.497 E1.69544
G1 X106.428 Y125.561 E1.71111
G1 X105.623 Y125.596 E1.72853
G1 X105.3 Y125.625 E1.73554
G1 X104.5 Y125.616 E1.75284
G1 X103.654 Y125.564 E1.77116
G1 X102.962 Y125.51 E1.78617
G1 X102.232 Y125.419 E1.80207
G1 X100.815 Y125.177 E1.83315
G1 X99.911 Y124.968 E1.85321
G1 X98.573 Y124.577 E1.88335
G1 X97.715 Y124.273 E1.90303
G1 X96.376 Y123.711 E1.93442
G1 X95.557 Y123.312 E1.95412
G1 X94.305 Y122.611 E1.98514
G1 X93.545 Y122.127 E2.00462
G1 X92.413 Y121.315 E2.03473
G1 X91.692 Y120.732 E2.05478
G1 X90.646 Y119.782 E2.08533
G1 X90.023 Y119.151 E2.1045
G1 X89.103 Y118.109 E2.13455
G1 X88.498 Y117.332 E2.15584
G1 X87.599 Y116.021 E2.19021
G1 X87.085 Y115.163 E2.21183
G1 X86.355 Y113.75 E2.24621
G1 X85.949 Y112.826 E2.26803
G1 X85.403 Y111.338 E2.3023
G1 X85.12 Y110.388 E2.32373
G1 X84.776 Y108.909 E2.35656
G1 X84.604 Y107.864 E2.37945
G1 X84.439 Y106.17 E2.41625
G1 X84.401 Y105.389 E2.43315
G1 X84.405 Y105.051 E2.44046
G1 X84.431 Y104.156 E2.45982
G1 X84.443 Y103.648 E2.4708
G1 X84.526 Y102.712 E2.49112
G1 X84.749 Y101.205 E2.52405
G1 X84.961 Y100.212 E2.546
G1 X85.318 Y98.939 E2.57459
G1 X85.434 Y98.544 E2.58349
G1 X85.748 Y97.666 E2.60365
G1 X86.234 Y96.522 E2.63052
G1 X86.378 Y96.19 E2.63834
G1 X86.782 Y95.384 E2.65783
G1 X87.498 Y94.137 E2.68892
G1 X87.78 Y93.679 E2.70055
G1 X88.138 Y93.168 E2.71404
G1 X89.044 Y91.976 E2.74641
G1 X89.196 Y91.785 E2.75168
G1 X89.719 Y91.19 E2.76881
G1 X90.678 Y90.202 E2.79858
G0 F6000 X91.052 Y90.564
G1 F1200 X91.34 Y90.279 E2.80734
G1 X91.929 Y89.758 E2.82434
G1 X92.801 Y89.065 E2.84842
G1 X93.053 Y88.873 E2.85526
G1 X93.936 Y88.243 E2.87872
G1 X95.104 Y87.531 E2.90829
G1 X95.338 Y87.392 E2.91417
G1 X96.107 Y86.994 E2.93289
G1 X97.479 Y86.381 E2.96538
G1 X97.733 Y86.274 E2.97134
G1 X98.477 Y86.006 E2.98843
G1 X99.938 Y85.564 E3.02143
G1 X100.852 Y85.349 E3.04173
G1 X102.083 Y85.14 E3.06873
G1 X102.584 Y85.063 E3.07968
G1 X103.388 Y84.983 E3.09715
G1 X104.841 Y84.918 E3.1286
G1 X105.078 Y84.912 E3.13372
G1 X105.877 Y84.935 E3.151
G1 X107.137 Y85.037 E3.17833
G1 X107.593 Y85.089 E3.18825
G1 X108.37 Y85.198 E3.20522
G1 X109.587 Y85.447 E3.23207
G1 X110.315 Y85.626 E3.24828
G1 X110.845 Y85.785 E3.26024
G1 X112.011 Y86.183 E3.28688
G1 X112.496 Y86.361 E3.29805
G1 X113.171 Y86.65 E3.31392
G1 X114.364 Y87.232 E3.34262
G1 X114.869 Y87.499 E3.35497
G1 X115.378 Y87.805 E3.36781
G1 X116.613 Y88.614 E3.39973
G1 X116.902 Y88.812 E3.4073
G1 X117.483 Y89.261 E3.42317
G1 X118.463 Y90.097 E3.45102
G1 X118.885 Y90.477 E3.4633
G1 X119.344 Y90.936 E3.47733
G1 X120.054 Y91.71 E3.50004
G1 X120.179 Y91.849 E3.50408
G1 X120.529 Y92.25 E3.51559
G1 X121.011 Y92.864 E3.53246
G1 X121.72 Y93.87 E3.55907
G1 X122.044 Y94.357 E3.57172
G1 X122.378 Y94.922 E3.58591
G1 X122.981 Y96.049 E3.61354
G1 X123.253 Y96.597 E3.62677
G1 X123.509 Y97.189 E3.64071
G1 X123.963 Y98.378 E3.66822
G1 X124.142 Y98.882 E3.67979
G1 X124.337 Y99.534 E3.6945
G1 X124.582 Y100.512 E3.7163
G1 X124.722 Y101.14 E3.73021
G1 X124.831 Y101.767 E3.74397
G1 X124.975 Y102.873 E3.76808
G1 X125.03 Y103.45 E3.78061
G1 X125.05 Y103.875 E3.78981
G1 X125.079 Y105.301 E3.82064
G1 X125.073 Y105.846 E3.83243
G1 X125.044 Y106.318 E3.84265
G1 X124.942 Y107.418 E3.86653
G1 X124.892 Y107.854 E3.87602
G1 X124.789 Y108.479 E3.88971
G1 X124.585 Y109.46 E3.91138
G1 X124.43 Y110.119 E3.92601
G1 X124.244 Y110.766 E3.94057
G1 X123.84 Y111.965 E3.96792
G1 X123.675 Y112.419 E3.97836
G1 X123.395 Y113.076 E3.9938
G1 X122.773 Y114.361 E4.02467
G1 X122.478 Y114.914 E4.03822
G1 X122.24 Y115.309 E4.04819
G1 X121.526 Y116.416 E4.07666
G1 X121.137 Y116.972 E4.09133
G1 X120.798 Y117.406 E4.10324
G1 X119.947 Y118.417 E4.13181
G1 X119.491 Y118.918 E4.14646
G1 X119.138 Y119.266 E4.15717
G1 X118.119 Y120.209 E4.18719
G1 X117.712 Y120.562 E4.19883
G1 X117.248 Y120.921 E4.21152
G1 X116.207 Y121.664 E4.23917
G1 X115.594 Y122.069 E4.25505
G1 X115.106 Y122.357 E4.2673
G1 X113.943 Y122.985 E4.29588
G1 X113.435 Y123.237 E4.30814
G1 X112.927 Y123.456 E4.3201
G1 X111.634 Y123.958 E4.35008
G1 X110.985 Y124.182 E4.36492
G1 X110.451 Y124.335 E4.37693
G1 X109.31 Y124.617 E4.40234
G1 X108.574 Y124.769 E4.41859
G1 X108.158 Y124.837 E4.4277
G1 X107.081 Y124.982 E4.4512
G1 X106.405 Y125.042 E4.46587
G1 X105.571 Y125.079 E4.48392
G1 X105.254 Y125.106 E4.4908
G1 X104.532 Y125.097 E4.50641
G1 X103.694 Y125.045 E4.52456
G1 X103.002 Y124.991 E4.53956
G1 X102.32 Y124.906 E4.55442
G1 X100.903 Y124.664 E4.5855
G1 X100.057 Y124.469 E4.60427
G1 X98.719 Y124.078 E4.6344
G1 X97.916 Y123.793 E4.65283
G1 X96.577 Y123.231 E4.68422
G1 X95.811 Y122.858 E4.70264
G1 X94.559 Y122.157 E4.73366
G1 X93.848 Y121.705 E4.75187
G1 X92.716 Y120.893 E4.78199
G1 X92.042 Y120.348 E4.80073
G1 X90.996 Y119.398 E4.83128
G1 X90.413 Y118.806 E4.84924
G1 X89.493 Y117.764 E4.87929
G1 X88.927 Y117.038 E4.8992
G1 X88.028 Y115.727 E4.93356
G1 X87.547 Y114.924 E4.9538
G1 X86.817 Y113.511 E4.98818
G1 X86.437 Y112.647 E5.00859
G1 X85.891 Y111.159 E5.04285
G1 X85.626 Y110.27 E5.06291
G1 X85.282 Y108.791 E5.09574
G1 X85.122 Y107.814 E5.11714
G1 X84.957 Y106.12 E5.15394
G1 X84.921 Y105.389 E5.16976
G1 X84.924 Y105.067 E5.17672
G1 X84.951 Y104.156 E5.19642
G1 X84.962 Y103.664 E5.20706
G1 X85.04 Y102.788 E5.22608
G1 X85.263 Y101.281 E5.25901
G1 X85.461 Y100.352 E5.27955
G1 X85.817 Y99.085 E5.308
G1 X85.933 Y98.69 E5.3169
G1 X86.226 Y97.869 E5.33574
G1 X86.711 Y96.729 E5.36253
G1 X86.855 Y96.397 E5.37035
G1 X87.233 Y95.643 E5.38859
G1 X87.949 Y94.396 E5.41967
G1 X88.218 Y93.961 E5.43073
G1 X88.552 Y93.482 E5.44335
G1 X89.343 Y92.439 E5.47165
G1 X89.603 Y92.109 E5.48074
G1 X90.093 Y91.552 E5.49678
G1 X91.052 Y90.564 E5.52654
G0 F6000 X91.425 Y90.927
G1 F1200 X91.704 Y90.65 E5.53504
G1 X92.252 Y90.165 E5.55086
G1 X93.124 Y89.472 E5.57494
G1 X93.384 Y89.274 E5.58201
G1 X94.207 Y88.687 E5.60386
G1 X95.37 Y87.979 E5.6333
G1 X95.604 Y87.84 E5.63918
G1 X96.32 Y87.468 E5.65663
G1 X97.537 Y86.923 E5.68545
G1 X97.935 Y86.754 E5.6948
G1 X98.627 Y86.504 E5.71071
G1 X100.088 Y86.062 E5.74371
G1 X100.94 Y85.861 E5.76263
G1 X102.162 Y85.653 E5.78943
G1 X102.663 Y85.576 E5.80039
G1 X103.411 Y85.502 E5.81664
G1 X104.854 Y85.438 E5.84787
G1 X105.091 Y85.432 E5.85299
G1 X105.835 Y85.453 E5.86908
G1 X107.095 Y85.555 E5.89641
G1 X107.534 Y85.605 E5.90597
G1 X108.266 Y85.707 E5.92194
G1 X109.483 Y85.956 E5.9488
G1 X110.183 Y86.129 E5.96439
G1 X110.677 Y86.277 E5.97554
G1 X111.843 Y86.675 E6.00217
G1 X112.315 Y86.848 E6.01304
G1 X112.943 Y87.118 E6.02782
G1 X114.136 Y87.7 E6.05652
G1 X114.619 Y87.955 E6.06832
G1 X115.093 Y88.24 E6.08028
G1 X116.328 Y89.049 E6.1122
G1 X116.605 Y89.239 E6.11946
G1 X117.146 Y89.656 E6.13423
G1 X118.126 Y90.492 E6.16208
G1 X118.534 Y90.86 E6.17395
G1 X118.961 Y91.288 E6.18702
G1 X119.671 Y92.062 E6.20973
G1 X119.787 Y92.191 E6.21348
G1 X120.137 Y92.592 E6.22499
G1 X120.586 Y93.164 E6.24071
G1 X121.295 Y94.17 E6.26732
G1 X121.608 Y94.641 E6.27954
G1 X121.92 Y95.167 E6.29277
G1 X122.523 Y96.294 E6.3204
G1 X122.785 Y96.823 E6.33316
G1 X123.023 Y97.375 E6.34616
G1 X123.477 Y98.564 E6.37367
G1 X123.651 Y99.053 E6.38489
G1 X123.833 Y99.66 E6.39859
G1 X124.078 Y100.638 E6.42039
G1 X124.214 Y101.25 E6.43394
G1 X124.315 Y101.834 E6.44676
G1 X124.459 Y102.94 E6.47087
G1 X124.511 Y103.49 E6.48281
G1 X124.531 Y103.885 E6.49136
G1 X124.56 Y105.311 E6.5222
G1 X124.553 Y105.831 E6.53344
G1 X124.526 Y106.27 E6.54295
G1 X124.424 Y107.37 E6.56683
G1 X124.376 Y107.792 E6.57601
G1 X124.28 Y108.373 E6.58875
G1 X124.076 Y109.354 E6.61041
G1 X123.925 Y109.997 E6.62469
G1 X123.752 Y110.6 E6.63825
G1 X123.348 Y111.799 E6.6656
G1 X123.188 Y112.237 E6.67568
G1 X122.927 Y112.85 E6.69009
G1 X122.305 Y114.135 E6.72095
G1 X122.025 Y114.66 E6.73381
G1 X121.803 Y115.027 E6.74309
G1 X121.089 Y116.134 E6.77157
G1 X120.716 Y116.667 E6.78563
G1 X120.401 Y117.071 E6.79671
G1 X119.55 Y118.082 E6.82527
G1 X119.113 Y118.56 E6.83928
G1 X118.785 Y118.884 E6.84924
G1 X117.766 Y119.827 E6.87926
G1 X117.378 Y120.163 E6.89036
G1 X116.946 Y120.498 E6.90217
G1 X115.905 Y121.241 E6.92982
G1 X115.313 Y121.631 E6.94515
G1 X114.858 Y121.899 E6.95657
G1 X113.695 Y122.527 E6.98514
G1 X113.212 Y122.767 E6.9968
G1 X112.739 Y122.971 E7.00794
G1 X111.446 Y123.473 E7.03792
G1 X110.824 Y123.687 E7.05214
G1 X110.326 Y123.83 E7.06335
G1 X109.185 Y124.112 E7.08876
G1 X108.476 Y124.258 E7.1044
G1 X108.089 Y124.321 E7.11288
G1 X107.012 Y124.466 E7.13638
G1 X106.383 Y124.522 E7.15003
G1 X105.557 Y124.558 E7.1679
G1 X105.21 Y124.588 E7.17543
G1 X104.563 Y124.578 E7.18942
G1 X103.735 Y124.527 E7.20736
G1 X103.043 Y124.473 E7.22236
G1 X102.407 Y124.394 E7.23622
G1 X100.99 Y124.152 E7.26729
G1 X100.203 Y123.97 E7.28476
G1 X98.865 Y123.579 E7.31489
G1 X98.117 Y123.314 E7.33205
G1 X96.778 Y122.752 E7.36344
G1 X96.065 Y122.404 E7.3806
G1 X94.813 Y121.703 E7.41162
G1 X94.151 Y121.282 E7.42858
G1 X93.019 Y120.47 E7.4587
G1 X92.391 Y119.963 E7.47615
G1 X91.345 Y119.013 E7.50669
G1 X90.803 Y118.462 E7.5234
G1 X89.883 Y117.42 E7.55345
G1 X89.355 Y116.744 E7.572
G1 X88.456 Y115.433 E7.60636
G1 X88.009 Y114.685 E7.6252
G1 X87.279 Y113.272 E7.65959
G1 X86.926 Y112.468 E7.67857
G1 X86.38 Y110.98 E7.71284
G1 X86.133 Y110.152 E7.73152
G1 X85.789 Y108.673 E7.76434
G1 X85.639 Y107.764 E7.78426
G1 X85.474 Y106.07 E7.82106
G1 X85.441 Y105.389 E7.8358
G1 X85.444 Y105.082 E7.84244
G1 X85.471 Y104.156 E7.86246
G1 X85.482 Y103.679 E7.87278
G1 X85.555 Y102.864 E7.89047
G1 X85.778 Y101.357 E7.9234
G1 X85.962 Y100.492 E7.94252
G1 X86.315 Y99.232 E7.97081
G1 X86.431 Y98.837 E7.97971
G1 X86.705 Y98.072 E7.99728
G1 X87.188 Y96.936 E8.02397
G1 X87.332 Y96.604 E8.03179
G1 X87.684 Y95.901 E8.04879
G1 X88.4 Y94.654 E8.07987
G1 X88.655 Y94.242 E8.09035
G1 X88.967 Y93.796 E8.10211
G1 X89.758 Y92.753 E8.13041
G1 X90.01 Y92.433 E8.13922
G1 X90.466 Y91.915 E8.15414
G1 X91.425 Y90.927 E8.18391
G0 F6000 X91.798 Y91.289
G1 F1200 X92.068 Y91.021 E8.19213
G1 X92.576 Y90.572 E8.20679
G1 X93.448 Y89.879 E8.23087
G1 X93.716 Y89.674 E8.23816
G1 X94.477 Y89.131 E8.25837
G1 X95.635 Y88.426 E8.28768
G1 X95.869 Y88.287 E8.29357
G1 X96.532 Y87.943 E8.30972
G1 X97.749 Y87.398 E8.33854
G1 X98.137 Y87.233 E8.34766
G1 X98.778 Y87.001 E8.3624
G1 X100.239 Y86.559 E8.3954
G1 X101.027 Y86.374 E8.4129
G1 X102.241 Y86.167 E8.43952
G1 X102.742 Y86.09 E8.45048
G1 X103.435 Y86.022 E8.46553
G1 X104.867 Y85.958 E8.49652
G1 X105.104 Y85.952 E8.50165
G1 X105.793 Y85.971 E8.51655
G1 X107.053 Y86.073 E8.54388
G1 X107.474 Y86.121 E8.55304
G1 X108.162 Y86.217 E8.56806
G1 X109.379 Y86.466 E8.59491
G1 X110.052 Y86.632 E8.6099
G1 X110.509 Y86.769 E8.62021
G1 X111.675 Y87.167 E8.64685
G1 X112.133 Y87.336 E8.6574
G1 X112.715 Y87.585 E8.67109
G1 X113.908 Y88.167 E8.69978
G1 X114.369 Y88.411 E8.71106
G1 X114.808 Y88.675 E8.72214
G1 X116.043 Y89.484 E8.75405
G1 X116.308 Y89.665 E8.76099
G1 X116.808 Y90.052 E8.77466
G1 X117.788 Y90.888 E8.80251
G1 X118.182 Y91.243 E8.81397
G1 X118.578 Y91.639 E8.82608
G1 X119.288 Y92.413 E8.84879
G1 X119.745 Y92.934 E8.86377
G1 X120.161 Y93.463 E8.87832
G1 X120.87 Y94.469 E8.90493
G1 X121.173 Y94.926 E8.91678
G1 X121.461 Y95.413 E8.92901
G1 X122.064 Y96.54 E8.95665
G1 X122.317 Y97.05 E8.96895
G1 X122.537 Y97.56 E8.98096
G1 X122.991 Y98.749 E9.00848
G1 X123.16 Y99.224 E9.01938
G1 X123.328 Y99.786 E9.03206
G1 X123.573 Y100.764 E9.05386
G1 X123.706 Y101.361 E9.06708
G1 X123.8 Y101.901 E9.07893
G1 X123.944 Y103.007 E9.10304
G1 X123.993 Y103.529 E9.11438
G1 X124.011 Y103.896 E9.12232
G1 X124.04 Y105.322 E9.15315
G1 X124.008 Y106.222 E9.17262
G1 X123.906 Y107.322 E9.19651
G1 X123.859 Y107.729 E9.20536
G1 X123.771 Y108.267 E9.21715
G1 X123.567 Y109.248 E9.23881
G1 X123.419 Y109.876 E9.25276
G1 X123.259 Y110.434 E9.26531
G1 X122.855 Y111.633 E9.29266
G1 X122.701 Y112.056 E9.3024
G1 X122.459 Y112.623 E9.31572
G1 X121.837 Y113.908 E9.34659
G1 X121.571 Y114.405 E9.35877
G1 X121.366 Y114.745 E9.36736
G1 X120.652 Y115.852 E9.39584
G1 X120.295 Y116.362 E9.40929
G1 X120.003 Y116.736 E9.41955
G1 X119.152 Y117.747 E9.44812
G1 X118.736 Y118.202 E9.46145
G1 X118.432 Y118.503 E9.4707
G1 X117.413 Y119.446 E9.50071
G1 X117.044 Y119.765 E9.51126
