;FLAVOR:Marlin
;TIME:2509
;Filament used: 0.40256m
;Layer height: 0.05
;MINX:84.37
;MINY:84.36
;MINZ:0.1
;MAXX:125.644
;MAXY:125.644
;MAXZ:8
;Generated with Cura_SteamEngine 4.13.1
M140 S59
M105
M190 S59
M104 S200
M105
M109 S200
M82 ;absolute extrusion mode
G21 ;metric values
G90 ;absolute positioning
M82 ;set extruder to absolute mode
M107 ;start with the fan off
G28 X0 Y0 ;move X/Y to min endstops
G28 Z0 ;move Z to min endstops
G1 Z15.0 F120 ;move the platform down 15mm
G92 E0 ;zero the extruded length
G1 F200 E3 ;extrude 3mm of feed stock
G92 E0 ;zero the extruded length again
G1 F120
M117 Printing...
G5
G92 E0
G92 E0
G1 F4200 E-6
;LAYER_COUNT:159
;LAYER:0
M107
G0 F6000 X90.757 Y90.072 Z0.1
;TYPE:SKIRT
G1 F4200 E0
G1 F1200 X91.513 Y89.384 E0.0221
G1 X92.773 Y88.376 E0.05698
G1 X93.594 Y87.799 E0.07868
G1 X94.918 Y86.987 E0.11226
G1 X95.847 Y86.498 E0.13495
G1 X97.18 Y85.903 E0.16651
G1 X97.61 Y85.725 E0.17657
G1 X98.153 Y85.533 E0.18902
G1 X99.643 Y85.066 E0.22278
G1 X100.665 Y84.818 E0.24552
G1 X102.208 Y84.548 E0.27938
G1 X103.231 Y84.435 E0.30163
G1 X104.88 Y84.36 E0.33732
G1 X105.896 Y84.378 E0.35929
G1 X107.491 Y84.507 E0.39388
G1 X108.513 Y84.656 E0.41621
G1 X109.994 Y84.97 E0.44894
G1 X110.664 Y85.143 E0.4639
G1 X110.799 Y85.184 E0.46695
G1 X111.577 Y85.465 E0.48483
G1 X111.631 Y85.488 E0.4861
G1 X112.293 Y85.704 E0.50116
G1 X113.296 Y86.108 E0.52453
G1 X114.734 Y86.803 E0.55906
G1 X115.62 Y87.302 E0.58105
G1 X116.883 Y88.123 E0.61361
G1 X117.253 Y88.379 E0.62334
G1 X117.756 Y88.772 E0.63714
G1 X118.939 Y89.774 E0.67066
G1 X119.695 Y90.504 E0.69338
G1 X120.819 Y91.741 E0.72951
G1 X121.553 Y92.68 E0.75528
G1 X121.669 Y92.853 E0.75978
G1 X122.265 Y93.686 E0.78192
G1 X122.845 Y94.627 E0.80582
G1 X123.62 Y96.101 E0.84182
G1 X124.007 Y96.953 E0.86205
G1 X124.547 Y98.354 E0.89452
G1 X124.844 Y99.294 E0.91583
G1 X125.375 Y101.413 E0.96305
G1 X125.531 Y102.2 E0.9804
G1 X125.615 Y103.204 E1.00218
G1 X125.623 Y103.575 E1.0102
G1 X125.644 Y105.577 E1.05349
G1 X125.61 Y106.406 E1.07142
G1 X125.519 Y107.387 E1.09272
G1 X125.383 Y108.29 E1.11247
G1 X125.039 Y109.938 E1.14886
G1 X124.794 Y110.844 E1.16915
G1 X124.305 Y112.308 E1.20252
G1 X123.915 Y113.267 E1.2249
G1 X123.198 Y114.748 E1.26048
G1 X122.704 Y115.624 E1.28222
G1 X121.894 Y116.872 E1.31438
G1 X121.289 Y117.687 E1.33633
G1 X120.252 Y118.914 E1.37106
G1 X119.562 Y119.634 E1.39262
G1 X118.395 Y120.711 E1.42695
G1 X117.609 Y121.35 E1.44885
G1 X116.378 Y122.228 E1.48154
G1 X115.51 Y122.767 E1.50363
G1 X114.072 Y123.539 E1.53891
G1 X113.209 Y123.939 E1.55948
G1 X111.711 Y124.528 E1.59428
G1 X110.679 Y124.856 E1.61769
G1 X109.233 Y125.21 E1.64987
G1 X108.405 Y125.367 E1.66809
G1 X107.371 Y125.507 E1.69065
G1 X106.426 Y125.604 E1.71119
G1 X105.39 Y125.644 E1.7336
G1 X104.633 Y125.638 E1.74997
G1 X103.153 Y125.556 E1.78201
G1 X102.187 Y125.443 E1.80304
G1 X100.788 Y125.194 E1.83376
G1 X100.041 Y125.025 E1.85032
G1 X98.602 Y124.625 E1.8826
G1 X97.603 Y124.274 E1.9055
G1 X96.314 Y123.725 E1.93579
G1 X95.559 Y123.357 E1.95394
G1 X94.374 Y122.699 E1.98325
G1 X93.59 Y122.202 E2.00332
G1 X92.385 Y121.338 E2.03537
G1 X91.67 Y120.761 E2.05523
G1 X90.637 Y119.825 E2.08537
G1 X89.996 Y119.175 E2.10511
G1 X89.07 Y118.122 E2.13542
G1 X88.488 Y117.376 E2.15588
G1 X87.574 Y116.051 E2.19068
G1 X87.068 Y115.211 E2.21188
G1 X86.396 Y113.927 E2.24321
G1 X86.116 Y113.336 E2.25735
G1 X85.867 Y112.725 E2.27161
G1 X85.381 Y111.405 E2.30202
G1 X85.08 Y110.361 E2.32551
G1 X84.727 Y108.874 E2.35855
G1 X84.564 Y107.936 E2.37913
G1 X84.42 Y106.665 E2.40679
G1 X84.37 Y105.614 E2.42953
G1 X84.402 Y103.818 E2.46837
G1 X84.495 Y102.737 E2.49182
G1 X84.753 Y101.059 E2.52853
G1 X84.954 Y100.124 E2.5492
G1 X85.354 Y98.686 E2.58147
G1 X85.686 Y97.728 E2.60339
G1 X86.293 Y96.281 E2.63732
G1 X86.777 Y95.315 E2.66067
G1 X87.574 Y93.959 E2.69468
G1 X88.069 Y93.215 E2.714
G1 X88.984 Y91.992 E2.74702
G1 X89.497 Y91.374 E2.76438
G1 X90.757 Y90.072 E2.80355
G0 F6000 X91.13 Y90.434
G1 F1200 X91.838 Y89.79 E2.82424
G1 X93.098 Y88.782 E2.85913
G1 X93.866 Y88.243 E2.87941
G1 X95.19 Y87.431 E2.91299
G1 X96.059 Y86.973 E2.93423
G1 X97.392 Y86.378 E2.96579
G1 X97.8 Y86.209 E2.97533
G1 X98.309 Y86.029 E2.98701
G1 X99.799 Y85.562 E3.02076
G1 X100.754 Y85.33 E3.04201
G1 X102.297 Y85.06 E3.07588
G1 X103.254 Y84.955 E3.09669
G1 X104.903 Y84.88 E3.13238
G1 X105.854 Y84.897 E3.15294
G1 X107.449 Y85.026 E3.18753
G1 X108.405 Y85.165 E3.20842
G1 X109.886 Y85.479 E3.24115
G1 X110.513 Y85.64 E3.25514
G1 X110.648 Y85.681 E3.25819
G1 X111.376 Y85.944 E3.27493
G1 X111.454 Y85.977 E3.27676
G1 X112.131 Y86.198 E3.29216
G1 X113.07 Y86.576 E3.31404
G1 X114.508 Y87.271 E3.34857
G1 X115.336 Y87.738 E3.36912
G1 X116.599 Y88.559 E3.40169
G1 X116.95 Y88.801 E3.4109
G1 X117.42 Y89.168 E3.42379
G1 X118.603 Y90.17 E3.45731
G1 X119.31 Y90.853 E3.47856
G1 X120.434 Y92.09 E3.5147
G1 X121.121 Y92.969 E3.53882
G1 X121.251 Y93.164 E3.54388
G1 X121.842 Y93.989 E3.56582
G1 X122.385 Y94.869 E3.58818
G1 X123.16 Y96.343 E3.62418
G1 X123.521 Y97.14 E3.6431
G1 X124.061 Y98.541 E3.67556
G1 X124.34 Y99.42 E3.69549
G1 X124.871 Y101.539 E3.74272
G1 X125.021 Y102.301 E3.75951
G1 X125.095 Y103.215 E3.77934
G1 X125.103 Y103.581 E3.78725
G1 X125.124 Y105.583 E3.83053
G1 X125.092 Y106.358 E3.8473
G1 X125.001 Y107.339 E3.8686
G1 X124.874 Y108.184 E3.88708
G1 X124.53 Y109.832 E3.92347
G1 X124.301 Y110.68 E3.94246
G1 X123.812 Y112.144 E3.97583
G1 X123.447 Y113.041 E3.99677
G1 X122.73 Y114.522 E4.03234
G1 X122.268 Y115.341 E4.05267
G1 X121.458 Y116.589 E4.08483
G1 X120.892 Y117.351 E4.10535
G1 X119.855 Y118.578 E4.14009
G1 X119.21 Y119.252 E4.16025
G1 X118.043 Y120.329 E4.19459
G1 X117.307 Y120.927 E4.21509
G1 X116.076 Y121.805 E4.24778
G1 X115.264 Y122.309 E4.26844
G1 X113.826 Y123.081 E4.30372
G1 X113.019 Y123.455 E4.32295
G1 X111.521 Y124.044 E4.35775
G1 X110.555 Y124.351 E4.37966
G1 X109.109 Y124.705 E4.41185
G1 X108.335 Y124.852 E4.42888
G1 X107.301 Y124.992 E4.45144
G1 X106.406 Y125.084 E4.47089
G1 X105.37 Y125.124 E4.4933
G1 X104.662 Y125.118 E4.50861
G1 X103.182 Y125.036 E4.54066
G1 X102.278 Y124.931 E4.56033
G1 X100.879 Y124.682 E4.59105
G1 X100.181 Y124.524 E4.60652
G1 X98.742 Y124.124 E4.63881
G1 X97.806 Y123.796 E4.66026
G1 X96.517 Y123.247 E4.69054
G1 X95.812 Y122.902 E4.70751
G1 X94.627 Y122.244 E4.73682
G1 X93.893 Y121.78 E4.75559
G1 X92.688 Y120.916 E4.78764
G1 X92.019 Y120.375 E4.80625
G1 X90.986 Y119.439 E4.83638
G1 X90.387 Y118.831 E4.85483
G1 X89.461 Y117.778 E4.88515
G1 X88.916 Y117.08 E4.90429
G1 X88.002 Y115.755 E4.93909
G1 X87.529 Y114.97 E4.95891
G1 X86.857 Y113.686 E4.99024
G1 X86.595 Y113.133 E5.00347
G1 X86.355 Y112.545 E5.0172
G1 X85.869 Y111.225 E5.04761
G1 X85.585 Y110.243 E5.06971
G1 X85.564 Y110.162 E5.07152
G1 X85.233 Y108.755 E5.10276
G1 X85.081 Y107.878 E5.12201
G1 X84.937 Y106.607 E5.14966
G1 X84.89 Y105.624 E5.17094
G1 X84.922 Y103.828 E5.20977
G1 X85.009 Y102.816 E5.23173
G1 X85.267 Y101.138 E5.26843
G1 X85.455 Y100.263 E5.28778
G1 X85.855 Y98.825 E5.32005
G1 X86.166 Y97.929 E5.34055
G1 X86.773 Y96.482 E5.37448
G1 X87.226 Y95.578 E5.39634
G1 X88.023 Y94.222 E5.43034
G1 X88.486 Y93.526 E5.44841
G1 X89.401 Y92.303 E5.48144
G1 X89.897 Y91.706 E5.49822
G1 X90.042 Y91.558 E5.5027
G1 X91.13 Y90.434 E5.53651
G0 F6000 X91.504 Y90.796
G1 F1200 X92.163 Y90.196 E5.55578
G1 X93.423 Y89.188 E5.59067
G1 X94.138 Y88.686 E5.60955
G1 X95.462 Y87.874 E5.64313
G1 X96.271 Y87.448 E5.6629
G1 X97.604 Y86.853 E5.69446
G1 X97.991 Y86.693 E5.70351
G1 X98.464 Y86.525 E5.71436
G1 X99.954 Y86.058 E5.74812
G1 X100.844 Y85.842 E5.76792
G1 X102.387 Y85.572 E5.80178
G1 X103.278 Y85.474 E5.82116
G1 X104.927 Y85.399 E5.85685
G1 X105.812 Y85.415 E5.87599
G1 X107.407 Y85.544 E5.91058
G1 X108.297 Y85.674 E5.93003
G1 X109.778 Y85.988 E5.96276
G1 X110.362 Y86.138 E5.97579
G1 X110.497 Y86.179 E5.97884
G1 X111.175 Y86.423 E5.99442
G1 X111.274 Y86.464 E5.99674
G1 X111.97 Y86.692 E6.01257
G1 X112.844 Y87.044 E6.03294
G1 X114.282 Y87.739 E6.06747
G1 X115.053 Y88.174 E6.08661
G1 X116.316 Y88.995 E6.11917
G1 X116.646 Y89.223 E6.12784
G1 X117.084 Y89.565 E6.13986
G1 X118.267 Y90.567 E6.17337
G1 X118.926 Y91.203 E6.19317
G1 X120.05 Y92.44 E6.22931
G1 X120.689 Y93.258 E6.25175
G1 X120.834 Y93.475 E6.25739
G1 X121.419 Y94.292 E6.27912
G1 X121.924 Y95.111 E6.29992
G1 X122.699 Y96.585 E6.33592
G1 X123.036 Y97.327 E6.35354
G1 X123.576 Y98.728 E6.386
G1 X123.835 Y99.547 E6.40457
G1 X124.366 Y101.666 E6.4518
G1 X124.51 Y102.401 E6.46799
G1 X124.575 Y103.226 E6.48588
G1 X124.583 Y103.586 E6.49366
G1 X124.604 Y105.588 E6.53695
G1 X124.574 Y106.31 E6.55257
G1 X124.483 Y107.291 E6.57387
G1 X124.365 Y108.077 E6.59105
G1 X124.021 Y109.725 E6.62745
G1 X123.807 Y110.515 E6.64514
G1 X123.318 Y111.979 E6.67851
G1 X122.978 Y112.814 E6.698
G1 X122.261 Y114.295 E6.73358
G1 X121.831 Y115.058 E6.75251
G1 X121.021 Y116.306 E6.78468
G1 X120.495 Y117.015 E6.80376
G1 X119.458 Y118.242 E6.83849
G1 X118.857 Y118.87 E6.85729
G1 X117.69 Y119.947 E6.89162
G1 X117.005 Y120.503 E6.91069
G1 X115.774 Y121.381 E6.94338
G1 X115.018 Y121.851 E6.96262
G1 X113.58 Y122.623 E6.99791
G1 X112.829 Y122.971 E7.0158
G1 X111.331 Y123.56 E7.0506
G1 X110.431 Y123.846 E7.07102
G1 X108.985 Y124.2 E7.1032
G1 X108.264 Y124.337 E7.11907
G1 X107.23 Y124.478 E7.14163
G1 X106.386 Y124.565 E7.15997
G1 X105.35 Y124.605 E7.18239
G1 X104.691 Y124.599 E7.19663
G1 X103.211 Y124.517 E7.22868
G1 X102.369 Y124.419 E7.24701
G1 X100.97 Y124.17 E7.27773
G1 X100.32 Y124.023 E7.29213
G1 X98.881 Y123.623 E7.32442
G1 X98.01 Y123.318 E7.34437
G1 X96.721 Y122.769 E7.37466
G1 X96.064 Y122.447 E7.39048
G1 X94.879 Y121.789 E7.41979
G1 X94.196 Y121.357 E7.43726
G1 X92.991 Y120.493 E7.46931
G1 X92.368 Y119.99 E7.48662
G1 X91.335 Y119.054 E7.51676
G1 X90.777 Y118.488 E7.53394
G1 X89.851 Y117.435 E7.56426
G1 X89.344 Y116.785 E7.58208
G1 X88.43 Y115.46 E7.61688
G1 X87.989 Y114.729 E7.63534
G1 X87.317 Y113.445 E7.66667
G1 X87.074 Y112.93 E7.67898
G1 X86.843 Y112.365 E7.69217
G1 X86.357 Y111.045 E7.72258
G1 X86.091 Y110.124 E7.74331
G1 X85.739 Y108.636 E7.77637
G1 X85.598 Y107.819 E7.79429
G1 X85.454 Y106.548 E7.82194
G1 X85.41 Y105.633 E7.84175
G1 X85.442 Y103.837 E7.88058
G1 X85.523 Y102.895 E7.90102
G1 X85.781 Y101.217 E7.93772
G1 X85.956 Y100.403 E7.95572
G1 X86.356 Y98.965 E7.98799
G1 X86.646 Y98.13 E8.0071
G1 X87.253 Y96.683 E8.04103
G1 X87.674 Y95.842 E8.06136
G1 X88.471 Y94.486 E8.09536
G1 X88.902 Y93.838 E8.11219
G1 X89.817 Y92.615 E8.14521
G1 X90.297 Y92.04 E8.1614
G1 X90.416 Y91.92 E8.16506
G1 X91.504 Y90.796 E8.19888
G0 F6000 X91.878 Y91.157
G1 F1200 X92.487 Y90.602 E8.21669
G1 X93.747 Y89.594 E8.25157
G1 X94.41 Y89.129 E8.26908
G1 X95.734 Y88.317 E8.30266
G1 X96.483 Y87.922 E8.32096
G1 X97.816 Y87.327 E8.35252
G1 X98.62 Y87.022 E8.37111
G1 X100.11 Y86.555 E8.40487
G1 X100.934 Y86.354 E8.42321
G1 X102.477 Y86.084 E8.45707
G1 X103.302 Y85.994 E8.47501
G1 X104.951 Y85.919 E8.5107
G1 X105.77 Y85.933 E8.52841
G1 X107.365 Y86.062 E8.56301
G1 X108.189 Y86.182 E8.58101
G1 X109.67 Y86.496 E8.61374
G1 X110.211 Y86.636 E8.62582
G1 X110.346 Y86.677 E8.62887
G1 X110.973 Y86.903 E8.64328
G1 X111.092 Y86.953 E8.64607
G1 X111.808 Y87.187 E8.66235
G1 X112.617 Y87.513 E8.68121
G1 X114.055 Y88.208 E8.71574
G1 X114.77 Y88.61 E8.73347
G1 X116.033 Y89.431 E8.76604
G1 X116.343 Y89.645 E8.77418
G1 X116.748 Y89.962 E8.7853
G1 X117.931 Y90.964 E8.81882
G1 X118.541 Y91.553 E8.83715
G1 X119.665 Y92.79 E8.87328
G1 X120.257 Y93.547 E8.89406
G1 X120.406 Y93.77 E8.89986
G1 X120.996 Y94.594 E8.92177
G1 X121.464 Y95.353 E8.94104
G1 X122.239 Y96.827 E8.97705
G1 X122.551 Y97.514 E8.99336
G1 X123.091 Y98.915 E9.02582
G1 X123.331 Y99.673 E9.04301
G1 X123.862 Y101.792 E9.09024
G1 X123.998 Y102.5 E9.10582
G1 X124.056 Y103.237 E9.1218
G1 X124.063 Y103.592 E9.12948
G1 X124.084 Y105.594 E9.17276
G1 X124.056 Y106.262 E9.18722
G1 X123.965 Y107.243 E9.20852
G1 X123.856 Y107.971 E9.22443
G1 X123.512 Y109.619 E9.26083
G1 X123.314 Y110.35 E9.2772
G1 X122.825 Y111.814 E9.31057
G1 X122.51 Y112.587 E9.32862
G1 X121.793 Y114.068 E9.36419
G1 X121.395 Y114.775 E9.38173
G1 X120.585 Y116.023 E9.41389
G1 X120.097 Y116.68 E9.43159
G1 X119.06 Y117.907 E9.46632
G1 X118.504 Y118.488 E9.48371
G1 X117.337 Y119.565 E9.51804
G1 X116.703 Y120.08 E9.5357
G1 X115.472 Y120.958 E9.56838
G1 X114.773 Y121.393 E9.58618
G1 X113.335 Y122.165 E9.62147
G1 X112.638 Y122.487 E9.63807
G1 X111.14 Y123.076 E9.67287
G1 X110.308 Y123.341 E9.69174
G1 X108.862 Y123.695 E9.72393
G1 X108.194 Y123.821 E9.73862
G1 X107.289 Y123.944 E9.75837
G1 X107.19 Y123.961 E9.76054
G1 X106.366 Y124.045 E9.77845
G1 X105.33 Y124.085 E9.80086
G1 X104.719 Y124.08 E9.81407
G1 X103.239 Y123.998 E9.84612
G1 X102.46 Y123.907 E9.86307
G1 X101.061 Y123.658 E9.89379
G1 X100.459 Y123.522 E9.90714
G1 X99.02 Y123.122 E9.93942
G1 X98.214 Y122.839 E9.95789
G1 X96.925 Y122.29 E9.98818
G1 X96.317 Y121.993 E10.00281
G1 X95.132 Y121.335 E10.03211
G1 X94.499 Y120.934 E10.04831
G1 X93.294 Y120.07 E10.08037
G1 X92.718 Y119.605 E10.09637
G1 X91.685 Y118.669 E10.12651
G1 X91.168 Y118.144 E10.14244
G1 X90.242 Y117.091 E10.17275
G1 X89.773 Y116.49 E10.18924
G1 X88.859 Y115.165 E10.22403
G1 X88.45 Y114.488 E10.24113
G1 X87.778 Y113.204 E10.27247
G1 X87.553 Y112.727 E10.28387
G1 X87.331 Y112.186 E10.29651
G1 X86.845 Y110.866 E10.32692
G1 X86.588 Y109.978 E10.34691
G1 X86.572 Y109.902 E10.34858
G1 X86.246 Y108.517 E10.37935
G1 X86.114 Y107.761 E10.39594
G1 X85.97 Y106.49 E10.42359
G1 X85.93 Y105.642 E10.44194
G1 X85.962 Y103.846 E10.48078
G1 X86.036 Y102.974 E10.4997
G1 X86.294 Y101.296 E10.5364
G1 X86.457 Y100.542 E10.55308
G1 X86.857 Y99.104 E10.58535
G1 X87.125 Y98.332 E10.60301
G1 X87.732 Y96.885 E10.63694
G1 X88.122 Y96.105 E10.65579
G1 X88.919 Y94.749 E10.68979
G1 X89.318 Y94.149 E10.70537
G1 X90.233 Y92.926 E10.73839
G1 X90.697 Y92.374 E10.75398
G1 X90.79 Y92.281 E10.75683
G1 X91.878 Y91.157 E10.79065
G0 F6000 X92.251 Y91.519
G1 F1200 X92.812 Y91.008 E10.80705
G1 X94.072 Y90 E10.84194
G1 X94.682 Y89.572 E10.85805
G1 X96.006 Y88.76 E10.89162
G1 X96.695 Y88.397 E10.90846
G1 X98.028 Y87.802 E10.94002
G1 X98.776 Y87.518 E10.95732
G1 X100.266 Y87.051 E10.99107
G1 X101.023 Y86.867 E11.00792
G1 X102.566 Y86.597 E11.04178
G1 X103.325 Y86.513 E11.05829
G1 X104.974 Y86.438 E11.09398
G1 X105.728 Y86.451 E11.11028
G1 X107.323 Y86.58 E11.14487
G1 X108.081 Y86.691 E11.16144
G1 X109.562 Y87.005 E11.19417
G1 X110.06 Y87.133 E11.20528
G1 X110.195 Y87.174 E11.20833
G1 X110.772 Y87.382 E11.22159
G1 X110.912 Y87.441 E11.22488
G1 X111.647 Y87.681 E11.24159
G1 X112.391 Y87.981 E11.25894
G1 X113.829 Y88.676 E11.29346
G1 X114.486 Y89.046 E11.30977
G1 X115.749 Y89.867 E11.34233
G1 X116.412 Y90.359 E11.36018
G1 X117.595 Y91.361 E11.3937
G1 X118.156 Y91.902 E11.41055
G1 X119.28 Y93.139 E11.44668
G1 X119.825 Y93.836 E11.46581
G1 X119.975 Y94.06 E11.47164
G1 X120.574 Y94.897 E11.49389
G1 X121.004 Y95.595 E11.51161
G1 X121.779 Y97.069 E11.54762
G1 X122.066 Y97.701 E11.56262
G1 X122.606 Y99.102 E11.59508
G1 X122.827 Y99.799 E11.61089
G1 X123.358 Y101.918 E11.65812
G1 X123.487 Y102.598 E11.67308
G1 X123.536 Y103.247 E11.68715
G1 X123.543 Y103.597 E11.69472
G1 X123.564 Y105.599 E11.738
G1 X123.538 Y106.214 E11.75131
G1 X123.447 Y107.195 E11.77261
G1 X123.347 Y107.865 E11.78726
G1 X123.003 Y109.513 E11.82365
G1 X122.821 Y110.186 E11.83872
G1 X122.332 Y111.65 E11.87209
G1 X122.042 Y112.361 E11.88869
G1 X121.325 Y113.842 E11.92427
G1 X120.959 Y114.492 E11.94039
G1 X120.149 Y115.74 E11.97256
G1 X119.7 Y116.344 E11.98883
