;FLAVOR:Marlin
;TIME:12055
;Filament used: 8.8297m
;Layer height: 0.2
;MINX:17.8
;MINY:84.907
;MINZ:0.3
;MAXX:192.2
;MAXY:122.702
;MAXZ:22.3
;Generated with Cura_SteamEngine 4.2.1
M140 S60
M105
M190 S60
M104 S200
M105
M109 S200
M82 ;absolute extrusion mode
G21 ;metric values
G90 ;absolute positioning
M82 ;set extruder to absolute mode
M107 ;start with the fan off
G28 X0 Y0 ;move X/Y to min endstops
G28 Z0 ;move Z to min endstops
G1 Z15.0 F60 ;move the platform down 15mm
G92 E0 ;zero the extruded length
G1 F200 E3 ;extrude 3mm of feed stock
G92 E0 ;zero the extruded length again
G1 F60
M117 Printing...
G5
M141 S28
G92 E0
G92 E0
G1 F1500 E-6.5
;LAYER_COUNT:111
;LAYER:0
M107
M204 S300
M205 X8.18 Y8.18
G0 F1800 X20.534 Y84.967 Z0.3
M205 X3 Y3
;TYPE:SKIRT
G1 F1500 E0
G1 F1200 X21.089 Y84.912 E0.02782
G1 X21.524 Y84.907 E0.04953
G1 X21.95 Y84.931 E0.07082
G1 X22.464 Y84.994 E0.09665
G1 X22.865 Y85.069 E0.117
G1 X24.078 Y85.378 E0.17945
G1 X26.731 Y86.016 E0.31559
G1 X29.451 Y86.59 E0.45428
G1 X32.095 Y87.067 E0.58831
G1 X34.832 Y87.483 E0.72643
G1 X37.534 Y87.816 E0.86226
G1 X40.278 Y88.076 E0.99977
G1 X42.983 Y88.254 E1.13501
G1 X45.738 Y88.358 E1.27256
G1 X48.491 Y88.385 E1.40991
G1 X51.208 Y88.334 E1.54549
G1 X53.922 Y88.206 E1.68104
G1 X56.684 Y87.998 E1.81923
G1 X57.873 Y87.872 E1.87888
G1 X57.912 Y87.868 E1.88083
G1 X59.038 Y87.763 E1.93725
G1 X59.083 Y87.759 E1.93951
G1 X59.932 Y87.692 E1.982
G1 X60.084 Y87.684 E1.98959
G1 X60.692 Y87.665 E2.01994
G1 X60.842 Y87.663 E2.02742
G1 X61.673 Y87.676 E2.06889
G1 X61.837 Y87.683 E2.07708
G1 X62.598 Y87.734 E2.11513
G1 X62.742 Y87.747 E2.12234
G1 X63.391 Y87.82 E2.15492
G1 X63.604 Y87.851 E2.16566
G1 X65.022 Y88.108 E2.23756
G1 X65.225 Y88.152 E2.24792
G1 X65.578 Y88.24 E2.26607
G1 X65.693 Y88.271 E2.27201
G1 X66.793 Y88.589 E2.32914
G1 X66.903 Y88.623 E2.33489
G1 X67.834 Y88.929 E2.38378
G1 X67.875 Y88.943 E2.38594
G1 X68.968 Y89.319 E2.44361
G1 X71.568 Y90.131 E2.5795
G1 X74.19 Y90.868 E2.71538
G1 X76.882 Y91.544 E2.85385
G1 X79.518 Y92.128 E2.98855
G1 X82.248 Y92.652 E3.12724
G1 X84.912 Y93.086 E3.2619
G1 X87.633 Y93.45 E3.39886
G1 X90.371 Y93.737 E3.53621
G1 X93.117 Y93.947 E3.67361
G1 X95.833 Y94.078 E3.80927
G1 X98.551 Y94.132 E3.94489
G1 X101.297 Y94.109 E4.0819
G1 X105.377 Y93.932 E4.28564
G1 X106.133 Y93.884 E4.32343
G1 X106.28 Y93.878 E4.33077
G1 X106.84 Y93.868 E4.35872
G1 X106.897 Y93.867 E4.36156
G1 X115.371 Y93.866 E4.78433
G1 X115.416 Y93.866 E4.78658
G1 X116.131 Y93.876 E4.82225
G1 X116.269 Y93.881 E4.82914
G1 X119.233 Y94.051 E4.97726
G1 X121.981 Y94.129 E5.11441
G1 X124.698 Y94.129 E5.24996
G1 X127.481 Y94.05 E5.38886
G1 X129.54 Y93.941 E5.49173
G1 X130.43 Y93.884 E5.53622
G1 X130.577 Y93.878 E5.54356
G1 X131.14 Y93.868 E5.57166
G1 X131.197 Y93.867 E5.5745
G1 X139.671 Y93.866 E5.99727
G1 X139.717 Y93.866 E5.99957
G1 X141.235 Y93.888 E6.07531
G1 X141.277 Y93.889 E6.0774
G1 X142.508 Y93.923 E6.13884
G1 X145.229 Y93.921 E6.27459
G1 X147.98 Y93.842 E6.4119
G1 X150.73 Y93.684 E6.54932
G1 X153.443 Y93.452 E6.68517
G1 X156.13 Y93.146 E6.82009
G1 X158.885 Y92.752 E6.95894
G1 X159.89 Y92.585 E7.00976
G1 X159.976 Y92.572 E7.0141
G1 X160.186 Y92.543 E7.02468
G1 X160.525 Y92.515 E7.04165
G1 X160.783 Y92.507 E7.05453
G1 X160.882 Y92.505 E7.05947
G1 X178.176 Y92.504 E7.92227
G1 X178.222 Y92.504 E7.92456
G1 X178.923 Y92.514 E7.95954
G1 X179.426 Y92.561 E7.98474
G1 X179.916 Y92.687 E8.00998
G1 X180.379 Y92.889 E8.03519
G1 X180.698 Y93.083 E8.05381
G1 X181.11 Y93.368 E8.07881
G1 X183.411 Y94.922 E8.21733
G1 X185.434 Y96.206 E8.33687
G1 X185.585 Y96.308 E8.34596
G1 X186.152 Y96.715 E8.38078
G1 X189.258 Y98.919 E8.57079
G1 X189.672 Y99.2 E8.59576
G1 X189.736 Y99.246 E8.59969
G1 X190.085 Y99.496 E8.62111
G1 X190.607 Y99.963 E8.65605
G1 X190.845 Y100.229 E8.67386
G1 X190.926 Y100.324 E8.68009
G1 X191.05 Y100.474 E8.68979
G1 X191.408 Y101.007 E8.72183
G1 X191.657 Y101.474 E8.74823
G1 X191.899 Y102.064 E8.78005
G1 X191.965 Y102.285 E8.79155
G1 X192.032 Y102.552 E8.80529
G1 X192.106 Y102.909 E8.82348
G1 X192.171 Y103.447 E8.85051
G1 X192.192 Y104.051 E8.88066
G1 X192.194 Y104.131 E8.88466
G1 X192.2 Y104.746 E8.91534
G1 X192.2 Y106.841 E9.01986
G1 X192.192 Y107.406 E9.04805
G1 X192.183 Y107.602 E9.05784
G1 X192.137 Y108.21 E9.08826
G1 X192.055 Y108.729 E9.11447
G1 X191.85 Y109.568 E9.15756
G1 X191.829 Y109.646 E9.16159
G1 X191.532 Y110.74 E9.21815
G1 X190.89 Y113.393 E9.35433
G1 X190.32 Y116.075 E9.49112
G1 X189.657 Y119.844 E9.68205
G1 X189.465 Y120.504 E9.71634
G1 X189.41 Y120.638 E9.72356
G1 X189.182 Y121.089 E9.74878
G1 X188.886 Y121.499 E9.77401
G1 X188.696 Y121.702 E9.78788
G1 X188.626 Y121.771 E9.79278
G1 X188.239 Y122.096 E9.81799
G1 X187.806 Y122.357 E9.84322
G1 X187.337 Y122.546 E9.86844
G1 X186.844 Y122.658 E9.89367
G1 X186.437 Y122.691 E9.91404
G1 X185.878 Y122.701 E9.94193
G1 X185.821 Y122.702 E9.94478
G1 X181.797 Y122.702 E10.14553
G1 X181.092 Y122.692 E10.18071
G1 X180.999 Y122.689 E10.18535
G1 X180.467 Y122.666 E10.21192
G1 X180.425 Y122.664 E10.21402
G1 X178.698 Y122.567 E10.30031
G1 X174.587 Y122.48 E10.50546
G1 X111.544 Y122.478 E13.65069
G1 X29.324 Y122.477 E17.75266
G1 X29.278 Y122.477 E17.75495
G1 X28.579 Y122.467 E17.78983
G1 X28.076 Y122.42 E17.81503
G1 X27.586 Y122.294 E17.84028
G1 X27.122 Y122.092 E17.86552
G1 X26.696 Y121.82 E17.89074
G1 X26.451 Y121.615 E17.90668
G1 X25.532 Y120.764 E17.96916
G1 X23.473 Y118.901 E18.1077
G1 X21.368 Y117.103 E18.24581
G1 X19.124 Y115.294 E18.38961
G1 X18.879 Y115.075 E18.40601
G1 X18.757 Y114.954 E18.41458
G1 X18.427 Y114.571 E18.4398
G1 X18.162 Y114.14 E18.46504
G1 X17.967 Y113.674 E18.49025
G1 X17.849 Y113.182 E18.51549
G1 X17.811 Y112.739 E18.53767
G1 X17.801 Y112.182 E18.56546
G1 X17.8 Y112.125 E18.56831
G1 X17.8 Y88.881 E19.72796
G1 X17.81 Y88.19 E19.76243
G1 X17.858 Y87.686 E19.78769
G1 X17.983 Y87.197 E19.81287
G1 X18.185 Y86.733 E19.83812
G1 X18.457 Y86.307 E19.86334
G1 X18.673 Y86.05 E19.88008
G1 X18.789 Y85.926 E19.88856
G1 X19.163 Y85.585 E19.91381
G1 X19.585 Y85.307 E19.93902
G1 X20.046 Y85.1 E19.96423
G1 X20.534 Y84.967 E19.98946
M205 X8.18 Y8.18
G0 F1800 X21.2 Y88.302
M205 X3 Y3
;TYPE:SUPPORT
G1 F1200 X21.555 Y88.297 E20.00718
G1 X22.034 Y88.356 E20.03125
G1 X22.522 Y88.53 E20.0571
G1 X23.06 Y88.834 E20.08793
G1 X23.213 Y88.911 E20.09648
G1 X23.532 Y89.206 E20.11815
G1 X23.578 Y89.236 E20.12089
G1 X23.985 Y89.607 E20.14837
G1 X24.296 Y89.935 E20.17092
G1 X24.643 Y90.357 E20.19818
G1 X24.966 Y90.799 E20.22549
G1 X25.244 Y91.234 E20.25125
G1 X25.538 Y91.755 E20.28109
G1 X25.741 Y92.185 E20.30481
G1 X25.745 Y92.209 E20.30603
G1 X25.941 Y92.707 E20.33273
G1 X26.068 Y93.134 E20.35495
G1 X26.182 Y93.785 E20.38793
G1 X26.203 Y94.685 E20.43284
G1 X26.245 Y95.46 E20.47156
G1 X26.294 Y95.962 E20.49673
G1 X26.39 Y96.701 E20.5339
G1 X26.515 Y97.344 E20.56658
G1 X26.658 Y97.893 E20.59489
G1 X26.811 Y98.396 E20.62112
G1 X26.902 Y98.66 E20.63505
G1 X27.073 Y99.075 E20.65744
G1 X27.178 Y99.303 E20.66997
G1 X27.367 Y99.669 E20.69052
G1 X27.498 Y99.894 E20.70351
G1 X27.657 Y100.148 E20.71846
G1 X27.926 Y100.517 E20.74124
G1 X28.264 Y100.895 E20.76654
G1 X28.507 Y101.141 E20.78379
G1 X28.968 Y101.54 E20.8142
G1 X29.612 Y101.948 E20.85224
G1 X30.111 Y102.193 E20.87997
G1 X30.576 Y102.375 E20.90489
G1 X31.093 Y102.532 E20.93184
G1 X31.624 Y102.647 E20.95895
G1 X32.266 Y102.744 E20.99134
G1 X32.794 Y102.79 E21.01778
G1 X33.375 Y102.803 E21.04678
G1 X43.17 Y102.804 E21.53545
G1 X45.508 Y102.764 E21.65211
G1 X45.932 Y102.457 E21.67823
G1 X46.381 Y101.172 E21.74614
G1 X46.677 Y100.436 E21.78571
G1 X46.999 Y99.739 E21.82402
G1 X47.393 Y98.987 E21.86637
G1 X47.742 Y98.398 E21.90053
G1 X48.184 Y97.724 E21.94074
G1 X48.676 Y97.06 E21.98197
G1 X49.158 Y96.471 E22.01994
G1 X49.655 Y95.92 E22.05696
G1 X50.196 Y95.369 E22.09549
G1 X50.767 Y94.85 E22.13398
G1 X51.337 Y94.38 E22.17084
G1 X51.982 Y93.897 E22.21104
G1 X52.611 Y93.481 E22.24867
G1 X53.301 Y93.068 E22.28879
G1 X53.97 Y92.71 E22.32664
G1 X54.722 Y92.358 E22.36807
G1 X55.363 Y92.095 E22.40263
G1 X56.089 Y91.835 E22.44111
G1 X56.892 Y91.593 E22.48295
G1 X57.639 Y91.409 E22.52133
G1 X58.362 Y91.273 E22.55803
G1 X59.1 Y91.17 E22.59521
G1 X59.999 Y91.087 E22.64025
G1 X60.663 Y91.057 E22.67341
G1 X61.417 Y91.062 E22.71103
G1 X62.228 Y91.107 E22.75155
G1 X63.05 Y91.194 E22.79279
G1 X63.783 Y91.315 E22.82986
G1 X64.542 Y91.472 E22.86852
G1 X65.295 Y91.675 E22.90743
G1 X66.003 Y91.896 E22.94444
G1 X66.697 Y92.156 E22.98141
G1 X67.419 Y92.467 E23.02063
G1 X68.201 Y92.848 E23.06403
G1 X68.801 Y93.178 E23.09819
G1 X69.501 Y93.618 E23.13944
G1 X70.107 Y94.038 E23.17623
G1 X70.777 Y94.554 E23.21842
G1 X71.298 Y94.996 E23.2525
G1 X71.872 Y95.54 E23.29196
G1 X72.451 Y96.14 E23.33356
G1 X72.904 Y96.657 E23.36785
G1 X73.411 Y97.305 E23.4089
G1 X73.861 Y97.938 E23.44765
G1 X74.289 Y98.611 E23.48744
G1 X74.66 Y99.267 E23.52504
G1 X75.305 Y100.537 E23.5961
G1 X75.742 Y100.804 E23.62165
G1 X81.001 Y100.804 E23.88402
G1 X81.4 Y100.405 E23.91217
G1 X81.4 Y97.28 E24.06808
G1 X81.413 Y97.267 E24.069
G1 X91 Y97.266 E24.54729
G1 X91 Y102.405 E24.80368
G1 X91.399 Y102.804 E24.83183
G1 X96.501 Y102.804 E25.08637
G1 X96.9 Y102.405 E25.11452
G1 X96.9 Y100.804 E25.1944
G1 X100.5 Y100.804 E25.374
G1 X100.5 Y102.405 E25.45388
G1 X100.899 Y102.804 E25.48203
G1 X106.001 Y102.804 E25.73657
G1 X106.4 Y102.405 E25.76472
G1 X106.4 Y97.28 E26.02041
G1 X106.413 Y97.267 E26.02132
G1 X116 Y97.266 E26.49962
G1 X116 Y102.405 E26.75601
G1 X116.399 Y102.804 E26.78416
G1 X121.501 Y102.804 E27.0387
G1 X121.9 Y102.405 E27.06685
G1 X121.9 Y100.804 E27.14672
G1 X125.5 Y100.804 E27.32633
G1 X125.5 Y102.405 E27.4062
G1 X125.899 Y102.804 E27.43435
G1 X130.301 Y102.804 E27.65397
G1 X130.7 Y102.405 E27.68212
G1 X130.7 Y97.28 E27.93781
G1 X130.713 Y97.267 E27.93873
G1 X140.3 Y97.266 E28.41702
G1 X140.3 Y101.05 E28.60581
G1 X140.588 Y101.481 E28.63167
G1 X142.728 Y102.369 E28.74726
G1 X143.237 Y102.267 E28.77316
G1 X144.699 Y100.804 E28.87635
G1 X156.293 Y100.804 E29.45478
G1 X156.878 Y100.54 E29.4868
G1 X157.319 Y100.332 E29.51112
G1 X157.587 Y100.189 E29.52628
G1 X157.88 Y100.023 E29.54308
G1 X158.312 Y99.758 E29.56836
G1 X158.815 Y99.39 E29.59946
G1 X159.309 Y98.946 E29.63259
G1 X159.736 Y98.46 E29.66487
G1 X159.897 Y98.241 E29.67843
G1 X160.057 Y98.006 E29.69261
G1 X160.183 Y97.78 E29.70552
G1 X160.339 Y97.473 E29.7227
G1 X160.515 Y96.974 E29.7491
G1 X160.583 Y96.714 E29.76251
G1 X160.656 Y96.277 E29.78461
G1 X160.684 Y96.037 E29.79667
G1 X160.693 Y95.904 E29.80332
G1 X178.8 Y95.904 E30.70668
G1 X178.8 Y98.805 E30.85141
G1 X179.199 Y99.204 E30.87956
G1 X183.8 Y99.204 E31.10911
G1 X183.8 Y101.305 E31.21393
G1 X184.199 Y101.704 E31.24208
G1 X186.664 Y101.704 E31.36506
G1 X187.205 Y101.767 E31.39223
G1 X187.671 Y101.944 E31.4171
G1 X188.112 Y102.253 E31.44397
G1 X188.453 Y102.652 E31.47015
G1 X188.672 Y103.084 E31.49432
G1 X188.787 Y103.599 E31.52064
G1 X188.8 Y104.312 E31.55622
G1 X188.8 Y107.495 E31.71502
G1 X188.751 Y108.003 E31.74048
G1 X188.741 Y108.045 E31.74264
G1 X188.676 Y108.212 E31.75158
G1 X188.6 Y108.441 E31.76361
G1 X188.565 Y108.519 E31.76788
G1 X188.447 Y108.681 E31.77788
G1 X188.325 Y108.882 E31.78961
G1 X188.272 Y108.944 E31.79368
G1 X188.084 Y109.111 E31.80622
G1 X187.951 Y109.237 E31.81536
G1 X187.883 Y109.288 E31.8196
G1 X187.686 Y109.383 E31.83052
G1 X187.503 Y109.49 E31.84109
G1 X187.398 Y109.532 E31.84673
G1 X187.203 Y109.573 E31.85668
G1 X187.031 Y109.623 E31.86561
G1 X186.908 Y109.641 E31.87181
G1 X184.6 Y109.653 E31.98696
G1 X184.6 Y107.553 E32.09173
G1 X184.201 Y107.154 E32.11988
G1 X181.694 Y107.154 E32.24496
G1 X181.123 Y107.209 E32.27358
G1 X180.596 Y107.373 E32.30111
G1 X180.091 Y107.633 E32.32945
G1 X179.653 Y108.006 E32.35815
G1 X179.283 Y108.449 E32.38695
G1 X179.019 Y108.95 E32.4152
G1 X178.855 Y109.485 E32.44312
G1 X178.801 Y110.036 E32.47074
G1 X178.8 Y113.821 E32.65957
G1 X178.871 Y114.444 E32.69086
G1 X179.072 Y115.036 E32.72205
G1 X179.341 Y115.492 E32.74846
G1 X179.75 Y115.958 E32.77939
G1 X180.307 Y116.349 E32.81335
G1 X180.83 Y116.568 E32.84163
G1 X181.298 Y116.671 E32.86554
G1 X181.3 Y118.805 E32.97201
G1 X181.699 Y119.204 E33.00016
G1 X186.3 Y119.204 E33.2297
G1 X186.3 Y119.302 E33.23459
G1 X181.204 Y119.302 E33.48883
G1 X180.846 Y119.08 E33.50985
G1 X111.544 Y119.078 E36.96734
G1 X28.7 Y119.077 E41.10044
G1 X28.7 Y113.01 E41.40313
G1 X28.301 Y112.611 E41.43128
G1 X21.2 Y112.604 E41.78555
G1 X21.2 Y88.302 E42.99798
M205 X8.18 Y8.18
G0 F1800 X57.247 Y104.614
M205 X3 Y3
G1 F1200 X56.937 Y105.353 E43.03796
G1 X56.791 Y105.998 E43.07096
G1 X56.751 Y106.787 E43.11037
G1 X56.834 Y107.455 E43.14395
G1 X57.07 Y108.224 E43.18409
G1 X57.371 Y108.811 E43.217
G1 X57.852 Y109.446 E43.25674
G1 X58.34 Y109.899 E43.28996
G1 X59.006 Y110.332 E43.32959
G1 X59.63 Y110.595 E43.36337
G1 X60.416 Y110.773 E43.40358
G1 X61.08 Y110.806 E43.43675
G1 X61.874 Y110.705 E43.47668
G1 X62.494 Y110.513 E43.50906
G1 X63.082 Y110.226 E43.54171
G1 X63.721 Y109.765 E43.58102
G1 X64.183 Y109.29 E43.61407
G1 X64.626 Y108.644 E43.65315
G1 X64.902 Y108.035 E43.68651
G1 X65.081 Y107.385 E43.72015
G1 X65.15 Y106.402 E43.76931
G1 X65.062 Y105.738 E43.80273
G1 X64.825 Y104.972 E43.84273
G1 X64.515 Y104.378 E43.87616
G1 X64.026 Y103.738 E43.91634
G1 X63.413 Y103.198 E43.9571
G1 X62.854 Y102.857 E43.98977
G1 X62.256 Y102.608 E44.02208
G1 X61.486 Y102.436 E44.06144
G1 X60.82 Y102.402 E44.09471
G1 X60.027 Y102.503 E44.1346
G1 X59.394 Y102.7 E44.16767
G1 X58.681 Y103.066 E44.20766
G1 X58.151 Y103.467 E44.24081
G1 X57.609 Y104.053 E44.28064
G1 X57.247 Y104.614 E44.31395
M205 X8.18 Y8.18
G0 F1800 X57.443 Y104.013
M205 X3 Y3
G1 F1200 X21.359 Y104.013 E46.11418
M205 X8.18 Y8.18
G0 F1800 X21.359 Y101.346
M205 X3 Y3
G1 F1200 X28.498 Y101.346 E46.47035
M205 X8.18 Y8.18
G0 F1800 X29.337 Y101.964
M205 X3 Y3
G1 F1200 X29.337 Y118.917 E47.31614
M205 X8.18 Y8.18
G0 F1800 X28.859 Y117.348
M205 X3 Y3
G1 F1200 X181.139 Y117.348 E54.91342
M205 X8.18 Y8.18
G0 F1800 X178.689 Y118.919
M205 X3 Y3
G1 F1200 X178.689 Y114.254 E55.14616
M205 X8.18 Y8.18
G0 F1800 X178.784 Y114.681
M205 X3 Y3
G1 F1200 X28.859 Y114.681 E62.62595
M205 X8.18 Y8.18
G0 F1800 X26.67 Y112.449
M205 X3 Y3
G1 F1200 X26.67 Y98.478 E63.32296
M205 X8.18 Y8.18
G0 F1800 X26.739 Y98.679
M205 X3 Y3
G1 F1200 X21.359 Y98.679 E63.59137
M205 X8.18 Y8.18
G0 F1800 X21.359 Y96.012
M205 X3 Y3
G1 F1200 X26.139 Y96.012 E63.82985
M205 X8.18 Y8.18
G0 F1800 X25.942 Y93.345
M205 X3 Y3
G1 F1200 X21.359 Y93.345 E64.05849
M205 X8.18 Y8.18
G0 F1800 X21.359 Y90.678
M205 X3 Y3
G1 F1200 X24.68 Y90.678 E64.22418
M205 X8.18 Y8.18
G0 F1800 X24.003 Y89.859
M205 X3 Y3
G1 F1200 X24.003 Y112.446 E65.35105
M205 X8.18 Y8.18
G0 F1800 X21.359 Y112.014
M205 X3 Y3
G1 F1200 X178.64 Y112.014 E73.19783
M205 X8.18 Y8.18
G0 F1800 X178.689 Y109.542
M205 X3 Y3
G1 F1200 X178.689 Y98.921 E73.72771
M205 X8.18 Y8.18
G0 F1800 X178.64 Y98.679
M205 X3 Y3
G1 F1200 X159.756 Y98.679 E74.66984
M205 X8.18 Y8.18
G0 F1800 X160.02 Y98.343
M205 X3 Y3
G1 F1200 X160.02 Y118.919 E75.69638
M205 X8.18 Y8.18
G0 F1800 X157.353 Y118.919
M205 X3 Y3
G1 F1200 X157.353 Y100.493 E76.61566
M205 X8.18 Y8.18
G0 F1800 X154.686 Y100.964
M205 X3 Y3
G1 F1200 X154.686 Y118.919 E77.51144
M205 X8.18 Y8.18
G0 F1800 X152.019 Y118.919
M205 X3 Y3
G1 F1200 X152.019 Y100.964 E78.40721
M205 X8.18 Y8.18
G0 F1800 X149.352 Y100.964
M205 X3 Y3
G1 F1200 X149.352 Y118.919 E79.30299
M205 X8.18 Y8.18
G0 F1800 X146.685 Y118.919
M205 X3 Y3
G1 F1200 X146.685 Y100.964 E80.19877
M205 X8.18 Y8.18
