;FLAVOR:Marlin
;TIME:12494
;Filament used: 9.19612m
;Layer height: 0.2
;MINX:18
;MINY:84.923
;MINZ:0.3
;MAXX:192
;MAXY:125.104
;MAXZ:22.3
;Generated with Cura_SteamEngine 4.2.1
M140 S60
M105
M190 S60
M104 S200
M105
M109 S200
M82 ;absolute extrusion mode
G21 ;metric values
G90 ;absolute positioning
M82 ;set extruder to absolute mode
M107 ;start with the fan off
G28 X0 Y0 ;move X/Y to min endstops
G28 Z0 ;move Z to min endstops
G1 Z15.0 F60 ;move the platform down 15mm
G92 E0 ;zero the extruded length
G1 F200 E3 ;extrude 3mm of feed stock
G92 E0 ;zero the extruded length again
G1 F60
M117 Printing...
G5
M141 S28
G92 E0
G92 E0
G1 F1500 E-6.5
;LAYER_COUNT:111
;LAYER:0
M107
M204 S300
M205 X8.18 Y8.18
G0 F1800 X20.388 Y85.063 Z0.3
M205 X3 Y3
;TYPE:SKIRT
G1 F1500 E0
G1 F1200 X20.881 Y84.953 E0.0252
G1 X21.386 Y84.923 E0.05044
G1 X21.834 Y84.962 E0.07287
G1 X22.395 Y85.052 E0.10122
G1 X22.502 Y85.071 E0.10664
G1 X22.809 Y85.131 E0.12225
G1 X22.983 Y85.171 E0.13116
G1 X23.865 Y85.395 E0.17656
G1 X26.558 Y86.04 E0.31471
G1 X29.278 Y86.612 E0.45338
G1 X31.957 Y87.093 E0.58917
G1 X34.663 Y87.502 E0.72571
G1 X37.356 Y87.831 E0.86106
G1 X40.102 Y88.088 E0.99866
G1 X42.817 Y88.266 E1.1344
G1 X45.566 Y88.367 E1.27164
G1 X48.32 Y88.391 E1.40905
G1 X51.034 Y88.338 E1.54447
G1 X53.754 Y88.207 E1.68033
G1 X56.504 Y87.997 E1.81793
G1 X57.661 Y87.871 E1.87599
G1 X57.717 Y87.865 E1.8788
G1 X58.843 Y87.762 E1.93522
G1 X58.883 Y87.759 E1.93722
G1 X59.732 Y87.692 E1.9797
G1 X59.884 Y87.684 E1.9873
G1 X60.492 Y87.665 E2.01765
G1 X60.642 Y87.663 E2.02513
G1 X61.471 Y87.676 E2.06649
G1 X61.633 Y87.683 E2.07458
G1 X62.356 Y87.731 E2.11073
G1 X62.447 Y87.738 E2.11529
G1 X62.689 Y87.761 E2.12742
G1 X62.771 Y87.77 E2.13153
G1 X63.282 Y87.832 E2.15721
G1 X63.368 Y87.844 E2.16154
G1 X63.697 Y87.893 E2.17814
G1 X63.786 Y87.907 E2.18263
G1 X64.433 Y88.022 E2.21542
G1 X64.577 Y88.051 E2.22275
G1 X65.171 Y88.185 E2.25313
G1 X65.253 Y88.205 E2.25734
G1 X65.466 Y88.259 E2.2683
G1 X65.538 Y88.278 E2.27202
G1 X66.188 Y88.459 E2.30568
G1 X66.34 Y88.505 E2.3136
G1 X68.963 Y89.377 E2.45151
G1 X71.591 Y90.191 E2.58876
G1 X74.217 Y90.925 E2.7248
G1 X76.899 Y91.593 E2.86269
G1 X79.546 Y92.172 E2.99787
G1 X82.223 Y92.68 E3.13381
G1 X84.941 Y93.116 E3.27114
G1 X87.676 Y93.476 E3.40877
G1 X90.381 Y93.755 E3.54444
G1 X93.09 Y93.956 E3.67996
G1 X95.839 Y94.083 E3.81726
G1 X98.595 Y94.131 E3.95478
G1 X101.311 Y94.104 E4.09029
G1 X105.13 Y93.934 E4.28101
G1 X105.932 Y93.883 E4.3211
G1 X106.079 Y93.878 E4.32844
G1 X106.64 Y93.868 E4.35643
G1 X106.697 Y93.867 E4.35927
G1 X115.171 Y93.866 E4.78204
G1 X115.216 Y93.866 E4.78429
G1 X115.931 Y93.876 E4.81996
G1 X116.069 Y93.881 E4.82685
G1 X119.033 Y94.051 E4.97497
G1 X121.781 Y94.129 E5.11212
G1 X124.498 Y94.129 E5.24767
G1 X127.281 Y94.05 E5.38658
G1 X129.34 Y93.941 E5.48944
G1 X130.23 Y93.884 E5.53394
G1 X130.377 Y93.878 E5.54128
G1 X130.94 Y93.868 E5.56937
G1 X130.997 Y93.867 E5.57221
G1 X139.471 Y93.866 E5.99498
G1 X139.517 Y93.866 E5.99728
G1 X141.061 Y93.888 E6.07432
G1 X141.104 Y93.889 E6.07646
G1 X142.288 Y93.922 E6.13555
G1 X145.006 Y93.922 E6.27116
G1 X147.759 Y93.843 E6.40856
G1 X150.505 Y93.687 E6.54578
G1 X153.219 Y93.454 E6.68168
G1 X155.922 Y93.147 E6.8174
G1 X158.68 Y92.754 E6.95639
G1 X159.889 Y92.557 E7.0175
G1 X160.292 Y92.517 E7.0377
G1 X160.552 Y92.508 E7.05068
G1 X160.663 Y92.506 E7.05622
G1 X177.976 Y92.504 E7.91997
G1 X178.022 Y92.504 E7.92227
G1 X178.72 Y92.514 E7.95709
G1 X179.223 Y92.561 E7.9823
G1 X179.713 Y92.687 E8.00754
G1 X180.177 Y92.889 E8.03279
G1 X180.487 Y93.077 E8.05087
G1 X180.91 Y93.368 E8.07649
G1 X183.211 Y94.922 E8.21501
G1 X185.234 Y96.206 E8.33456
G1 X185.386 Y96.309 E8.34372
G1 X185.969 Y96.728 E8.37953
G1 X189.863 Y99.479 E8.6174
G1 X190.417 Y99.977 E8.65456
G1 X190.715 Y100.315 E8.67704
G1 X191.094 Y100.844 E8.70951
G1 X191.411 Y101.399 E8.7414
G1 X191.685 Y102.028 E8.77563
G1 X191.754 Y102.248 E8.78713
G1 X191.832 Y102.544 E8.8024
G1 X191.902 Y102.875 E8.81928
G1 X191.969 Y103.426 E8.84697
G1 X191.994 Y104.148 E8.88301
G1 X191.996 Y104.23 E8.88711
G1 X192 Y104.678 E8.90946
G1 X192 Y106.841 E9.01737
G1 X191.992 Y107.406 E9.04556
G1 X191.983 Y107.602 E9.05535
G1 X191.937 Y108.21 E9.08577
G1 X191.877 Y108.628 E9.10684
G1 X191.769 Y109.141 E9.13299
G1 X191.749 Y109.232 E9.13764
G1 X191.319 Y111.013 E9.22905
G1 X190.75 Y113.706 E9.36637
G1 X190.261 Y116.391 E9.50253
G1 X189.847 Y119.095 E9.639
G1 X189.648 Y120.761 E9.72271
G1 X189.645 Y120.789 E9.72412
G1 X189.469 Y122.16 E9.79308
G1 X189.365 Y122.655 E9.81831
G1 X189.185 Y123.128 E9.84356
G1 X188.932 Y123.566 E9.8688
G1 X188.775 Y123.776 E9.88188
G1 X188.66 Y123.917 E9.89095
G1 X188.31 Y124.282 E9.91618
G1 X187.908 Y124.588 E9.94139
G1 X187.462 Y124.826 E9.96661
G1 X186.984 Y124.991 E9.99184
G1 X186.237 Y125.093 E10.02945
G1 X185.678 Y125.103 E10.05734
G1 X185.621 Y125.104 E10.06019
G1 X29.478 Y125.104 E17.85019
G1 X28.777 Y125.094 E17.88517
G1 X28.274 Y125.047 E17.91038
G1 X27.784 Y124.921 E17.93562
G1 X27.321 Y124.719 E17.96082
G1 X26.894 Y124.447 E17.98608
G1 X26.477 Y124.07 E18.01412
G1 X26.311 Y123.891 E18.0263
G1 X26.098 Y123.636 E18.04288
G1 X24.525 Y121.54 E18.17362
G1 X22.825 Y119.403 E18.30986
G1 X21.06 Y117.309 E18.44649
G1 X19.199 Y115.224 E18.58592
G1 X18.854 Y114.848 E18.61138
G1 X18.543 Y114.45 E18.63657
G1 X18.299 Y114.007 E18.66181
G1 X18.127 Y113.532 E18.68701
G1 X18.032 Y113.035 E18.71225
G1 X18.014 Y112.76 E18.726
G1 X18.001 Y112.199 E18.754
G1 X18 Y112.125 E18.75769
G1 X18 Y88.872 E19.91779
G1 X18.01 Y88.189 E19.95187
G1 X18.058 Y87.686 E19.97708
G1 X18.184 Y87.196 E20.00232
G1 X18.385 Y86.733 E20.0275
G1 X18.657 Y86.306 E20.05276
G1 X18.977 Y85.944 E20.07686
G1 X19.094 Y85.83 E20.08501
G1 X19.483 Y85.507 E20.11024
G1 X19.918 Y85.249 E20.13547
G1 X20.388 Y85.063 E20.16069
M205 X8.18 Y8.18
G0 F1800 X21.403 Y88.31
M205 X3 Y3
;TYPE:SUPPORT
G1 F1200 X21.696 Y88.327 E20.17533
G1 X22.151 Y88.457 E20.19894
G1 X22.709 Y88.74 E20.23015
G1 X23.208 Y89.087 E20.26048
G1 X23.563 Y89.391 E20.28379
G1 X23.661 Y89.49 E20.29074
G1 X23.75 Y89.571 E20.29675
G1 X24.09 Y89.931 E20.32145
G1 X24.207 Y90.066 E20.33036
G1 X24.607 Y90.57 E20.36247
G1 X24.75 Y90.771 E20.37477
G1 X24.94 Y91.054 E20.39178
G1 X25.071 Y91.267 E20.40425
G1 X25.202 Y91.5 E20.41759
G1 X25.332 Y91.755 E20.43187
G1 X25.349 Y91.777 E20.43326
G1 X25.55 Y92.207 E20.45694
G1 X25.65 Y92.459 E20.47046
G1 X25.729 Y92.678 E20.48208
G1 X25.756 Y92.77 E20.48686
G1 X25.802 Y92.896 E20.49355
G1 X25.876 Y93.179 E20.50815
G1 X25.892 Y93.271 E20.51281
G1 X25.928 Y93.404 E20.51968
G1 X25.959 Y93.655 E20.5323
G1 X25.984 Y93.794 E20.53934
G1 X25.987 Y93.878 E20.54354
G1 X25.996 Y93.943 E20.54681
G1 X26.018 Y94.94 E20.59656
G1 X26.044 Y95.41 E20.62005
G1 X26.098 Y95.997 E20.64946
G1 X26.191 Y96.708 E20.68523
G1 X26.276 Y97.16 E20.70818
G1 X26.323 Y97.381 E20.71945
G1 X26.459 Y97.898 E20.74612
G1 X26.617 Y98.421 E20.77338
G1 X26.695 Y98.639 E20.78493
G1 X26.881 Y99.093 E20.80941
G1 X27.023 Y99.398 E20.82619
G1 X27.142 Y99.626 E20.83902
G1 X27.3 Y99.897 E20.85467
G1 X27.441 Y100.12 E20.86784
G1 X27.602 Y100.354 E20.88201
G1 X27.754 Y100.546 E20.89422
G1 X28.062 Y100.893 E20.91737
G1 X28.297 Y101.133 E20.93413
G1 X28.796 Y101.555 E20.96673
G1 X29.394 Y101.938 E21.00216
G1 X29.92 Y102.198 E21.03144
G1 X30.376 Y102.376 E21.05586
G1 X30.904 Y102.532 E21.08332
G1 X31.409 Y102.648 E21.10918
G1 X32.064 Y102.742 E21.14219
G1 X32.622 Y102.792 E21.17014
G1 X33.132 Y102.803 E21.19559
G1 X42.97 Y102.804 E21.68641
G1 X45.321 Y102.764 E21.80372
G1 X45.745 Y102.454 E21.82992
G1 X46.177 Y101.179 E21.89708
G1 X46.477 Y100.43 E21.93734
G1 X46.825 Y99.686 E21.97832
G1 X47.172 Y99.024 E22.0156
G1 X47.556 Y98.38 E22.05301
G1 X47.999 Y97.709 E22.09313
G1 X48.443 Y97.101 E22.13069
G1 X48.933 Y96.499 E22.16941
G1 X49.447 Y95.929 E22.2077
G1 X49.993 Y95.374 E22.24655
G1 X50.544 Y94.871 E22.28377
G1 X51.166 Y94.36 E22.32393
G1 X51.804 Y93.884 E22.36364
G1 X52.403 Y93.484 E22.39958
G1 X53.107 Y93.062 E22.44053
G1 X53.773 Y92.708 E22.47815
G1 X54.503 Y92.366 E22.51837
G1 X55.192 Y92.084 E22.55551
G1 X55.883 Y91.837 E22.59213
G1 X56.688 Y91.594 E22.63408
G1 X57.439 Y91.409 E22.67266
G1 X58.162 Y91.273 E22.70937
G1 X58.9 Y91.17 E22.74654
G1 X59.799 Y91.087 E22.79159
G1 X60.463 Y91.057 E22.82475
G1 X61.216 Y91.062 E22.86231
G1 X62.025 Y91.107 E22.90274
G1 X62.85 Y91.195 E22.94413
G1 X63.602 Y91.318 E22.98215
G1 X64.306 Y91.466 E23.01804
G1 X65.107 Y91.677 E23.05936
G1 X65.834 Y91.909 E23.09744
G1 X66.539 Y92.17 E23.13494
G1 X67.254 Y92.477 E23.17376
G1 X67.896 Y92.793 E23.20946
G1 X68.654 Y93.213 E23.25269
G1 X69.268 Y93.591 E23.28867
G1 X69.307 Y93.623 E23.29118
G1 X69.924 Y94.047 E23.32853
G1 X70.481 Y94.476 E23.36361
G1 X71.14 Y95.037 E23.40679
G1 X71.669 Y95.534 E23.443
G1 X72.237 Y96.124 E23.48386
G1 X72.711 Y96.668 E23.51986
G1 X73.206 Y97.299 E23.55987
G1 X73.664 Y97.939 E23.59913
G1 X74.082 Y98.6 E23.63815
G1 X74.471 Y99.287 E23.67754
G1 X75.108 Y100.537 E23.74753
G1 X75.545 Y100.804 E23.77308
G1 X80.801 Y100.804 E24.0353
G1 X81.2 Y100.405 E24.06345
G1 X81.2 Y97.28 E24.21936
G1 X81.213 Y97.267 E24.22028
G1 X90.8 Y97.266 E24.69857
G1 X90.8 Y102.405 E24.95496
G1 X91.199 Y102.804 E24.98311
G1 X96.301 Y102.804 E25.23765
G1 X96.7 Y102.405 E25.2658
G1 X96.7 Y100.804 E25.34568
G1 X100.3 Y100.804 E25.52528
G1 X100.3 Y102.405 E25.60516
G1 X100.699 Y102.804 E25.63331
G1 X105.801 Y102.804 E25.88785
G1 X106.2 Y102.405 E25.916
G1 X106.2 Y97.28 E26.17169
G1 X106.213 Y97.267 E26.1726
G1 X115.8 Y97.266 E26.6509
G1 X115.8 Y102.405 E26.90729
G1 X116.199 Y102.804 E26.93544
G1 X121.301 Y102.804 E27.18998
G1 X121.7 Y102.405 E27.21813
G1 X121.7 Y100.804 E27.298
G1 X125.3 Y100.804 E27.47761
G1 X125.3 Y102.405 E27.55748
G1 X125.699 Y102.804 E27.58564
G1 X130.101 Y102.804 E27.80525
G1 X130.5 Y102.405 E27.8334
G1 X130.5 Y97.28 E28.08909
G1 X130.513 Y97.267 E28.09001
G1 X140.1 Y97.266 E28.56831
G1 X140.1 Y101.05 E28.75709
G1 X140.388 Y101.481 E28.78295
G1 X142.528 Y102.369 E28.89854
G1 X143.037 Y102.267 E28.92444
G1 X144.499 Y100.804 E29.02763
G1 X156.082 Y100.804 E29.60551
G1 X156.626 Y100.566 E29.63513
G1 X157.121 Y100.328 E29.66253
G1 X157.382 Y100.195 E29.67715
G1 X157.689 Y100.018 E29.69483
G1 X158.109 Y99.759 E29.71945
G1 X158.618 Y99.385 E29.75096
G1 X159.109 Y98.944 E29.78388
G1 X159.544 Y98.451 E29.81669
G1 X159.681 Y98.263 E29.82829
G1 X159.857 Y98.006 E29.84383
G1 X160.006 Y97.737 E29.85917
G1 X160.127 Y97.493 E29.87276
G1 X160.231 Y97.224 E29.88715
G1 X160.324 Y96.955 E29.90135
G1 X160.378 Y96.727 E29.91304
G1 X160.452 Y96.289 E29.9352
G1 X160.478 Y96.082 E29.94561
G1 X160.489 Y95.904 E29.95451
G1 X178.6 Y95.904 E30.85807
G1 X178.6 Y98.805 E31.0028
G1 X178.999 Y99.204 E31.03095
G1 X183.6 Y99.204 E31.2605
G1 X183.6 Y101.305 E31.36531
G1 X183.999 Y101.704 E31.39347
G1 X186.464 Y101.704 E31.51645
G1 X187.007 Y101.767 E31.54372
G1 X187.47 Y101.943 E31.56843
G1 X187.911 Y102.252 E31.59529
G1 X188.247 Y102.646 E31.62113
G1 X188.475 Y103.096 E31.6463
G1 X188.587 Y103.593 E31.67171
G1 X188.6 Y104.314 E31.70769
G1 X188.6 Y107.495 E31.86639
G1 X188.551 Y108.003 E31.89185
G1 X188.541 Y108.045 E31.89401
G1 X188.476 Y108.212 E31.90295
G1 X188.4 Y108.441 E31.91498
G1 X188.365 Y108.519 E31.91925
G1 X188.247 Y108.681 E31.92925
G1 X188.125 Y108.882 E31.94098
G1 X188.072 Y108.944 E31.94505
G1 X187.884 Y109.111 E31.95759
G1 X187.751 Y109.237 E31.96673
G1 X187.683 Y109.288 E31.97098
G1 X187.486 Y109.383 E31.98189
G1 X187.303 Y109.49 E31.99246
G1 X187.198 Y109.532 E31.9981
G1 X187.003 Y109.573 E32.00805
G1 X186.831 Y109.623 E32.01698
G1 X186.708 Y109.641 E32.02318
G1 X184.4 Y109.653 E32.13833
G1 X184.4 Y107.553 E32.2431
G1 X184.001 Y107.154 E32.27125
G1 X181.494 Y107.154 E32.39633
G1 X180.923 Y107.209 E32.42495
G1 X180.396 Y107.373 E32.45248
G1 X179.891 Y107.633 E32.48082
G1 X179.453 Y108.006 E32.50952
G1 X179.083 Y108.449 E32.53832
G1 X178.819 Y108.95 E32.56657
G1 X178.655 Y109.485 E32.59449
G1 X178.601 Y110.036 E32.62211
G1 X178.6 Y113.817 E32.81074
G1 X178.653 Y114.375 E32.83871
G1 X178.825 Y114.937 E32.86803
G1 X179.11 Y115.445 E32.89709
G1 X179.485 Y115.889 E32.92609
G1 X179.906 Y116.225 E32.95296
G1 X180.431 Y116.501 E32.98255
G1 X180.998 Y116.66 E33.01193
G1 X181.1 Y116.674 E33.01707
G1 X181.1 Y118.805 E33.12338
G1 X181.499 Y119.204 E33.15153
G1 X186.1 Y119.204 E33.38108
G1 X186.1 Y121.704 E33.5058
G1 X28.9 Y121.704 E41.34854
G1 X28.9 Y113.003 E41.78264
G1 X28.501 Y112.604 E41.81079
G1 X21.4 Y112.604 E42.16506
G1 X21.4 Y88.313 E43.37694
G1 X21.403 Y88.31 E43.37715
M205 X8.18 Y8.18
G0 F1800 X57.047 Y104.614
M205 X3 Y3
G1 F1200 X56.737 Y105.353 E43.41714
G1 X56.591 Y105.998 E43.45013
G1 X56.551 Y106.787 E43.48954
G1 X56.634 Y107.455 E43.52313
G1 X56.87 Y108.224 E43.56326
G1 X57.171 Y108.811 E43.59617
G1 X57.652 Y109.446 E43.63591
G1 X58.14 Y109.899 E43.66913
G1 X58.806 Y110.332 E43.70876
G1 X59.43 Y110.595 E43.74255
G1 X60.216 Y110.773 E43.78275
G1 X60.88 Y110.806 E43.81592
G1 X61.674 Y110.705 E43.85585
G1 X62.294 Y110.513 E43.88823
G1 X62.882 Y110.226 E43.92088
G1 X63.521 Y109.765 E43.96019
G1 X63.983 Y109.29 E43.99325
G1 X64.426 Y108.644 E44.03233
G1 X64.702 Y108.035 E44.06568
G1 X64.881 Y107.385 E44.09932
G1 X64.95 Y106.402 E44.14848
G1 X64.862 Y105.738 E44.1819
G1 X64.625 Y104.972 E44.2219
G1 X64.315 Y104.378 E44.25533
G1 X63.826 Y103.738 E44.29551
G1 X63.213 Y103.198 E44.33627
G1 X62.654 Y102.857 E44.36894
G1 X62.056 Y102.608 E44.40126
G1 X61.286 Y102.436 E44.44062
G1 X60.62 Y102.402 E44.47389
G1 X59.827 Y102.503 E44.51377
G1 X59.194 Y102.7 E44.54684
G1 X58.481 Y103.066 E44.58683
G1 X57.951 Y103.467 E44.61999
G1 X57.409 Y104.053 E44.65981
G1 X57.047 Y104.614 E44.69312
M205 X8.18 Y8.18
G0 F1800 X57.243 Y104.013
M205 X3 Y3
G1 F1200 X21.559 Y104.013 E46.4734
M205 X8.18 Y8.18
G0 F1800 X21.559 Y101.346
M205 X3 Y3
G1 F1200 X28.301 Y101.346 E46.80976
M205 X8.18 Y8.18
G0 F1800 X29.337 Y102.088
M205 X3 Y3
G1 F1200 X29.337 Y121.544 E47.78043
M205 X8.18 Y8.18
G0 F1800 X29.059 Y120.015
M205 X3 Y3
G1 F1200 X185.94 Y120.015 E55.60725
M205 X8.18 Y8.18
G0 F1800 X184.023 Y119.364
M205 X3 Y3
G1 F1200 X184.023 Y121.544 E55.71601
M205 X8.18 Y8.18
G0 F1800 X181.356 Y121.544
M205 X3 Y3
G1 F1200 X181.356 Y119.288 E55.82856
M205 X8.18 Y8.18
G0 F1800 X180.94 Y117.348
M205 X3 Y3
G1 F1200 X29.059 Y117.348 E63.40594
M205 X8.18 Y8.18
G0 F1800 X29.059 Y114.681
M205 X3 Y3
G1 F1200 X178.58 Y114.681 E70.86557
M205 X8.18 Y8.18
G0 F1800 X178.689 Y115.022
M205 X3 Y3
G1 F1200 X178.689 Y121.544 E71.19095
M205 X8.18 Y8.18
G0 F1800 X176.022 Y121.544
M205 X3 Y3
G1 F1200 X176.022 Y96.064 E72.46216
M205 X8.18 Y8.18
G0 F1800 X173.355 Y96.064
M205 X3 Y3
G1 F1200 X173.355 Y121.544 E73.73336
M205 X8.18 Y8.18
G0 F1800 X170.688 Y121.544
M205 X3 Y3
G1 F1200 X170.688 Y96.064 E75.00456
M205 X8.18 Y8.18
G0 F1800 X168.021 Y96.064
M205 X3 Y3
G1 F1200 X168.021 Y121.544 E76.27576
M205 X8.18 Y8.18
G0 F1800 X165.354 Y121.544
M205 X3 Y3
G1 F1200 X165.354 Y96.064 E77.54697
M205 X8.18 Y8.18
G0 F1800 X162.687 Y96.064
M205 X3 Y3
G1 F1200 X162.687 Y121.544 E78.81817
M205 X8.18 Y8.18
G0 F1800 X160.02 Y121.544
M205 X3 Y3
G1 F1200 X160.02 Y98.041 E79.99074
M205 X8.18 Y8.18
G0 F1800 X159.556 Y98.679
M205 X3 Y3
G1 F1200 X178.44 Y98.679 E80.93286
M205 X8.18 Y8.18
G0 F1800 X178.689 Y99.121
M205 X3 Y3
G1 F1200 X178.689 Y108.852 E81.41835
M205 X8.18 Y8.18
G0 F1800 X178.529 Y109.347
M205 X3 Y3
G1 F1200 X64.137 Y109.347 E87.12539
M205 X8.18 Y8.18
G0 F1800 X64.008 Y109.492
M205 X3 Y3
G1 F1200 X64.008 Y121.544 E87.72666
