;FLAVOR:Marlin
;TIME:14096
;Filament used: 9.48821m
;Layer height: 0.2
;MINX:17.8
;MINY:84.689
;MINZ:0.3
;MAXX:192.199
;MAXY:126.14
;MAXZ:22.3
;Generated with Cura_SteamEngine 4.2.1
M140 S60
M105
M190 S60
M104 S200
M105
M109 S200
M82 ;absolute extrusion mode
G21 ;metric values
G90 ;absolute positioning
M82 ;set extruder to absolute mode
M107 ;start with the fan off
G28 X0 Y0 ;move X/Y to min endstops
G28 Z0 ;move Z to min endstops
G1 Z15.0 F60 ;move the platform down 15mm
G92 E0 ;zero the extruded length
G1 F200 E3 ;extrude 3mm of feed stock
G92 E0 ;zero the extruded length again
G1 F60
M117 Printing...
G5
M141 S28
G92 E0
G92 E0
G1 F1500 E-6.5
;LAYER_COUNT:111
;LAYER:0
M107
M204 S300
M205 X8.18 Y8.18
G0 F1800 X20.592 Y84.733 Z0.3
M205 X3 Y3
;TYPE:SKIRT
G1 F1500 E0
G1 F1200 X21.121 Y84.689 E0.02648
G1 X21.328 Y84.689 E0.03681
G1 X21.445 Y84.691 E0.04265
G1 X21.609 Y84.697 E0.05084
G1 X22.302 Y84.799 E0.08578
G1 X23.17 Y85.026 E0.13054
G1 X25.855 Y85.689 E0.26852
G1 X28.548 Y86.276 E0.40603
G1 X31.221 Y86.775 E0.54169
G1 X33.96 Y87.209 E0.68005
G1 X36.615 Y87.553 E0.81361
G1 X39.362 Y87.831 E0.95136
G1 X42.104 Y88.029 E1.08851
G1 X44.821 Y88.15 E1.2242
G1 X47.574 Y88.193 E1.36157
G1 X50.324 Y88.159 E1.49877
G1 X53.043 Y88.048 E1.63454
G1 X55.755 Y87.86 E1.77016
G1 X58.726 Y87.562 E1.91913
G1 X58.765 Y87.558 E1.92109
G1 X59.469 Y87.496 E1.95635
G1 X59.647 Y87.486 E1.96524
G1 X60.823 Y87.448 E2.02394
G1 X60.932 Y87.446 E2.02938
G1 X61.473 Y87.447 E2.05637
G1 X61.559 Y87.448 E2.06066
G1 X62.082 Y87.463 E2.08677
G1 X62.092 Y87.464 E2.08727
G1 X64.002 Y87.525 E2.18261
G1 X66.759 Y87.537 E2.32016
G1 X69.476 Y87.472 E2.45575
G1 X72.229 Y87.327 E2.59328
G1 X74.987 Y87.105 E2.73133
G1 X77.47 Y86.836 E2.85593
G1 X77.949 Y86.778 E2.88
G1 X78.277 Y86.756 E2.8964
G1 X78.84 Y86.746 E2.92449
G1 X78.897 Y86.745 E2.92734
G1 X87.371 Y86.744 E3.35011
G1 X87.416 Y86.744 E3.35235
G1 X88.126 Y86.754 E3.38778
G1 X88.484 Y86.78 E3.40569
G1 X89.465 Y86.905 E3.45502
G1 X89.465 Y86.904 E3.45507
G1 X92.23 Y87.218 E3.59391
G1 X94.969 Y87.45 E3.73105
G1 X97.687 Y87.604 E3.86686
G1 X100.437 Y87.681 E4.00412
G1 X103.155 Y87.681 E4.13972
G1 X105.91 Y87.602 E4.27722
G1 X108.656 Y87.446 E4.41444
G1 X111.365 Y87.216 E4.55008
G1 X114.079 Y86.907 E4.68636
G1 X114.324 Y86.873 E4.6987
G1 X114.374 Y86.866 E4.70122
G1 X115.099 Y86.778 E4.73765
G1 X115.428 Y86.756 E4.7541
G1 X115.99 Y86.746 E4.78215
G1 X116.047 Y86.745 E4.78499
G1 X124.521 Y86.744 E5.20776
G1 X124.566 Y86.744 E5.21
G1 X125.275 Y86.754 E5.24538
G1 X125.724 Y86.792 E5.26786
G1 X127.011 Y86.993 E5.33285
G1 X127.011 Y86.994 E5.3329
G1 X129.736 Y87.385 E5.47024
G1 X132.462 Y87.698 E5.60713
G1 X135.176 Y87.932 E5.74304
G1 X137.924 Y88.09 E5.88036
G1 X140.674 Y88.17 E6.01762
G1 X143.392 Y88.173 E6.15322
G1 X146.145 Y88.098 E6.29062
G1 X148.862 Y87.947 E6.42638
G1 X151.597 Y87.718 E6.56331
G1 X154.32 Y87.411 E6.70002
G1 X156.485 Y87.111 E6.80906
G1 X157.03 Y87.029 E6.83656
G1 X157.435 Y86.995 E6.85684
G1 X158.026 Y86.982 E6.88633
G1 X158.096 Y86.981 E6.88982
G1 X166.571 Y86.98 E7.31264
G1 X166.617 Y86.98 E7.31494
G1 X167.306 Y86.99 E7.34931
G1 X167.81 Y87.038 E7.37457
G1 X168.299 Y87.164 E7.39977
G1 X168.623 Y87.295 E7.4172
G1 X168.946 Y87.447 E7.43501
G1 X169.066 Y87.506 E7.44168
G1 X170.867 Y88.447 E7.54306
G1 X173.33 Y89.648 E7.67977
G1 X175.848 Y90.786 E7.81763
G1 X178.349 Y91.835 E7.95293
G1 X179.002 Y92.086 E7.98784
G1 X179.042 Y92.102 E7.98999
G1 X180.055 Y92.508 E8.04443
G1 X180.681 Y92.843 E8.07985
G1 X181.11 Y93.139 E8.10586
G1 X183.411 Y94.693 E8.24438
G1 X185.434 Y95.977 E8.36392
G1 X185.568 Y96.067 E8.37198
G1 X189.226 Y98.657 E8.59559
G1 X189.83 Y99.066 E8.63198
G1 X190.216 Y99.374 E8.65662
G1 X190.62 Y99.75 E8.68415
G1 X190.962 Y100.122 E8.70936
G1 X191.114 Y100.334 E8.72238
G1 X191.429 Y100.813 E8.75098
G1 X191.672 Y101.256 E8.77619
G1 X191.774 Y101.509 E8.7898
G1 X191.894 Y101.85 E8.80783
G1 X191.922 Y101.933 E8.8122
G1 X191.993 Y102.154 E8.82378
G1 X192.129 Y102.803 E8.85686
G1 X192.171 Y103.208 E8.87718
G1 X192.186 Y103.427 E8.88813
G1 X192.197 Y103.743 E8.9039
G1 X192.199 Y103.854 E8.90944
G1 X192.199 Y106.688 E9.05083
G1 X192.191 Y107.284 E9.08057
G1 X192.174 Y107.573 E9.09501
G1 X192.12 Y108.091 E9.121
G1 X192.05 Y108.5 E9.1417
G1 X191.848 Y109.349 E9.18524
G1 X191.825 Y109.44 E9.18992
G1 X191.476 Y110.738 E9.25698
G1 X190.848 Y113.365 E9.39173
G1 X190.274 Y116.097 E9.53101
G1 X189.665 Y119.575 E9.70717
G1 X189.537 Y120.07 E9.73267
G1 X189.474 Y120.252 E9.74228
G1 X189.271 Y120.715 E9.7675
G1 X188.998 Y121.14 E9.79271
G1 X188.696 Y121.484 E9.81554
G1 X188.626 Y121.553 E9.82045
G1 X188.239 Y121.878 E9.84566
G1 X187.806 Y122.139 E9.87088
G1 X187.337 Y122.328 E9.89611
G1 X186.844 Y122.44 E9.92133
G1 X186.438 Y122.473 E9.94165
G1 X185.883 Y122.483 E9.96935
G1 X185.824 Y122.484 E9.97229
G1 X181.822 Y122.483 E10.17195
G1 X181.78 Y122.483 E10.17405
G1 X181.117 Y122.474 E10.20713
G1 X181.023 Y122.471 E10.21182
G1 X180.604 Y122.453 E10.23274
G1 X180.558 Y122.451 E10.23504
G1 X178.612 Y122.34 E10.33228
G1 X175.85 Y122.261 E10.47014
G1 X174.429 Y122.25 E10.54103
G1 X90.298 Y122.255 E14.73835
G1 X87.501 Y122.295 E14.8779
G1 X84.784 Y122.41 E15.01358
G1 X82.041 Y122.604 E15.15077
G1 X79.33 Y122.874 E15.28669
G1 X76.609 Y123.222 E15.42355
G1 X73.909 Y123.647 E15.55991
G1 X71.2 Y124.15 E15.69737
G1 X68.576 Y124.715 E15.83128
G1 X65.878 Y125.376 E15.96987
G1 X65.222 Y125.56 E16.00386
G1 X65.167 Y125.575 E16.0067
G1 X63.855 Y125.918 E16.07436
G1 X63.318 Y126.01 E16.10154
G1 X62.639 Y126.068 E16.13554
G1 X62.512 Y126.077 E16.14189
G1 X61.234 Y126.135 E16.20572
G1 X61.117 Y126.138 E16.21155
G1 X60.892 Y126.14 E16.22278
G1 X60.721 Y126.137 E16.23131
G1 X59.227 Y126.07 E16.30592
G1 X59.113 Y126.063 E16.31162
G1 X58.728 Y126.032 E16.33089
G1 X58.159 Y125.934 E16.3597
G1 X55.542 Y125.235 E16.49484
G1 X52.918 Y124.607 E16.62945
G1 X50.203 Y124.037 E16.76785
G1 X47.512 Y123.555 E16.90424
G1 X44.819 Y123.148 E17.04012
G1 X42.109 Y122.816 E17.17634
G1 X39.373 Y122.561 E17.31343
G1 X36.66 Y122.384 E17.44907
G1 X33.906 Y122.283 E17.58656
G1 X31.68 Y122.257 E17.69762
G1 X29.278 Y122.257 E17.81746
G1 X28.58 Y122.247 E17.85228
G1 X28.077 Y122.2 E17.87749
G1 X27.587 Y122.074 E17.90273
G1 X27.123 Y121.872 E17.92798
G1 X26.697 Y121.6 E17.95319
G1 X26.451 Y121.394 E17.9692
G1 X25.46 Y120.476 E18.03659
G1 X23.401 Y118.614 E18.17509
G1 X21.302 Y116.823 E18.31275
G1 X19.159 Y115.093 E18.45016
G1 X18.983 Y114.94 E18.46179
G1 X18.828 Y114.795 E18.47238
G1 X18.487 Y114.421 E18.49763
G1 X18.209 Y113.999 E18.52284
G1 X18.002 Y113.538 E18.54805
G1 X17.869 Y113.05 E18.57329
G1 X17.815 Y112.538 E18.59897
G1 X17.801 Y111.976 E18.62702
G1 X17.8 Y111.896 E18.63101
G1 X17.8 Y88.618 E19.79236
G1 X17.81 Y87.955 E19.82544
G1 X17.858 Y87.451 E19.8507
G1 X17.984 Y86.962 E19.87589
G1 X18.186 Y86.498 E19.90114
G1 X18.458 Y86.072 E19.92635
G1 X18.717 Y85.771 E19.94616
G1 X18.828 Y85.657 E19.9541
G1 X19.208 Y85.323 E19.97934
G1 X19.636 Y85.054 E20.00456
G1 X20.101 Y84.856 E20.02978
G1 X20.592 Y84.733 E20.05503
M205 X8.18 Y8.18
G0 F1800 X21.2 Y88.079
M205 X3 Y3
;TYPE:SUPPORT
G1 F1200 X21.47 Y88.084 E20.0685
G1 X21.748 Y88.177 E20.08313
G1 X22.095 Y88.436 E20.10473
G1 X22.135 Y88.48 E20.1077
G1 X22.448 Y88.84 E20.1315
G1 X22.78 Y89.324 E20.16078
G1 X23.062 Y89.822 E20.18933
G1 X23.41 Y90.537 E20.229
G1 X23.706 Y91.266 E20.26826
G1 X24.18 Y92.642 E20.34087
G1 X24.396 Y93.164 E20.36905
G1 X24.749 Y93.693 E20.40078
G1 X25.21 Y94.127 E20.43237
G1 X25.825 Y94.55 E20.46961
G1 X26.261 Y94.793 E20.49451
G1 X26.711 Y95.009 E20.51941
G1 X27.275 Y95.243 E20.54987
G1 X27.743 Y95.397 E20.57445
G1 X28.243 Y95.531 E20.60028
G1 X28.827 Y95.633 E20.62986
G1 X29.374 Y95.674 E20.65722
G1 X31.082 Y95.675 E20.74244
G1 X49.61 Y95.675 E21.6668
G1 X50.784 Y94.609 E21.74592
G1 X51.388 Y94.116 E21.78481
G1 X51.942 Y93.702 E21.81932
G1 X52.596 Y93.262 E21.85864
G1 X53.215 Y92.885 E21.8948
G1 X53.942 Y92.495 E21.93596
G1 X54.519 Y92.219 E21.96787
G1 X55.29 Y91.89 E22.00969
G1 X56.011 Y91.633 E22.04788
G1 X56.722 Y91.413 E22.08501
G1 X57.424 Y91.23 E22.1212
G1 X58.32 Y91.057 E22.16673
G1 X58.957 Y90.955 E22.19892
G1 X59.674 Y90.881 E22.23488
G1 X60.414 Y90.845 E22.27184
G1 X61.161 Y90.836 E22.30911
G1 X61.983 Y90.863 E22.35014
G1 X62.653 Y90.92 E22.38369
G1 X63.466 Y91.031 E22.42463
G1 X64.186 Y91.167 E22.46118
G1 X64.95 Y91.35 E22.50038
G1 X65.655 Y91.552 E22.53697
G1 X66.349 Y91.792 E22.5736
G1 X67.079 Y92.084 E22.61283
G1 X67.718 Y92.376 E22.64788
G1 X68.412 Y92.735 E22.68686
G1 X69.135 Y93.154 E22.72855
G1 X69.69 Y93.514 E22.76155
G1 X71.057 Y94.516 E22.84611
G1 X71.601 Y94.474 E22.87333
G1 X72.399 Y93.675 E22.92967
G1 X78.001 Y93.675 E23.20916
G1 X78.4 Y93.276 E23.23731
G1 X78.4 Y90.158 E23.39287
G1 X78.413 Y90.145 E23.39378
G1 X88 Y90.144 E23.87208
G1 X88 Y93.276 E24.02834
G1 X88.399 Y93.675 E24.05649
G1 X94 Y93.675 E24.33592
G1 X94 Y95.276 E24.4158
G1 X94.399 Y95.675 E24.44395
G1 X109.151 Y95.675 E25.17993
G1 X109.55 Y95.276 E25.20808
G1 X109.55 Y93.675 E25.28795
G1 X115.151 Y93.675 E25.56739
G1 X115.55 Y93.276 E25.59554
G1 X115.55 Y90.158 E25.7511
G1 X115.563 Y90.145 E25.75202
G1 X125.15 Y90.144 E26.23031
G1 X125.15 Y93.276 E26.38657
G1 X125.549 Y93.675 E26.41472
G1 X131.15 Y93.675 E26.69416
G1 X131.15 Y95.276 E26.77403
G1 X131.549 Y95.675 E26.80218
G1 X151.201 Y95.675 E27.78262
G1 X151.6 Y95.276 E27.81078
G1 X151.6 Y93.675 E27.89065
G1 X157.201 Y93.675 E28.17009
G1 X157.6 Y93.276 E28.19824
G1 X157.6 Y90.393 E28.34207
G1 X157.612 Y90.381 E28.34292
G1 X167.2 Y90.38 E28.82126
G1 X167.2 Y93.276 E28.96575
G1 X167.599 Y93.675 E28.9939
G1 X173.2 Y93.675 E29.27333
G1 X173.2 Y95.276 E29.35321
G1 X173.599 Y95.675 E29.38136
G1 X178.8 Y95.675 E29.64084
G1 X178.8 Y98.576 E29.78557
G1 X179.199 Y98.975 E29.81372
G1 X183.8 Y98.975 E30.04327
G1 X183.8 Y101.076 E30.14809
G1 X184.199 Y101.475 E30.17624
G1 X186.464 Y101.475 E30.28924
G1 X187.018 Y101.502 E30.31691
G1 X187.479 Y101.629 E30.34077
G1 X187.516 Y101.645 E30.34278
G1 X187.95 Y101.891 E30.36767
G1 X188.33 Y102.255 E30.39392
G1 X188.588 Y102.662 E30.41796
G1 X188.759 Y103.175 E30.44494
G1 X188.8 Y103.575 E30.465
G1 X188.799 Y107.307 E30.65119
G1 X188.735 Y107.829 E30.67743
G1 X188.545 Y108.324 E30.70388
G1 X188.256 Y108.73 E30.72874
G1 X187.859 Y109.07 E30.75482
G1 X187.403 Y109.3 E30.7803
G1 X186.898 Y109.414 E30.80613
G1 X184.6 Y109.424 E30.92078
G1 X184.6 Y107.324 E31.02555
G1 X184.201 Y106.925 E31.0537
G1 X181.93 Y106.925 E31.167
G1 X181.281 Y106.954 E31.19941
G1 X180.712 Y107.096 E31.22867
G1 X180.219 Y107.334 E31.25598
G1 X179.752 Y107.674 E31.2848
G1 X179.373 Y108.091 E31.31291
G1 X179.068 Y108.595 E31.3423
G1 X178.879 Y109.141 E31.37113
G1 X178.804 Y109.676 E31.39808
G1 X178.8 Y113.595 E31.5936
G1 X178.873 Y114.23 E31.62549
G1 X179.07 Y114.799 E31.65553
G1 X179.339 Y115.261 E31.6822
G1 X179.779 Y115.753 E31.71513
G1 X180.292 Y116.11 E31.74631
G1 X180.795 Y116.327 E31.77364
G1 X181.3 Y116.44 E31.79946
G1 X181.3 Y118.576 E31.90603
G1 X181.699 Y118.975 E31.93418
G1 X186.3 Y118.975 E32.16372
G1 X186.3 Y119.084 E32.16916
G1 X181.215 Y119.083 E32.42285
G1 X180.865 Y118.85 E32.44383
G1 X63.068 Y118.857 E38.32075
G1 X62.672 Y119.265 E38.34911
G1 X62.786 Y122.659 E38.51854
G1 X61.702 Y122.73 E38.57273
G1 X60.95 Y122.749 E38.61026
G1 X60.197 Y122.73 E38.64784
G1 X59.167 Y122.663 E38.69934
G1 X59.281 Y119.265 E38.86896
G1 X58.885 Y118.857 E38.89732
G1 X28.7 Y118.857 E40.40326
G1 X28.7 Y112.774 E40.70674
G1 X28.301 Y112.375 E40.73489
G1 X21.2 Y112.375 E41.08916
G1 X21.2 Y88.079 E42.3013
M205 X8.18 Y8.18
G0 F1800 X57.206 Y104.46
M205 X3 Y3
G1 F1200 X56.856 Y105.411 E42.35185
G1 X56.746 Y106.422 E42.40259
G1 X56.879 Y107.426 E42.45312
G1 X57.248 Y108.368 E42.50359
G1 X57.837 Y109.201 E42.55449
G1 X58.605 Y109.864 E42.60511
G1 X59.509 Y110.325 E42.65573
G1 X60.485 Y110.555 E42.70576
G1 X61.502 Y110.543 E42.7565
G1 X62.486 Y110.289 E42.8072
G1 X63.374 Y109.811 E42.85752
G1 X64.13 Y109.126 E42.90841
G1 X64.696 Y108.284 E42.95903
G1 X65.044 Y107.336 E43.00941
G1 X65.154 Y106.328 E43.06
G1 X65.022 Y105.325 E43.11047
G1 X64.653 Y104.382 E43.16099
G1 X64.063 Y103.549 E43.21192
G1 X63.295 Y102.886 E43.26254
G1 X62.394 Y102.427 E43.31298
G1 X61.401 Y102.195 E43.36386
G1 X60.399 Y102.207 E43.41385
G1 X59.42 Y102.46 E43.4643
G1 X58.524 Y102.939 E43.51499
G1 X57.769 Y103.625 E43.56588
G1 X57.206 Y104.46 E43.61612
M205 X8.18 Y8.18
G0 F1800 X57.313 Y104.013
M205 X3 Y3
G1 F1200 X21.359 Y104.013 E45.40988
M205 X8.18 Y8.18
G0 F1800 X21.359 Y106.68
M205 X3 Y3
G1 F1200 X56.619 Y106.68 E47.16901
M205 X8.18 Y8.18
G0 F1800 X57.76 Y109.347
M205 X3 Y3
G1 F1200 X21.359 Y109.347 E48.98506
M205 X8.18 Y8.18
G0 F1800 X21.359 Y112.014
M205 X3 Y3
G1 F1200 X178.641 Y112.014 E56.83189
M205 X8.18 Y8.18
G0 F1800 X178.689 Y114.025
M205 X3 Y3
G1 F1200 X178.689 Y118.691 E57.06468
M205 X8.18 Y8.18
G0 F1800 X176.022 Y118.691
M205 X3 Y3
G1 F1200 X176.022 Y95.835 E58.20497
M205 X8.18 Y8.18
G0 F1800 X178.64 Y96.012
M205 X3 Y3
G1 F1200 X21.359 Y96.012 E66.05175
M205 X8.18 Y8.18
G0 F1800 X21.359 Y98.679
M205 X3 Y3
G1 F1200 X178.677 Y98.679 E73.90038
M205 X8.18 Y8.18
G0 F1800 X178.689 Y98.692
M205 X3 Y3
G1 F1200 X178.689 Y109.349 E74.43206
M205 X8.18 Y8.18
G0 F1800 X178.689 Y109.347
M205 X3 Y3
G1 F1200 X64.122 Y109.347 E80.14783
M205 X8.18 Y8.18
G0 F1800 X64.008 Y109.451
M205 X3 Y3
G1 F1200 X64.008 Y118.697 E80.60911
M205 X8.18 Y8.18
G0 F1800 X62.537 Y120.015
M205 X3 Y3
G1 F1200 X59.416 Y120.015 E80.76482
M205 X8.18 Y8.18
G0 F1800 X58.674 Y118.697
M205 X3 Y3
G1 F1200 X58.674 Y110.078 E81.19482
M205 X8.18 Y8.18
G0 F1800 X61.341 Y110.705
M205 X3 Y3
G1 F1200 X61.341 Y122.579 E81.78722
M205 X8.18 Y8.18
G0 F1800 X56.007 Y118.697
M205 X3 Y3
G1 F1200 X56.007 Y91.803 E83.12897
M205 X8.18 Y8.18
G0 F1800 X58.674 Y91.162
M205 X3 Y3
G1 F1200 X58.674 Y102.678 E83.7035
M205 X8.18 Y8.18
G0 F1800 X61.341 Y102.036
M205 X3 Y3
G1 F1200 X61.341 Y91.003 E84.25394
M205 X8.18 Y8.18
G0 F1800 X64.008 Y91.297
M205 X3 Y3
G1 F1200 X64.008 Y103.289 E84.85222
M205 X8.18 Y8.18
G0 F1800 X64.586 Y104.013
M205 X3 Y3
G1 F1200 X188.639 Y104.013 E91.04125
M205 X8.18 Y8.18
G0 F1800 X188.639 Y106.68
M205 X3 Y3
G1 F1200 X65.275 Y106.68 E97.19591
M205 X8.18 Y8.18
G0 F1800 X66.675 Y118.697
M205 X3 Y3
G1 F1200 X66.675 Y92.095 E98.52309
M205 X8.18 Y8.18
G0 F1800 X69.135 Y93.345
M205 X3 Y3
G1 F1200 X52.766 Y93.345 E99.33974
M205 X8.18 Y8.18
G0 F1800 X53.34 Y92.999
M205 X3 Y3
G1 F1200 X53.34 Y118.697 E100.62182
M205 X8.18 Y8.18
G0 F1800 X50.673 Y118.697
M205 X3 Y3
G1 F1200 X50.673 Y94.925 E101.80781
M205 X8.18 Y8.18
G0 F1800 X48.006 Y95.835
M205 X3 Y3
G1 F1200 X48.006 Y118.697 E102.9484
M205 X8.18 Y8.18
G0 F1800 X45.339 Y118.697
M205 X3 Y3
G1 F1200 X45.339 Y95.835 E104.08899
M205 X8.18 Y8.18
G0 F1800 X42.672 Y95.835
M205 X3 Y3
G1 F1200 X42.672 Y118.697 E105.22958
M205 X8.18 Y8.18
G0 F1800 X40.005 Y118.697
M205 X3 Y3
G1 F1200 X40.005 Y95.835 E106.37017
M205 X8.18 Y8.18
G0 F1800 X37.338 Y95.835
M205 X3 Y3
G1 F1200 X37.338 Y118.697 E107.51076
M205 X8.18 Y8.18
G0 F1800 X34.671 Y118.697
M205 X3 Y3
G1 F1200 X34.671 Y95.835 E108.65135
M205 X8.18 Y8.18
G0 F1800 X32.004 Y95.835
M205 X3 Y3
G1 F1200 X32.004 Y118.697 E109.79194
M205 X8.18 Y8.18
G0 F1800 X29.337 Y118.697
M205 X3 Y3
G1 F1200 X29.337 Y95.832 E110.93268
M205 X8.18 Y8.18
G0 F1800 X26.67 Y95.166
M205 X3 Y3
G1 F1200 X26.67 Y112.215 E111.78325
M205 X8.18 Y8.18
G0 F1800 X24.003 Y112.215
M205 X3 Y3
G1 F1200 X24.003 Y92.62 E112.76085
M205 X8.18 Y8.18
G0 F1800 X24.324 Y93.345
