;FLAVOR:Marlin
;TIME:11704
;Filament used: 7.79587m
;Layer height: 0.2
;MINX:23
;MINY:84.929
;MINZ:0.3
;MAXX:187
;MAXY:125.104
;MAXZ:22.3
;Generated with Cura_SteamEngine 4.2.1
M140 S60
M105
M190 S60
M104 S200
M105
M109 S200
M82 ;absolute extrusion mode
G21 ;metric values
G90 ;absolute positioning
M82 ;set extruder to absolute mode
M107 ;start with the fan off
G28 X0 Y0 ;move X/Y to min endstops
G28 Z0 ;move Z to min endstops
G1 Z15.0 F60 ;move the platform down 15mm
G92 E0 ;zero the extruded length
G1 F200 E3 ;extrude 3mm of feed stock
G92 E0 ;zero the extruded length again
G1 F60
M117 Printing...
G5
M141 S28
G92 E0
G92 E0
G1 F1500 E-6.5
;LAYER_COUNT:111
;LAYER:0
M107
M204 S300
M205 X8.18 Y8.18
G0 F1800 X25.352 Y85.082 Z0.3
M205 X3 Y3
;TYPE:SKIRT
G1 F1500 E0
G1 F1200 X25.844 Y84.966 E0.02522
G1 X26.348 Y84.929 E0.05043
G1 X26.832 Y84.968 E0.07466
G1 X27.438 Y85.064 E0.10527
G1 X27.545 Y85.083 E0.11069
G1 X27.819 Y85.136 E0.12461
G1 X27.994 Y85.175 E0.13356
G1 X28.992 Y85.427 E0.18491
G1 X31.67 Y86.065 E0.32226
G1 X34.356 Y86.625 E0.45914
G1 X37.048 Y87.108 E0.59559
G1 X39.754 Y87.513 E0.7321
G1 X42.501 Y87.847 E0.87016
G1 X45.202 Y88.097 E1.00548
G1 X47.917 Y88.271 E1.14121
G1 X50.666 Y88.369 E1.27845
G1 X53.421 Y88.391 E1.4159
G1 X56.14 Y88.334 E1.55158
G1 X58.883 Y88.2 E1.68859
G1 X61.607 Y87.989 E1.8249
G1 X62.666 Y87.874 E1.87805
G1 X62.71 Y87.869 E1.88026
G1 X63.835 Y87.763 E1.93663
G1 X63.883 Y87.759 E1.93903
G1 X64.732 Y87.692 E1.98152
G1 X64.884 Y87.684 E1.98912
G1 X65.492 Y87.665 E2.01946
G1 X65.642 Y87.663 E2.02695
G1 X66.472 Y87.676 E2.06836
G1 X66.637 Y87.683 E2.0766
G1 X67.423 Y87.736 E2.11591
G1 X67.573 Y87.75 E2.12342
G1 X68.295 Y87.833 E2.15968
G1 X68.397 Y87.846 E2.16481
G1 X68.668 Y87.886 E2.17848
G1 X68.755 Y87.9 E2.18287
G1 X69.335 Y88.002 E2.21225
G1 X69.48 Y88.031 E2.21963
G1 X70.306 Y88.216 E2.26186
G1 X70.457 Y88.254 E2.26963
G1 X71.11 Y88.434 E2.30342
G1 X71.263 Y88.48 E2.31139
G1 X73.215 Y89.124 E2.41394
G1 X73.251 Y89.136 E2.41583
G1 X73.7 Y89.29 E2.43952
G1 X76.288 Y90.102 E2.57484
G1 X78.929 Y90.848 E2.71175
G1 X81.592 Y91.521 E2.84879
G1 X84.255 Y92.112 E2.98488
G1 X86.938 Y92.63 E3.12121
G1 X89.655 Y93.074 E3.25856
G1 X92.357 Y93.439 E3.39458
G1 X95.087 Y93.728 E3.53154
G1 X97.802 Y93.939 E3.6674
G1 X100.55 Y94.074 E3.80467
G1 X103.27 Y94.131 E3.9404
G1 X106.022 Y94.11 E4.0777
G1 X108.758 Y94.013 E4.21429
G1 X110.146 Y93.933 E4.28365
G1 X110.146 Y93.934 E4.2837
G1 X110.912 Y93.884 E4.322
G1 X111.063 Y93.877 E4.32954
G1 X111.642 Y93.867 E4.35843
G1 X111.697 Y93.867 E4.36117
G1 X120.171 Y93.866 E4.78394
G1 X120.216 Y93.866 E4.78619
G1 X120.931 Y93.876 E4.82186
G1 X121.069 Y93.881 E4.82875
G1 X124.033 Y94.051 E4.97687
G1 X126.781 Y94.129 E5.11402
G1 X129.498 Y94.129 E5.24957
G1 X132.281 Y94.05 E5.38847
G1 X134.34 Y93.941 E5.49134
G1 X135.23 Y93.884 E5.53584
G1 X135.377 Y93.878 E5.54318
G1 X135.94 Y93.868 E5.57127
G1 X135.997 Y93.867 E5.57411
G1 X144.471 Y93.866 E5.99688
G1 X144.516 Y93.866 E5.99913
G1 X146.065 Y93.888 E6.07641
G1 X146.108 Y93.889 E6.07856
G1 X147.339 Y93.923 E6.14
G1 X150.058 Y93.921 E6.27565
G1 X152.811 Y93.841 E6.41306
G1 X155.556 Y93.684 E6.55023
G1 X158.266 Y93.451 E6.68593
G1 X160.966 Y93.142 E6.82151
G1 X163.726 Y92.746 E6.96062
G1 X164.571 Y92.605 E7.00336
G1 X164.639 Y92.594 E7.0068
G1 X164.956 Y92.548 E7.02278
G1 X165.299 Y92.517 E7.03996
G1 X165.546 Y92.508 E7.05229
G1 X165.634 Y92.506 E7.05668
G1 X165.851 Y92.504 E7.06751
G1 X173.022 Y92.504 E7.42527
G1 X173.72 Y92.514 E7.4601
G1 X174.223 Y92.561 E7.4853
G1 X174.713 Y92.687 E7.51054
G1 X175.177 Y92.889 E7.53579
G1 X175.487 Y93.077 E7.55388
G1 X175.91 Y93.368 E7.57949
G1 X178.211 Y94.922 E7.71802
G1 X180.234 Y96.206 E7.83756
G1 X180.383 Y96.307 E7.84654
G1 X183.202 Y98.328 E8.01959
G1 X184.424 Y99.16 E8.09334
G1 X184.501 Y99.214 E8.09804
G1 X184.908 Y99.509 E8.12312
G1 X185.442 Y99.997 E8.15921
G1 X185.775 Y100.379 E8.18449
G1 X186.187 Y100.977 E8.22072
G1 X186.462 Y101.493 E8.24989
G1 X186.664 Y101.957 E8.27514
G1 X186.743 Y102.223 E8.28898
G1 X186.858 Y102.684 E8.31268
G1 X186.949 Y103.306 E8.34405
G1 X186.994 Y104.244 E8.3909
G1 X186.998 Y104.371 E8.39724
G1 X187 Y104.613 E8.40931
G1 X187 Y106.894 E8.52311
G1 X186.99 Y107.566 E8.55664
G1 X186.975 Y107.832 E8.56993
G1 X186.937 Y108.218 E8.58928
G1 X186.898 Y108.488 E8.60289
G1 X186.839 Y108.806 E8.61903
G1 X186.809 Y108.951 E8.62642
G1 X186.173 Y111.666 E8.76553
G1 X185.617 Y114.381 E8.9038
G1 X185.154 Y117.038 E9.03835
G1 X184.759 Y119.739 E9.17454
G1 X184.59 Y121.211 E9.24846
G1 X184.585 Y121.252 E9.25052
G1 X184.469 Y122.159 E9.29614
G1 X184.366 Y122.654 E9.32137
G1 X184.185 Y123.126 E9.34659
G1 X183.933 Y123.564 E9.3718
G1 X183.775 Y123.776 E9.38499
G1 X183.66 Y123.917 E9.39406
G1 X183.31 Y124.282 E9.41929
G1 X182.908 Y124.588 E9.4445
G1 X182.462 Y124.826 E9.46972
G1 X181.984 Y124.991 E9.49495
G1 X181.237 Y125.093 E9.53256
G1 X180.678 Y125.103 E9.56045
G1 X180.621 Y125.104 E9.5633
G1 X34.478 Y125.104 E16.8544
G1 X33.777 Y125.094 E16.88938
G1 X33.274 Y125.047 E16.91458
G1 X32.784 Y124.921 E16.93983
G1 X32.321 Y124.719 E16.96503
G1 X31.894 Y124.447 E16.99029
G1 X31.477 Y124.07 E17.01833
G1 X31.311 Y123.891 E17.03051
G1 X31.098 Y123.636 E17.04709
G1 X29.525 Y121.54 E17.17783
G1 X27.825 Y119.403 E17.31406
G1 X26.06 Y117.309 E17.4507
G1 X24.199 Y115.224 E17.59013
G1 X23.854 Y114.848 E17.61558
G1 X23.543 Y114.45 E17.64078
G1 X23.299 Y114.007 E17.66602
G1 X23.127 Y113.532 E17.69122
G1 X23.032 Y113.035 E17.71646
G1 X23.014 Y112.76 E17.73021
G1 X23.001 Y112.199 E17.75821
G1 X23 Y112.125 E17.7619
G1 X23 Y88.883 E18.92145
G1 X23.01 Y88.203 E18.95538
G1 X23.058 Y87.7 E18.98059
G1 X23.184 Y87.21 E19.00583
G1 X23.385 Y86.746 E19.03106
G1 X23.657 Y86.32 E19.05627
G1 X23.947 Y85.987 E19.0783
G1 X24.068 Y85.866 E19.08684
G1 X24.453 Y85.538 E19.11207
G1 X24.884 Y85.275 E19.13726
G1 X25.352 Y85.082 E19.16252
M205 X8.18 Y8.18
G0 F1800 X26.4 Y88.312
M205 X3 Y3
;TYPE:SUPPORT
G1 F1200 X26.679 Y88.326 E19.17646
G1 X27.154 Y88.459 E19.20106
G1 X27.699 Y88.735 E19.23154
G1 X28.194 Y89.079 E19.26162
G1 X28.583 Y89.412 E19.28716
G1 X29.106 Y89.928 E19.32382
G1 X29.609 Y90.571 E19.36455
G1 X29.899 Y90.996 E19.39022
G1 X30.204 Y91.501 E19.41965
G1 X30.437 Y91.966 E19.4456
G1 X30.64 Y92.429 E19.47082
G1 X30.814 Y92.932 E19.49737
G1 X30.921 Y93.363 E19.51953
G1 X30.996 Y93.941 E19.54861
G1 X31.018 Y94.939 E19.59841
G1 X31.041 Y95.381 E19.62049
G1 X31.11 Y96.117 E19.65737
G1 X31.18 Y96.616 E19.68251
G1 X31.294 Y97.225 E19.71342
G1 X31.409 Y97.742 E19.73984
G1 X31.663 Y98.561 E19.78262
G1 X31.921 Y99.193 E19.81668
G1 X32.249 Y99.826 E19.85225
G1 X32.528 Y100.256 E19.87782
G1 X32.881 Y100.709 E19.90647
G1 X33.382 Y101.221 E19.94221
G1 X33.776 Y101.54 E19.9675
G1 X34.42 Y101.952 E20.00565
G1 X34.891 Y102.187 E20.03191
G1 X35.373 Y102.373 E20.05768
G1 X35.86 Y102.524 E20.08312
G1 X36.438 Y102.656 E20.1127
G1 X37.045 Y102.743 E20.14329
G1 X37.698 Y102.796 E20.17598
G1 X38.022 Y102.803 E20.19214
G1 X48.058 Y102.804 E20.69284
G1 X50.306 Y102.759 E20.80502
G1 X50.731 Y102.452 E20.83118
G1 X51.196 Y101.129 E20.90114
G1 X51.476 Y100.436 E20.93843
G1 X51.819 Y99.693 E20.97926
G1 X52.139 Y99.084 E21.01358
G1 X52.558 Y98.374 E21.05471
G1 X53.006 Y97.7 E21.09508
G1 X53.457 Y97.081 E21.13329
G1 X53.905 Y96.532 E21.16865
G1 X54.481 Y95.892 E21.2116
G1 X54.987 Y95.382 E21.24745
G1 X55.567 Y94.854 E21.28658
G1 X56.165 Y94.362 E21.32521
G1 X56.781 Y93.901 E21.3636
G1 X57.439 Y93.462 E21.40306
G1 X58.07 Y93.083 E21.43978
G1 X58.791 Y92.7 E21.48051
G1 X59.498 Y92.368 E21.51948
G1 X60.188 Y92.087 E21.55665
G1 X60.886 Y91.836 E21.59366
G1 X61.692 Y91.593 E21.63566
G1 X62.439 Y91.409 E21.67404
G1 X63.162 Y91.273 E21.71074
G1 X63.9 Y91.17 E21.74792
G1 X64.799 Y91.087 E21.79296
G1 X65.463 Y91.057 E21.82612
G1 X66.217 Y91.062 E21.86374
G1 X67.026 Y91.107 E21.90416
G1 X67.876 Y91.197 E21.9468
G1 X68.554 Y91.307 E21.98107
G1 X69.376 Y91.481 E22.02299
G1 X70.054 Y91.659 E22.05796
G1 X70.828 Y91.904 E22.09847
G1 X71.537 Y92.168 E22.13621
G1 X72.263 Y92.481 E22.17565
G1 X72.956 Y92.823 E22.21421
G1 X73.612 Y93.184 E22.25157
G1 X74.315 Y93.626 E22.29299
G1 X74.917 Y94.045 E22.32959
G1 X75.539 Y94.522 E22.36869
G1 X76.119 Y95.015 E22.40667
G1 X76.66 Y95.526 E22.4438
G1 X77.253 Y96.143 E22.48649
G1 X77.697 Y96.65 E22.52011
G1 X78.24 Y97.34 E22.56392
G1 X78.659 Y97.93 E22.60002
G1 X79.073 Y98.586 E22.63872
G1 X79.459 Y99.268 E22.67782
G1 X80.102 Y100.537 E22.74879
G1 X80.538 Y100.804 E22.7743
G1 X85.801 Y100.804 E23.03687
G1 X86.2 Y100.405 E23.06502
G1 X86.2 Y97.28 E23.22093
G1 X86.213 Y97.267 E23.22185
G1 X95.8 Y97.266 E23.70015
G1 X95.8 Y102.405 E23.95653
G1 X96.199 Y102.804 E23.98468
G1 X101.301 Y102.804 E24.23922
G1 X101.7 Y102.405 E24.26738
G1 X101.7 Y100.804 E24.34725
G1 X105.3 Y100.804 E24.52685
G1 X105.3 Y102.405 E24.60673
G1 X105.699 Y102.804 E24.63488
G1 X110.801 Y102.804 E24.88942
G1 X111.2 Y102.405 E24.91757
G1 X111.2 Y97.28 E25.17326
G1 X111.213 Y97.267 E25.17418
G1 X120.8 Y97.266 E25.65247
G1 X120.8 Y102.405 E25.90886
G1 X121.199 Y102.804 E25.93701
G1 X126.301 Y102.804 E26.19155
G1 X126.7 Y102.405 E26.2197
G1 X126.7 Y100.804 E26.29958
G1 X130.3 Y100.804 E26.47918
G1 X130.3 Y102.405 E26.55906
G1 X130.699 Y102.804 E26.58721
G1 X135.101 Y102.804 E26.80682
G1 X135.5 Y102.405 E26.83497
G1 X135.5 Y97.28 E27.09066
G1 X135.513 Y97.267 E27.09158
G1 X145.1 Y97.266 E27.56988
G1 X145.1 Y101.05 E27.75866
G1 X145.388 Y101.481 E27.78452
G1 X147.528 Y102.369 E27.90011
G1 X148.037 Y102.267 E27.92601
G1 X149.499 Y100.804 E28.0292
G1 X161.085 Y100.804 E28.60723
G1 X161.828 Y100.476 E28.64775
G1 X162.551 Y100.103 E28.68834
G1 X163.11 Y99.756 E28.72116
G1 X163.634 Y99.371 E28.7536
G1 X164.062 Y98.994 E28.78206
G1 X164.471 Y98.552 E28.8121
G1 X164.798 Y98.105 E28.83973
G1 X165.089 Y97.591 E28.8692
G1 X165.291 Y97.067 E28.89722
G1 X165.419 Y96.575 E28.92258
G1 X165.494 Y95.906 E28.95617
G1 X173.6 Y95.904 E29.36058
G1 X173.6 Y98.805 E29.50531
G1 X173.999 Y99.204 E29.53346
G1 X178.6 Y99.204 E29.763
G1 X178.6 Y101.305 E29.86782
G1 X178.999 Y101.704 E29.89598
G1 X181.478 Y101.704 E30.01965
G1 X182.01 Y101.768 E30.04639
G1 X182.497 Y101.959 E30.07248
G1 X182.919 Y102.256 E30.09823
G1 X183.248 Y102.644 E30.12361
G1 X183.47 Y103.084 E30.1482
G1 X183.589 Y103.605 E30.17486
G1 X183.6 Y104.275 E30.20829
G1 X183.6 Y107.539 E30.37113
G1 X183.541 Y108.045 E30.39655
G1 X183.531 Y108.082 E30.39846
G1 X183.365 Y108.51 E30.42136
G1 X183.341 Y108.555 E30.42391
G1 X183.059 Y108.96 E30.44853
G1 X182.672 Y109.296 E30.4741
G1 X182.201 Y109.532 E30.50038
G1 X181.71 Y109.641 E30.52547
G1 X179.4 Y109.653 E30.64072
G1 X179.4 Y107.553 E30.74549
G1 X179.001 Y107.154 E30.77364
G1 X176.476 Y107.154 E30.89961
G1 X175.937 Y107.208 E30.92664
G1 X175.375 Y107.371 E30.95583
G1 X174.905 Y107.637 E30.98278
G1 X174.459 Y107.993 E31.01125
G1 X174.088 Y108.441 E31.04027
G1 X173.819 Y108.945 E31.06877
G1 X173.658 Y109.481 E31.09669
G1 X173.6 Y110.024 E31.12393
G1 X173.6 Y113.817 E31.31317
G1 X173.655 Y114.371 E31.34094
G1 X173.812 Y114.908 E31.36886
G1 X174.104 Y115.436 E31.39896
G1 X174.468 Y115.874 E31.42737
G1 X174.926 Y116.242 E31.45668
G1 X175.431 Y116.501 E31.485
G1 X176 Y116.658 E31.51445
G1 X176.096 Y116.671 E31.51928
G1 X176.1 Y116.676 E31.5196
G1 X176.1 Y118.805 E31.62581
G1 X176.499 Y119.204 E31.65397
G1 X181.1 Y119.204 E31.88351
G1 X181.1 Y121.704 E32.00824
G1 X33.9 Y121.704 E39.35207
G1 X33.9 Y113.003 E39.78617
G1 X33.501 Y112.604 E39.81432
G1 X26.4 Y112.604 E40.16859
G1 X26.4 Y88.312 E41.38052
M205 X8.18 Y8.18
G0 F1800 X62.064 Y104.584
M205 X3 Y3
G1 F1200 X61.792 Y105.187 E41.41353
G1 X61.598 Y105.951 E41.45285
G1 X61.546 Y106.623 E41.48648
G1 X61.628 Y107.426 E41.52675
G1 X61.81 Y108.067 E41.55999
G1 X62.154 Y108.787 E41.5998
G1 X62.544 Y109.323 E41.63287
G1 X63.121 Y109.884 E41.67302
G1 X63.67 Y110.257 E41.70614
G1 X64.397 Y110.585 E41.74593
G1 X65.046 Y110.749 E41.77932
G1 X65.841 Y110.808 E41.8191
G1 X66.489 Y110.742 E41.85159
G1 X67.124 Y110.575 E41.88435
G1 X67.851 Y110.246 E41.92416
G1 X68.398 Y109.869 E41.9573
G1 X68.972 Y109.305 E41.99745
G1 X69.358 Y108.765 E42.03057
G1 X69.699 Y108.045 E42.07031
G1 X69.876 Y107.403 E42.10354
G1 X69.954 Y106.591 E42.14424
G1 X69.872 Y105.783 E42.18475
G1 X69.69 Y105.142 E42.218
G1 X69.348 Y104.427 E42.25754
G1 X68.952 Y103.883 E42.29111
G1 X68.38 Y103.326 E42.33094
G1 X67.834 Y102.953 E42.36393
G1 X67.1 Y102.622 E42.4041
G1 X66.453 Y102.459 E42.43739
G1 X65.658 Y102.401 E42.47716
G1 X65.002 Y102.47 E42.51007
G1 X64.241 Y102.682 E42.54948
G1 X63.633 Y102.973 E42.58311
G1 X62.977 Y103.445 E42.62343
G1 X62.514 Y103.921 E42.65655
G1 X62.064 Y104.584 E42.69653
M205 X8.18 Y8.18
G0 F1800 X62.256 Y104.013
M205 X3 Y3
G1 F1200 X26.559 Y104.013 E44.47746
M205 X8.18 Y8.18
G0 F1800 X26.559 Y101.346
M205 X3 Y3
G1 F1200 X33.282 Y101.346 E44.81287
M205 X8.18 Y8.18
G0 F1800 X34.671 Y102.256
M205 X3 Y3
G1 F1200 X34.671 Y121.544 E45.77516
M205 X8.18 Y8.18
G0 F1800 X34.059 Y120.015
M205 X3 Y3
G1 F1200 X180.94 Y120.015 E53.10308
M205 X8.18 Y8.18
G0 F1800 X178.689 Y119.364
M205 X3 Y3
G1 F1200 X178.689 Y121.544 E53.21184
M205 X8.18 Y8.18
G0 F1800 X176.022 Y121.544
M205 X3 Y3
G1 F1200 X176.022 Y118.954 E53.34106
M205 X8.18 Y8.18
G0 F1800 X175.94 Y117.348
M205 X3 Y3
G1 F1200 X34.059 Y117.348 E60.41953
M205 X8.18 Y8.18
G0 F1800 X34.059 Y114.681
M205 X3 Y3
G1 F1200 X173.579 Y114.681 E67.38021
M205 X8.18 Y8.18
G0 F1800 X173.44 Y112.014
M205 X3 Y3
G1 F1200 X26.559 Y112.014 E74.70813
M205 X8.18 Y8.18
G0 F1800 X26.67 Y112.444
M205 X3 Y3
G1 F1200 X26.67 Y88.491 E75.90315
M205 X8.18 Y8.18
G0 F1800 X26.559 Y90.678
M205 X3 Y3
G1 F1200 X29.488 Y90.678 E76.04928
M205 X8.18 Y8.18
G0 F1800 X29.337 Y90.484
M205 X3 Y3
G1 F1200 X29.337 Y112.444 E77.14487
M205 X8.18 Y8.18
G0 F1800 X32.004 Y112.444
M205 X3 Y3
G1 F1200 X32.004 Y99.701 E77.78062
M205 X8.18 Y8.18
G0 F1800 X31.538 Y98.679
M205 X3 Y3
G1 F1200 X26.559 Y98.679 E78.02902
M205 X8.18 Y8.18
G0 F1800 X26.559 Y96.012
M205 X3 Y3
G1 F1200 X30.939 Y96.012 E78.24754
M205 X8.18 Y8.18
G0 F1800 X30.751 Y93.345
M205 X3 Y3
G1 F1200 X26.559 Y93.345 E78.45668
M205 X8.18 Y8.18
G0 F1800 X26.559 Y106.68
M205 X3 Y3
G1 F1200 X61.39 Y106.68 E80.19441
M205 X8.18 Y8.18
G0 F1800 X62.363 Y109.347
M205 X3 Y3
G1 F1200 X26.559 Y109.347 E81.98068
M205 X8.18 Y8.18
G0 F1800 X37.338 Y102.928
M205 X3 Y3
G1 F1200 X37.338 Y121.544 E82.90943
M205 X8.18 Y8.18
G0 F1800 X40.005 Y121.544
M205 X3 Y3
G1 F1200 X40.005 Y102.964 E83.83639
M205 X8.18 Y8.18
G0 F1800 X42.672 Y102.964
M205 X3 Y3
G1 F1200 X42.672 Y121.544 E84.76335
M205 X8.18 Y8.18
G0 F1800 X45.339 Y121.544
M205 X3 Y3
G1 F1200 X45.339 Y102.964 E85.69031
M205 X8.18 Y8.18
G0 F1800 X48.006 Y102.964
M205 X3 Y3
G1 F1200 X48.006 Y121.544 E86.61727
M205 X8.18 Y8.18
G0 F1800 X50.673 Y121.544
M205 X3 Y3
G1 F1200 X50.673 Y102.691 E87.55785
M205 X8.18 Y8.18
G0 F1800 X51.289 Y101.346
M205 X3 Y3
G1 F1200 X95.64 Y101.346 E89.77053
M205 X8.18 Y8.18
G0 F1800 X96.012 Y102.844
M205 X3 Y3
G1 F1200 X96.012 Y121.544 E90.70348
M205 X8.18 Y8.18
G0 F1800 X93.345 Y121.544
M205 X3 Y3
G1 F1200 X93.345 Y97.426 E91.90673
M205 X8.18 Y8.18
G0 F1800 X95.64 Y98.679
M205 X3 Y3
G1 F1200 X86.36 Y98.679 E92.36971
M205 X8.18 Y8.18
G0 F1800 X88.011 Y97.426
M205 X3 Y3
G1 F1200 X88.011 Y121.544 E93.57296
M205 X8.18 Y8.18
G0 F1800 X85.344 Y121.544
M205 X3 Y3
G1 F1200 X85.344 Y100.964 E94.5997
M205 X8.18 Y8.18
G0 F1800 X82.677 Y100.964
M205 X3 Y3
G1 F1200 X82.677 Y121.544 E95.62644
M205 X8.18 Y8.18
G0 F1800 X80.01 Y121.544
