;FLAVOR:Marlin
;TIME:14338
;Filament used: 9.63696m
;Layer height: 0.2
;MINX:13.35
;MINY:84.914
;MINZ:0.3
;MAXX:196.65
;MAXY:125.1
;MAXZ:22.3
;Generated with Cura_SteamEngine 4.2.1
M140 S60
M105
M190 S60
M104 S200
M105
M109 S200
M82 ;absolute extrusion mode
G21 ;metric values
G90 ;absolute positioning
M82 ;set extruder to absolute mode
M107 ;start with the fan off
G28 X0 Y0 ;move X/Y to min endstops
G28 Z0 ;move Z to min endstops
G1 Z15.0 F60 ;move the platform down 15mm
G92 E0 ;zero the extruded length
G1 F200 E3 ;extrude 3mm of feed stock
G92 E0 ;zero the extruded length again
G1 F60
M117 Printing...
G5
M141 S28
G92 E0
G92 E0
G1 F1500 E-6.5
;LAYER_COUNT:111
;LAYER:0
M107
M204 S300
M205 X8.18 Y8.18
G0 F1800 X16.142 Y84.958 Z0.3
M205 X3 Y3
;TYPE:SKIRT
G1 F1500 E0
G1 F1200 X16.723 Y84.914 E0.02907
G1 X17.093 Y84.92 E0.04753
G1 X17.596 Y84.969 E0.07274
G1 X17.852 Y85.024 E0.08581
G1 X18.706 Y85.248 E0.12986
G1 X21.401 Y85.913 E0.26834
G1 X24.041 Y86.489 E0.40315
G1 X26.738 Y86.993 E0.54003
G1 X29.474 Y87.427 E0.67824
G1 X32.137 Y87.772 E0.81221
G1 X34.877 Y88.05 E0.94961
G1 X37.624 Y88.25 E1.08702
G1 X40.338 Y88.37 E1.22255
G1 X43.091 Y88.413 E1.35992
G1 X45.844 Y88.379 E1.49728
G1 X48.559 Y88.269 E1.63284
G1 X51.265 Y88.082 E1.76817
G1 X53.631 Y87.856 E1.88674
G1 X54.529 Y87.76 E1.9318
G1 X54.613 Y87.752 E1.93601
G1 X55.257 Y87.7 E1.96824
G1 X55.402 Y87.692 E1.97549
G1 X56.277 Y87.661 E2.01917
G1 X56.431 Y87.659 E2.02685
G1 X57.048 Y87.667 E2.05764
G1 X57.131 Y87.669 E2.06178
G1 X57.389 Y87.679 E2.07466
G1 X57.425 Y87.681 E2.07646
G1 X60.026 Y87.811 E2.20639
G1 X62.742 Y87.87 E2.34192
G1 X65.493 Y87.851 E2.47917
G1 X68.212 Y87.756 E2.61491
G1 X70.956 Y87.583 E2.75208
G1 X73.696 Y87.331 E2.88935
G1 X75.16 Y87.165 E2.96286
G1 X76.49 Y87.005 E3.02969
G1 X76.806 Y86.983 E3.0455
G1 X77.38 Y86.971 E3.07414
G1 X77.447 Y86.97 E3.07748
G1 X85.921 Y86.969 E3.50025
G1 X85.966 Y86.969 E3.5025
G1 X86.675 Y86.979 E3.53787
G1 X87.033 Y87.004 E3.55578
G1 X88.04 Y87.132 E3.60642
G1 X90.78 Y87.443 E3.744
G1 X93.519 Y87.675 E3.88114
G1 X96.237 Y87.829 E4.01695
G1 X98.987 Y87.906 E4.15421
G1 X101.705 Y87.906 E4.28981
G1 X104.46 Y87.827 E4.42731
G1 X107.206 Y87.671 E4.56453
G1 X109.915 Y87.441 E4.70017
G1 X112.629 Y87.132 E4.83645
G1 X112.874 Y87.098 E4.84879
G1 X112.924 Y87.091 E4.85131
G1 X113.649 Y87.003 E4.88774
G1 X113.978 Y86.981 E4.90419
G1 X114.54 Y86.971 E4.93224
G1 X114.597 Y86.97 E4.93508
G1 X123.071 Y86.969 E5.35785
G1 X123.116 Y86.969 E5.36009
G1 X123.825 Y86.979 E5.39547
G1 X124.274 Y87.017 E5.41795
G1 X125.561 Y87.218 E5.48294
G1 X125.561 Y87.219 E5.48299
G1 X128.286 Y87.61 E5.62033
G1 X131.012 Y87.923 E5.75722
G1 X133.726 Y88.157 E5.89313
G1 X136.474 Y88.315 E6.03045
G1 X139.224 Y88.395 E6.16771
G1 X141.942 Y88.398 E6.30331
G1 X144.695 Y88.323 E6.44071
G1 X147.412 Y88.172 E6.57647
G1 X150.147 Y87.943 E6.7134
G1 X152.87 Y87.636 E6.85011
G1 X155.041 Y87.335 E6.95946
G1 X155.58 Y87.254 E6.98665
G1 X155.985 Y87.22 E7.00693
G1 X156.576 Y87.207 E7.03642
G1 X156.646 Y87.206 E7.03991
G1 X165.121 Y87.205 E7.46273
G1 X165.166 Y87.205 E7.46498
G1 X165.874 Y87.215 E7.5003
G1 X166.378 Y87.262 E7.52556
G1 X166.867 Y87.388 E7.55075
G1 X167.425 Y87.641 E7.58132
G1 X169.3 Y88.72 E7.68924
G1 X171.691 Y90.033 E7.82533
G1 X173.187 Y90.806 E7.90934
G1 X173.577 Y91.044 E7.93214
G1 X174.454 Y91.67 E7.98589
G1 X174.533 Y91.729 E7.99081
G1 X175.24 Y92.267 E8.03514
G1 X177.47 Y93.867 E8.17207
G1 X179.714 Y95.381 E8.30712
G1 X180.259 Y95.727 E8.33933
G1 X180.3 Y95.754 E8.34177
G1 X181.167 Y96.323 E8.39351
G1 X181.305 Y96.419 E8.4019
G1 X181.516 Y96.574 E8.41496
G1 X184.785 Y98.889 E8.61481
G1 X185.379 Y99.29 E8.65056
G1 X185.77 Y99.601 E8.67549
G1 X186.173 Y99.977 E8.70298
G1 X186.514 Y100.35 E8.7282
G1 X186.663 Y100.557 E8.74092
G1 X186.981 Y101.04 E8.76977
G1 X187.056 Y101.16 E8.77683
G1 X187.342 Y101.639 E8.80467
G1 X187.363 Y101.676 E8.80679
G1 X188.201 Y103.123 E8.89021
G1 X189.653 Y105.476 E9.02816
G1 X191.149 Y107.754 E9.16412
G1 X192.723 Y110.007 E9.30124
G1 X194.346 Y112.197 E9.43723
G1 X195.177 Y113.247 E9.50404
G1 X195.201 Y113.278 E9.50599
G1 X195.973 Y114.278 E9.56902
G1 X196.249 Y114.701 E9.59422
G1 X196.456 Y115.162 E9.61943
G1 X196.587 Y115.651 E9.64469
G1 X196.639 Y116.176 E9.67101
G1 X196.649 Y116.734 E9.69885
G1 X196.65 Y116.791 E9.70169
G1 X196.65 Y121.122 E9.91777
G1 X196.64 Y121.82 E9.9526
G1 X196.593 Y122.323 E9.9778
G1 X196.467 Y122.813 E10.00304
G1 X196.265 Y123.277 E10.02829
G1 X195.993 Y123.703 E10.05351
G1 X195.762 Y123.976 E10.07135
G1 X195.652 Y124.092 E10.07932
G1 X195.276 Y124.43 E10.10455
G1 X194.852 Y124.705 E10.12976
G1 X194.39 Y124.909 E10.15496
G1 X193.901 Y125.039 E10.1802
G1 X193.387 Y125.089 E10.20596
G1 X192.828 Y125.099 E10.23386
G1 X192.771 Y125.1 E10.2367
G1 X182.828 Y125.1 E10.73276
G1 X182.13 Y125.09 E10.76759
G1 X181.509 Y125.02 E10.79876
G1 X180.458 Y124.796 E10.85238
G1 X180.405 Y124.784 E10.85509
G1 X179.791 Y124.642 E10.88653
G1 X177.136 Y124.109 E11.02163
G1 X174.423 Y123.644 E11.15896
G1 X171.725 Y123.259 E11.29492
G1 X168.962 Y122.946 E11.43365
G1 X166.285 Y122.718 E11.56769
G1 X163.534 Y122.561 E11.70516
G1 X160.773 Y122.483 E11.84296
G1 X159.386 Y122.473 E11.91216
G1 X141.276 Y122.474 E12.81568
G1 X24.873 Y122.472 E18.62304
G1 X24.827 Y122.472 E18.62534
G1 X24.129 Y122.462 E18.66017
G1 X23.626 Y122.415 E18.68537
G1 X23.136 Y122.289 E18.71061
G1 X22.672 Y122.087 E18.73586
G1 X22.246 Y121.815 E18.76108
G1 X21.999 Y121.609 E18.77712
G1 X21.052 Y120.731 E18.84155
G1 X19.002 Y118.878 E18.97941
G1 X16.945 Y117.121 E19.11438
G1 X14.766 Y115.362 E19.25409
G1 X14.647 Y115.261 E19.26188
G1 X14.435 Y115.072 E19.27605
G1 X14.085 Y114.706 E19.30131
G1 X13.797 Y114.291 E19.32651
G1 X13.579 Y113.835 E19.35173
G1 X13.434 Y113.35 E19.37698
G1 X13.365 Y112.763 E19.40647
G1 X13.351 Y112.201 E19.43452
G1 X13.35 Y112.121 E19.43851
G1 X13.35 Y88.843 E20.59985
G1 X13.36 Y88.18 E20.63294
G1 X13.408 Y87.676 E20.65819
G1 X13.534 Y87.187 E20.68339
G1 X13.736 Y86.723 E20.70863
G1 X14.008 Y86.297 E20.73385
G1 X14.267 Y85.996 E20.75366
G1 X14.378 Y85.882 E20.7616
G1 X14.758 Y85.548 E20.78684
G1 X15.186 Y85.279 E20.81206
G1 X15.651 Y85.081 E20.83728
G1 X16.142 Y84.958 E20.86253
M205 X8.18 Y8.18
G0 F1800 X16.75 Y88.304
M205 X3 Y3
;TYPE:SUPPORT
G1 F1200 X17.02 Y88.309 E20.876
G1 X17.294 Y88.4 E20.8904
G1 X17.643 Y88.66 E20.91212
G1 X17.697 Y88.717 E20.91603
G1 X18.002 Y89.069 E20.93927
G1 X18.325 Y89.541 E20.96781
G1 X18.613 Y90.05 E20.99698
G1 X18.964 Y90.771 E21.03699
G1 X19.251 Y91.473 E21.07483
G1 X19.73 Y92.877 E21.14884
G1 X19.946 Y93.386 E21.17642
G1 X20.298 Y93.916 E21.20816
G1 X20.766 Y94.356 E21.24021
G1 X21.364 Y94.766 E21.27639
G1 X21.833 Y95.029 E21.30321
G1 X22.297 Y95.249 E21.32883
G1 X22.778 Y95.448 E21.3548
G1 X23.303 Y95.627 E21.38247
G1 X23.812 Y95.761 E21.40873
G1 X24.366 Y95.858 E21.43679
G1 X24.927 Y95.899 E21.46486
G1 X45.161 Y95.9 E22.47433
G1 X46.362 Y94.807 E22.55535
G1 X47.002 Y94.288 E22.59646
G1 X47.582 Y93.864 E22.6323
G1 X48.242 Y93.424 E22.67188
G1 X48.847 Y93.06 E22.7071
G1 X49.596 Y92.667 E22.7493
G1 X50.207 Y92.378 E22.78302
G1 X50.939 Y92.077 E22.82251
G1 X51.654 Y91.824 E22.86035
G1 X52.344 Y91.618 E22.89627
G1 X53.262 Y91.391 E22.94345
G1 X53.877 Y91.272 E22.9747
G1 X54.608 Y91.163 E23.01158
G1 X55.267 Y91.101 E23.0446
G1 X56.207 Y91.055 E23.09155
G1 X56.83 Y91.055 E23.12263
G1 X57.648 Y91.096 E23.1635
G1 X58.482 Y91.176 E23.2053
G1 X59.084 Y91.265 E23.23566
G1 X59.502 Y91.347 E23.25691
G1 X60.656 Y91.614 E23.316
G1 X61.391 Y91.842 E23.35439
G1 X62.037 Y92.069 E23.38856
G1 X62.818 Y92.392 E23.43072
G1 X63.435 Y92.682 E23.46473
G1 X64.143 Y93.057 E23.5047
G1 X64.802 Y93.451 E23.54301
G1 X65.366 Y93.826 E23.5768
G1 X66.053 Y94.333 E23.6194
G1 X66.653 Y94.823 E23.65805
G1 X67.845 Y95.9 E23.73819
G1 X70.551 Y95.9 E23.8732
G1 X70.95 Y95.501 E23.90135
G1 X70.95 Y93.9 E23.98122
G1 X76.551 Y93.9 E24.26066
G1 X76.95 Y93.501 E24.28881
G1 X76.95 Y90.383 E24.44437
G1 X76.963 Y90.37 E24.44528
G1 X86.55 Y90.369 E24.92358
G1 X86.55 Y93.501 E25.07984
G1 X86.949 Y93.9 E25.10799
G1 X92.55 Y93.9 E25.38742
G1 X92.55 Y95.501 E25.4673
G1 X92.949 Y95.9 E25.49545
G1 X107.701 Y95.9 E26.23143
G1 X108.1 Y95.501 E26.25958
G1 X108.1 Y93.9 E26.33946
G1 X113.701 Y93.9 E26.61889
G1 X114.1 Y93.501 E26.64704
G1 X114.1 Y90.383 E26.8026
G1 X114.113 Y90.37 E26.80352
G1 X123.7 Y90.369 E27.28182
G1 X123.7 Y93.501 E27.43807
G1 X124.099 Y93.9 E27.46622
G1 X129.7 Y93.9 E27.74566
G1 X129.7 Y95.501 E27.82553
G1 X130.099 Y95.9 E27.85368
G1 X149.751 Y95.9 E28.83413
G1 X150.15 Y95.501 E28.86228
G1 X150.15 Y93.9 E28.94215
G1 X155.751 Y93.9 E29.22159
G1 X156.15 Y93.501 E29.24974
G1 X156.15 Y90.618 E29.39357
G1 X156.162 Y90.606 E29.39442
G1 X165.75 Y90.605 E29.87277
G1 X165.75 Y93.501 E30.01725
G1 X166.149 Y93.9 E30.0454
G1 X171.75 Y93.9 E30.32483
G1 X171.75 Y95.501 E30.40471
G1 X172.149 Y95.9 E30.43286
G1 X174.35 Y95.9 E30.54267
G1 X174.35 Y98.801 E30.6874
G1 X174.749 Y99.2 E30.71555
G1 X179.35 Y99.2 E30.9451
G1 X179.35 Y101.301 E31.04992
G1 X179.749 Y101.7 E31.07807
G1 X182.014 Y101.7 E31.19107
G1 X182.568 Y101.727 E31.21874
G1 X183.029 Y101.854 E31.2426
G1 X183.066 Y101.87 E31.24461
G1 X183.5 Y102.116 E31.2695
G1 X183.88 Y102.48 E31.29575
G1 X184.138 Y102.887 E31.31979
G1 X184.309 Y103.4 E31.34677
G1 X184.35 Y103.8 E31.36683
G1 X184.349 Y107.532 E31.55302
G1 X184.285 Y108.054 E31.57926
G1 X184.095 Y108.549 E31.60571
G1 X183.806 Y108.955 E31.63057
G1 X183.409 Y109.295 E31.65665
G1 X182.953 Y109.525 E31.68213
G1 X182.448 Y109.639 E31.70796
G1 X180.15 Y109.649 E31.82261
G1 X180.15 Y107.549 E31.92738
G1 X179.751 Y107.15 E31.95553
G1 X177.48 Y107.15 E32.06883
G1 X176.831 Y107.179 E32.10124
G1 X176.262 Y107.321 E32.1305
G1 X175.769 Y107.559 E32.15781
G1 X175.302 Y107.899 E32.18663
G1 X174.923 Y108.316 E32.21474
G1 X174.618 Y108.82 E32.24413
G1 X174.429 Y109.366 E32.27296
G1 X174.354 Y109.901 E32.29991
G1 X174.35 Y113.814 E32.49513
G1 X174.421 Y114.467 E32.5279
G1 X174.599 Y114.969 E32.55447
G1 X175.225 Y116.068 E32.61758
G1 X175.663 Y116.322 E32.64284
G1 X193.25 Y116.312 E33.52025
G1 X193.25 Y121.7 E33.78906
G1 X182.25 Y121.7 E34.33786
G1 X182.25 Y119.697 E34.43779
G1 X181.851 Y119.298 E34.46594
G1 X176.753 Y119.298 E34.72028
G1 X176.388 Y119.072 E34.7417
G1 X141.276 Y119.074 E36.49344
G1 X24.25 Y119.072 E42.33189
G1 X24.25 Y112.999 E42.63487
G1 X23.851 Y112.6 E42.66303
G1 X16.75 Y112.6 E43.0173
G1 X16.75 Y88.304 E44.22943
M205 X8.18 Y8.18
G0 F1800 X52.756 Y104.685
M205 X3 Y3
G1 F1200 X52.406 Y105.636 E44.27999
G1 X52.296 Y106.647 E44.33072
G1 X52.429 Y107.651 E44.38125
G1 X52.798 Y108.593 E44.43172
G1 X53.387 Y109.426 E44.48262
G1 X54.155 Y110.089 E44.53324
G1 X55.059 Y110.55 E44.58387
G1 X56.035 Y110.78 E44.63389
G1 X57.052 Y110.768 E44.68463
G1 X58.036 Y110.514 E44.73534
G1 X58.924 Y110.036 E44.78565
G1 X59.68 Y109.351 E44.83655
G1 X60.246 Y108.509 E44.88716
G1 X60.594 Y107.561 E44.93754
G1 X60.704 Y106.553 E44.98813
G1 X60.572 Y105.55 E45.0386
G1 X60.203 Y104.607 E45.08912
G1 X59.613 Y103.774 E45.14005
G1 X58.845 Y103.111 E45.19067
G1 X57.944 Y102.652 E45.24112
G1 X56.951 Y102.42 E45.29199
G1 X55.949 Y102.432 E45.34198
G1 X54.97 Y102.685 E45.39243
G1 X54.074 Y103.164 E45.44312
G1 X53.319 Y103.85 E45.49401
G1 X52.756 Y104.685 E45.54426
M205 X8.18 Y8.18
G0 F1800 X53.015 Y104.013
M205 X3 Y3
G1 F1200 X16.909 Y104.013 E47.34559
M205 X8.18 Y8.18
G0 F1800 X16.909 Y101.346
M205 X3 Y3
G1 F1200 X179.19 Y101.346 E55.44182
M205 X8.18 Y8.18
G0 F1800 X178.689 Y99.36
M205 X3 Y3
G1 F1200 X178.689 Y106.99 E55.82249
M205 X8.18 Y8.18
G0 F1800 X176.022 Y107.26
M205 X3 Y3
G1 F1200 X176.022 Y99.36 E56.21662
M205 X8.18 Y8.18
G0 F1800 X174.19 Y98.679
M205 X3 Y3
G1 F1200 X16.909 Y98.679 E64.0634
M205 X8.18 Y8.18
G0 F1800 X16.909 Y96.012
M205 X3 Y3
G1 F1200 X24.315 Y96.012 E64.43289
M205 X8.18 Y8.18
G0 F1800 X24.003 Y95.958
M205 X3 Y3
G1 F1200 X24.003 Y112.525 E65.25942
M205 X8.18 Y8.18
G0 F1800 X24.409 Y114.681
M205 X3 Y3
G1 F1200 X174.328 Y114.681 E72.73891
M205 X8.18 Y8.18
G0 F1800 X176.022 Y116.481
M205 X3 Y3
G1 F1200 X176.022 Y118.913 E72.86024
M205 X8.18 Y8.18
G0 F1800 X173.355 Y118.913
M205 X3 Y3
G1 F1200 X173.355 Y96.06 E74.00038
M205 X8.18 Y8.18
G0 F1800 X172.035 Y96.012
M205 X3 Y3
G1 F1200 X149.865 Y96.012 E75.10645
M205 X8.18 Y8.18
G0 F1800 X149.352 Y96.06
M205 X3 Y3
G1 F1200 X149.352 Y118.914 E76.24664
M205 X8.18 Y8.18
G0 F1800 X146.685 Y118.914
M205 X3 Y3
G1 F1200 X146.685 Y96.06 E77.38683
M205 X8.18 Y8.18
G0 F1800 X144.018 Y96.06
M205 X3 Y3
G1 F1200 X144.018 Y118.914 E78.52702
M205 X8.18 Y8.18
G0 F1800 X141.351 Y118.914
M205 X3 Y3
G1 F1200 X141.351 Y96.06 E79.66721
M205 X8.18 Y8.18
G0 F1800 X138.684 Y96.06
M205 X3 Y3
G1 F1200 X138.684 Y118.913 E80.80735
M205 X8.18 Y8.18
G0 F1800 X136.017 Y118.913
M205 X3 Y3
G1 F1200 X136.017 Y96.06 E81.94749
M205 X8.18 Y8.18
G0 F1800 X133.35 Y96.06
M205 X3 Y3
G1 F1200 X133.35 Y118.913 E83.08763
M205 X8.18 Y8.18
G0 F1800 X130.683 Y118.913
M205 X3 Y3
G1 F1200 X130.683 Y96.06 E84.22777
M205 X8.18 Y8.18
G0 F1800 X129.985 Y96.012
M205 X3 Y3
G1 F1200 X107.816 Y96.012 E85.33379
M205 X8.18 Y8.18
G0 F1800 X106.68 Y96.06
M205 X3 Y3
G1 F1200 X106.68 Y118.913 E86.47393
M205 X8.18 Y8.18
G0 F1800 X104.013 Y118.913
M205 X3 Y3
G1 F1200 X104.013 Y96.06 E87.61407
M205 X8.18 Y8.18
G0 F1800 X101.346 Y96.06
M205 X3 Y3
G1 F1200 X101.346 Y118.913 E88.75421
M205 X8.18 Y8.18
G0 F1800 X98.679 Y118.913
M205 X3 Y3
G1 F1200 X98.679 Y96.06 E89.89435
M205 X8.18 Y8.18
G0 F1800 X96.012 Y96.06
M205 X3 Y3
G1 F1200 X96.012 Y118.913 E91.03449
M205 X8.18 Y8.18
G0 F1800 X93.345 Y118.913
M205 X3 Y3
G1 F1200 X93.345 Y96.06 E92.17463
M205 X8.18 Y8.18
G0 F1800 X92.834 Y96.012
M205 X3 Y3
G1 F1200 X70.666 Y96.012 E93.2806
M205 X8.18 Y8.18
G0 F1800 X69.342 Y96.06
M205 X3 Y3
G1 F1200 X69.342 Y118.912 E94.42069
M205 X8.18 Y8.18
G0 F1800 X66.675 Y118.912
M205 X3 Y3
G1 F1200 X66.675 Y95.06 E95.61067
M205 X8.18 Y8.18
G0 F1800 X67.731 Y96.012
M205 X3 Y3
G1 F1200 X45.274 Y96.012 E96.73106
M205 X8.18 Y8.18
G0 F1800 X45.339 Y95.953
M205 X3 Y3
G1 F1200 X45.339 Y118.912 E97.87648
M205 X8.18 Y8.18
G0 F1800 X42.672 Y118.912
M205 X3 Y3
G1 F1200 X42.672 Y96.06 E99.01658
M205 X8.18 Y8.18
G0 F1800 X40.005 Y96.06
M205 X3 Y3
G1 F1200 X40.005 Y118.912 E100.15667
M205 X8.18 Y8.18
G0 F1800 X37.338 Y118.912
M205 X3 Y3
G1 F1200 X37.338 Y96.06 E101.29676
M205 X8.18 Y8.18
G0 F1800 X34.671 Y96.06
M205 X3 Y3
G1 F1200 X34.671 Y118.912 E102.43685
M205 X8.18 Y8.18
G0 F1800 X32.004 Y118.912
M205 X3 Y3
G1 F1200 X32.004 Y96.06 E103.57694
M205 X8.18 Y8.18
G0 F1800 X29.337 Y96.06
M205 X3 Y3
G1 F1200 X29.337 Y118.912 E104.71703
M205 X8.18 Y8.18
G0 F1800 X26.67 Y118.912
M205 X3 Y3
G1 F1200 X26.67 Y96.06 E105.85712
M205 X8.18 Y8.18
G0 F1800 X21.336 Y94.934
M205 X3 Y3
G1 F1200 X21.336 Y112.44 E106.7305
M205 X8.18 Y8.18
G0 F1800 X18.669 Y112.44
M205 X3 Y3
G1 F1200 X18.669 Y90.532 E107.82349
M205 X8.18 Y8.18
G0 F1800 X18.74 Y90.678
M205 X3 Y3
G1 F1200 X16.909 Y90.678 E107.91484
M205 X8.18 Y8.18
G0 F1800 X16.909 Y93.345
M205 X3 Y3
G1 F1200 X19.755 Y93.345 E108.05683
M205 X8.18 Y8.18
G0 F1800 X16.909 Y106.68
M205 X3 Y3
G1 F1200 X52.14 Y106.68 E109.81451
M205 X8.18 Y8.18
G0 F1800 X53.135 Y109.347
M205 X3 Y3
G1 F1200 X16.909 Y109.347 E111.62183
M205 X8.18 Y8.18
G0 F1800 X16.909 Y112.014
M205 X3 Y3
G1 F1200 X174.191 Y112.014 E119.46866
M205 X8.18 Y8.18
G0 F1800 X174.27 Y109.347
M205 X3 Y3
G1 F1200 X59.874 Y109.347 E125.1759
M205 X8.18 Y8.18
G0 F1800 X58.674 Y110.352
M205 X3 Y3
