;FLAVOR:Marlin
;TIME:9308
;Filament used: 6.28454m
;Layer height: 0.2
;MINX:39.9
;MINY:84.929
;MINZ:0.3
;MAXX:170.1
;MAXY:125.104
;MAXZ:22.3
;Generated with Cura_SteamEngine 4.2.1
M140 S60
M105
M190 S60
M104 S200
M105
M109 S200
M82 ;absolute extrusion mode
G21 ;metric values
G90 ;absolute positioning
M82 ;set extruder to absolute mode
M107 ;start with the fan off
G28 X0 Y0 ;move X/Y to min endstops
G28 Z0 ;move Z to min endstops
G1 Z15.0 F60 ;move the platform down 15mm
G92 E0 ;zero the extruded length
G1 F200 E3 ;extrude 3mm of feed stock
G92 E0 ;zero the extruded length again
G1 F60
M117 Printing...
G5
M141 S28
G92 E0
G92 E0
G1 F1500 E-6.5
;LAYER_COUNT:111
;LAYER:0
M107
M204 S300
M205 X8.18 Y8.18
G0 F1800 X41.784 Y85.275 Z0.3
M205 X3 Y3
;TYPE:SKIRT
G1 F1500 E0
G1 F1200 X42.252 Y85.082 E0.02526
G1 X42.744 Y84.966 E0.05048
G1 X43.248 Y84.929 E0.07569
G1 X43.732 Y84.968 E0.09991
G1 X44.338 Y85.064 E0.13052
G1 X44.445 Y85.083 E0.13594
G1 X44.719 Y85.136 E0.14987
G1 X44.894 Y85.175 E0.15881
G1 X45.892 Y85.427 E0.21017
G1 X48.57 Y86.065 E0.34751
G1 X51.256 Y86.625 E0.4844
G1 X53.948 Y87.108 E0.62085
G1 X56.654 Y87.513 E0.75735
G1 X59.401 Y87.847 E0.89541
G1 X62.102 Y88.097 E1.03074
G1 X64.817 Y88.271 E1.16647
G1 X67.566 Y88.369 E1.30371
G1 X70.321 Y88.391 E1.44116
G1 X73.04 Y88.334 E1.57684
G1 X75.783 Y88.2 E1.71385
G1 X78.507 Y87.989 E1.85016
G1 X79.566 Y87.874 E1.9033
G1 X79.61 Y87.869 E1.90551
G1 X80.735 Y87.763 E1.96189
G1 X80.783 Y87.759 E1.96429
G1 X81.632 Y87.692 E2.00678
G1 X81.784 Y87.684 E2.01437
G1 X82.392 Y87.665 E2.04472
G1 X82.542 Y87.663 E2.05221
G1 X83.372 Y87.676 E2.09362
G1 X83.537 Y87.683 E2.10186
G1 X84.323 Y87.736 E2.14116
G1 X84.473 Y87.75 E2.14868
G1 X85.195 Y87.833 E2.18494
G1 X85.297 Y87.846 E2.19007
G1 X85.568 Y87.886 E2.20373
G1 X85.657 Y87.901 E2.20823
G1 X86.246 Y88.005 E2.23807
G1 X86.388 Y88.033 E2.2453
G1 X87.189 Y88.212 E2.28624
G1 X87.347 Y88.252 E2.29437
G1 X88.024 Y88.44 E2.32943
G1 X88.17 Y88.484 E2.33704
G1 X89.418 Y88.895 E2.40259
G1 X92.062 Y89.735 E2.541
G1 X94.664 Y90.48 E2.67603
G1 X97.345 Y91.168 E2.81412
G1 X100.002 Y91.77 E2.95003
G1 X102.696 Y92.3 E3.08701
G1 X105.392 Y92.752 E3.2234
G1 X108.108 Y93.128 E3.36019
G1 X110.852 Y93.43 E3.49791
G1 X113.556 Y93.649 E3.63326
G1 X116.279 Y93.794 E3.7693
G1 X120.062 Y93.867 E3.95807
G1 X128.072 Y93.866 E4.35769
G1 X128.117 Y93.866 E4.35994
G1 X129.611 Y93.887 E4.43448
G1 X129.658 Y93.888 E4.43683
G1 X130.837 Y93.922 E4.49567
G1 X133.555 Y93.922 E4.63127
G1 X136.304 Y93.845 E4.76848
G1 X139.023 Y93.691 E4.90434
G1 X141.761 Y93.459 E5.04143
G1 X144.504 Y93.148 E5.17916
G1 X147.207 Y92.763 E5.31537
G1 X147.731 Y92.675 E5.34188
G1 X147.78 Y92.667 E5.34436
G1 X148.533 Y92.552 E5.38236
G1 X148.956 Y92.516 E5.40354
G1 X149.543 Y92.505 E5.43283
G1 X149.603 Y92.504 E5.43583
G1 X156.122 Y92.504 E5.76106
G1 X156.82 Y92.514 E5.79589
G1 X157.323 Y92.561 E5.82109
G1 X157.813 Y92.687 E5.84633
G1 X158.277 Y92.889 E5.87158
G1 X158.587 Y93.077 E5.88967
G1 X159.01 Y93.368 E5.91528
G1 X161.311 Y94.922 E6.05381
G1 X163.334 Y96.206 E6.17335
G1 X163.483 Y96.307 E6.18233
G1 X166.302 Y98.328 E6.35538
G1 X167.524 Y99.16 E6.42913
G1 X167.601 Y99.214 E6.43383
G1 X168.008 Y99.509 E6.4589
G1 X168.542 Y99.997 E6.49499
G1 X168.875 Y100.379 E6.52028
G1 X169.287 Y100.977 E6.55651
G1 X169.562 Y101.493 E6.58568
G1 X169.764 Y101.957 E6.61093
G1 X169.843 Y102.223 E6.62477
G1 X169.958 Y102.684 E6.64847
G1 X170.049 Y103.306 E6.67984
G1 X170.094 Y104.244 E6.72669
G1 X170.098 Y104.371 E6.73303
G1 X170.1 Y104.613 E6.7451
G1 X170.1 Y106.886 E6.8585
G1 X170.091 Y107.527 E6.89048
G1 X170.074 Y107.811 E6.90468
G1 X170.023 Y108.304 E6.9294
G1 X169.985 Y108.564 E6.94251
G1 X169.924 Y108.89 E6.95906
G1 X169.892 Y109.043 E6.96686
G1 X169.346 Y111.335 E7.08441
G1 X168.79 Y114.007 E7.22057
G1 X168.311 Y116.688 E7.35644
G1 X167.9 Y119.43 E7.49477
G1 X167.728 Y120.908 E7.569
G1 X167.724 Y120.942 E7.57071
G1 X167.569 Y122.158 E7.63187
G1 X167.466 Y122.653 E7.65709
G1 X167.286 Y123.125 E7.6823
G1 X167.034 Y123.563 E7.70751
G1 X166.875 Y123.776 E7.72077
G1 X166.76 Y123.917 E7.72985
G1 X166.41 Y124.282 E7.75507
G1 X166.008 Y124.588 E7.78028
G1 X165.562 Y124.826 E7.8055
G1 X165.084 Y124.991 E7.83073
G1 X164.337 Y125.093 E7.86834
G1 X163.778 Y125.103 E7.89624
G1 X163.721 Y125.104 E7.89908
G1 X51.378 Y125.104 E13.5039
G1 X50.677 Y125.094 E13.53887
G1 X50.174 Y125.047 E13.56408
G1 X49.684 Y124.921 E13.58932
G1 X49.221 Y124.719 E13.61452
G1 X48.794 Y124.447 E13.63978
G1 X48.377 Y124.07 E13.66782
G1 X48.211 Y123.891 E13.68
G1 X47.998 Y123.636 E13.69658
G1 X46.425 Y121.54 E13.82732
G1 X44.725 Y119.403 E13.96356
G1 X42.96 Y117.309 E14.10019
G1 X41.099 Y115.224 E14.23962
G1 X40.754 Y114.848 E14.26508
G1 X40.443 Y114.45 E14.29028
G1 X40.199 Y114.007 E14.31551
G1 X40.027 Y113.532 E14.34071
G1 X39.932 Y113.035 E14.36596
G1 X39.914 Y112.76 E14.3797
G1 X39.901 Y112.199 E14.4077
G1 X39.9 Y112.125 E14.41139
G1 X39.9 Y88.883 E15.57094
G1 X39.91 Y88.203 E15.60487
G1 X39.958 Y87.7 E15.63008
G1 X40.084 Y87.21 E15.65532
G1 X40.285 Y86.746 E15.68055
G1 X40.557 Y86.32 E15.70576
G1 X40.847 Y85.987 E15.72779
G1 X40.968 Y85.866 E15.73633
G1 X41.353 Y85.538 E15.76156
G1 X41.784 Y85.275 E15.78675
M205 X8.18 Y8.18
G0 F1800 X43.3 Y88.312
M205 X3 Y3
;TYPE:SUPPORT
G1 F1200 X43.579 Y88.326 E15.80069
G1 X44.054 Y88.459 E15.8253
G1 X44.599 Y88.735 E15.85578
G1 X45.094 Y89.08 E15.88588
G1 X45.48 Y89.408 E15.91115
G1 X45.999 Y89.923 E15.94763
G1 X46.511 Y90.578 E15.98911
G1 X46.792 Y90.988 E16.0139
G1 X47.106 Y91.505 E16.04408
G1 X47.339 Y91.969 E16.06999
G1 X47.534 Y92.422 E16.09459
G1 X47.713 Y92.934 E16.12165
G1 X47.822 Y93.366 E16.14388
G1 X47.888 Y93.894 E16.17043
G1 X47.907 Y94.754 E16.21334
G1 X47.945 Y95.445 E16.24787
G1 X47.998 Y96.015 E16.27643
G1 X48.095 Y96.714 E16.31164
G1 X48.188 Y97.232 E16.33789
G1 X48.309 Y97.739 E16.3639
G1 X48.562 Y98.55 E16.40628
G1 X48.843 Y99.244 E16.44364
G1 X49.133 Y99.803 E16.47505
G1 X49.429 Y100.254 E16.50197
G1 X49.772 Y100.701 E16.53008
G1 X50.287 Y101.221 E16.56659
G1 X50.682 Y101.545 E16.59208
G1 X51.304 Y101.943 E16.62892
G1 X51.786 Y102.184 E16.6558
G1 X52.292 Y102.382 E16.68291
G1 X52.774 Y102.53 E16.70807
G1 X53.319 Y102.647 E16.73588
G1 X53.963 Y102.746 E16.76838
G1 X54.579 Y102.795 E16.79921
G1 X54.916 Y102.803 E16.81603
G1 X64.968 Y102.804 E17.31753
G1 X67.246 Y102.766 E17.43119
G1 X67.67 Y102.451 E17.45755
G1 X68.09 Y101.142 E17.52613
G1 X68.377 Y100.437 E17.56411
G1 X68.701 Y99.734 E17.60272
G1 X69.063 Y99.041 E17.64173
G1 X69.466 Y98.361 E17.68117
G1 X69.904 Y97.7 E17.72073
G1 X70.351 Y97.088 E17.75854
G1 X70.804 Y96.533 E17.79428
G1 X71.381 Y95.892 E17.83731
G1 X71.887 Y95.382 E17.87315
G1 X72.471 Y94.849 E17.9126
G1 X73.065 Y94.361 E17.95095
G1 X73.685 Y93.897 E17.98958
G1 X74.323 Y93.472 E18.02783
G1 X74.971 Y93.083 E18.06554
G1 X75.692 Y92.7 E18.10627
G1 X76.398 Y92.368 E18.14519
G1 X77.088 Y92.087 E18.18236
G1 X77.786 Y91.836 E18.21937
G1 X78.592 Y91.593 E18.26136
G1 X79.339 Y91.409 E18.29975
G1 X80.062 Y91.273 E18.33645
G1 X80.8 Y91.17 E18.37363
G1 X81.699 Y91.087 E18.41867
G1 X82.363 Y91.057 E18.45183
G1 X83.117 Y91.062 E18.48945
G1 X83.926 Y91.107 E18.52987
G1 X84.776 Y91.197 E18.57251
G1 X85.454 Y91.307 E18.60678
G1 X86.256 Y91.477 E18.64768
G1 X86.973 Y91.665 E18.68466
G1 X87.726 Y91.905 E18.72409
G1 X88.431 Y92.167 E18.76162
G1 X89.168 Y92.483 E18.80162
G1 X89.8 Y92.795 E18.83679
G1 X90.56 Y93.218 E18.88018
G1 X91.205 Y93.617 E18.91802
G1 X91.799 Y94.03 E18.95411
G1 X92.462 Y94.542 E18.9959
G1 X93.01 Y95.006 E19.03173
G1 X93.571 Y95.539 E19.07033
G1 X94.141 Y96.128 E19.11123
G1 X94.622 Y96.681 E19.14779
G1 X95.104 Y97.297 E19.18681
G1 X95.564 Y97.941 E19.2263
G1 X95.976 Y98.59 E19.26465
G1 X96.358 Y99.265 E19.30334
G1 X97.005 Y100.537 E19.37454
G1 X97.442 Y100.804 E19.40009
G1 X102.701 Y100.804 E19.66246
G1 X103.1 Y100.405 E19.69062
G1 X103.1 Y97.28 E19.84652
G1 X103.113 Y97.267 E19.84744
G1 X112.7 Y97.266 E20.32574
G1 X112.7 Y100.405 E20.48234
G1 X113.099 Y100.804 E20.51049
G1 X118.701 Y100.804 E20.78998
G1 X119.1 Y100.405 E20.81813
G1 X119.1 Y97.28 E20.97404
G1 X119.113 Y97.267 E20.97496
G1 X128.7 Y97.266 E21.45325
G1 X128.7 Y100.405 E21.60986
G1 X129.099 Y100.804 E21.63801
G1 X144.69 Y100.804 E22.41585
G1 X145.424 Y100.478 E22.45592
G1 X146.121 Y100.118 E22.49505
G1 X146.713 Y99.756 E22.52967
G1 X147.206 Y99.396 E22.56013
G1 X147.693 Y98.964 E22.59261
G1 X148.089 Y98.53 E22.62192
G1 X148.402 Y98.1 E22.64845
G1 X148.689 Y97.582 E22.678
G1 X148.888 Y97.09 E22.70448
G1 X149.025 Y96.532 E22.73314
G1 X149.095 Y95.906 E22.76457
G1 X156.7 Y95.904 E23.14398
G1 X156.7 Y98.805 E23.28871
G1 X157.099 Y99.204 E23.31686
G1 X161.7 Y99.204 E23.54641
G1 X161.7 Y101.305 E23.65123
G1 X162.099 Y101.704 E23.67938
G1 X164.578 Y101.704 E23.80306
G1 X165.11 Y101.768 E23.82979
G1 X165.597 Y101.959 E23.85589
G1 X166.019 Y102.256 E23.88163
G1 X166.348 Y102.644 E23.90701
G1 X166.57 Y103.084 E23.9316
G1 X166.689 Y103.605 E23.95826
G1 X166.7 Y104.275 E23.99169
G1 X166.7 Y107.532 E24.15419
G1 X166.637 Y108.056 E24.18052
G1 X166.447 Y108.551 E24.20697
G1 X166.146 Y108.971 E24.23275
G1 X165.775 Y109.291 E24.25719
G1 X165.318 Y109.528 E24.28288
G1 X164.806 Y109.641 E24.30903
G1 X162.5 Y109.653 E24.42408
G1 X162.5 Y107.553 E24.52885
G1 X162.101 Y107.154 E24.557
G1 X159.582 Y107.154 E24.68268
G1 X159.034 Y107.206 E24.71014
G1 X158.474 Y107.376 E24.73934
G1 X157.997 Y107.64 E24.76654
G1 X157.548 Y108 E24.79525
G1 X157.179 Y108.452 E24.82436
G1 X156.922 Y108.946 E24.85214
G1 X156.757 Y109.48 E24.88003
G1 X156.7 Y110.032 E24.90771
G1 X156.7 Y113.817 E25.09655
G1 X156.755 Y114.373 E25.12442
G1 X156.918 Y114.913 E25.15256
G1 X157.207 Y115.448 E25.1829
G1 X157.575 Y115.886 E25.21144
G1 X158.036 Y116.245 E25.24059
G1 X158.554 Y116.509 E25.2696
G1 X159.081 Y116.657 E25.2969
G1 X159.198 Y116.672 E25.30279
G1 X159.2 Y118.805 E25.40921
G1 X159.599 Y119.204 E25.43736
G1 X164.2 Y119.204 E25.6669
G1 X164.2 Y121.704 E25.79163
G1 X50.8 Y121.704 E31.44918
G1 X50.8 Y113.003 E31.88327
G1 X50.401 Y112.604 E31.91142
G1 X43.3 Y112.604 E32.26569
G1 X43.3 Y88.312 E33.47763
M205 X8.18 Y8.18
G0 F1800 X78.964 Y104.584
M205 X3 Y3
G1 F1200 X78.692 Y105.187 E33.51063
G1 X78.498 Y105.951 E33.54995
G1 X78.446 Y106.623 E33.58358
G1 X78.528 Y107.426 E33.62385
G1 X78.71 Y108.067 E33.65709
G1 X79.054 Y108.787 E33.6969
G1 X79.444 Y109.323 E33.72998
G1 X80.021 Y109.884 E33.77013
G1 X80.57 Y110.257 E33.80324
G1 X81.297 Y110.585 E33.84303
G1 X81.946 Y110.749 E33.87643
G1 X82.741 Y110.808 E33.9162
G1 X83.389 Y110.742 E33.94869
G1 X84.024 Y110.575 E33.98145
G1 X84.751 Y110.246 E34.02126
G1 X85.298 Y109.869 E34.05441
G1 X85.872 Y109.305 E34.09455
G1 X86.258 Y108.765 E34.12767
G1 X86.599 Y108.045 E34.16742
G1 X86.776 Y107.403 E34.20064
G1 X86.854 Y106.591 E34.24134
G1 X86.772 Y105.783 E34.28186
G1 X86.59 Y105.142 E34.3151
G1 X86.248 Y104.427 E34.35464
G1 X85.852 Y103.883 E34.38821
G1 X85.28 Y103.326 E34.42804
G1 X84.734 Y102.953 E34.46103
G1 X84 Y102.622 E34.5012
G1 X83.353 Y102.459 E34.53449
G1 X82.558 Y102.401 E34.57426
G1 X81.902 Y102.47 E34.60717
G1 X81.141 Y102.682 E34.64658
G1 X80.533 Y102.973 E34.68021
G1 X79.877 Y103.445 E34.72053
G1 X79.414 Y103.921 E34.75366
G1 X78.964 Y104.584 E34.79363
M205 X8.18 Y8.18
G0 F1800 X79.157 Y104.013
M205 X3 Y3
G1 F1200 X43.459 Y104.013 E36.57461
M205 X8.18 Y8.18
G0 F1800 X43.459 Y101.346
M205 X3 Y3
G1 F1200 X50.186 Y101.346 E36.91023
M205 X8.18 Y8.18
G0 F1800 X50.673 Y101.729
M205 X3 Y3
G1 F1200 X50.673 Y112.649 E37.45503
M205 X8.18 Y8.18
G0 F1800 X50.959 Y114.681
M205 X3 Y3
G1 F1200 X156.681 Y114.681 E42.72952
M205 X8.18 Y8.18
G0 F1800 X157.353 Y115.87
M205 X3 Y3
G1 F1200 X157.353 Y121.544 E43.0126
M205 X8.18 Y8.18
G0 F1800 X160.02 Y121.544
M205 X3 Y3
G1 F1200 X160.02 Y119.364 E43.12136
M205 X8.18 Y8.18
G0 F1800 X159.039 Y117.348
M205 X3 Y3
G1 F1200 X50.959 Y117.348 E48.51349
M205 X8.18 Y8.18
G0 F1800 X50.959 Y120.015
M205 X3 Y3
G1 F1200 X164.04 Y120.015 E54.15512
M205 X8.18 Y8.18
G0 F1800 X162.687 Y119.364
M205 X3 Y3
G1 F1200 X162.687 Y121.544 E54.26388
M205 X8.18 Y8.18
G0 F1800 X154.686 Y121.544
M205 X3 Y3
G1 F1200 X154.686 Y96.064 E55.53509
M205 X8.18 Y8.18
G0 F1800 X152.019 Y96.065
M205 X3 Y3
G1 F1200 X152.019 Y121.544 E56.80624
M205 X8.18 Y8.18
G0 F1800 X149.352 Y121.544
M205 X3 Y3
G1 F1200 X149.352 Y96.065 E58.07739
M205 X8.18 Y8.18
G0 F1800 X148.169 Y98.679
M205 X3 Y3
G1 F1200 X156.54 Y98.679 E58.49502
M205 X8.18 Y8.18
G0 F1800 X157.353 Y99.364
M205 X3 Y3
G1 F1200 X157.353 Y107.985 E58.92513
M205 X8.18 Y8.18
G0 F1800 X156.629 Y109.347
M205 X3 Y3
G1 F1200 X86.039 Y109.347 E62.44687
M205 X8.18 Y8.18
G0 F1800 X85.344 Y110.031
M205 X3 Y3
G1 F1200 X85.344 Y121.544 E63.02126
M205 X8.18 Y8.18
G0 F1800 X82.677 Y121.544
M205 X3 Y3
G1 F1200 X82.677 Y110.965 E63.54905
M205 X8.18 Y8.18
G0 F1800 X80.01 Y110.071
M205 X3 Y3
G1 F1200 X80.01 Y121.544 E64.12144
M205 X8.18 Y8.18
G0 F1800 X77.343 Y121.544
M205 X3 Y3
G1 F1200 X77.343 Y92.165 E65.58716
M205 X8.18 Y8.18
G0 F1800 X80.01 Y91.446
M205 X3 Y3
G1 F1200 X80.01 Y103.152 E66.17118
M205 X8.18 Y8.18
G0 F1800 X82.677 Y102.248
M205 X3 Y3
G1 F1200 X82.677 Y91.22 E66.72137
M205 X8.18 Y8.18
G0 F1800 X85.344 Y91.452
M205 X3 Y3
G1 F1200 X85.344 Y103.176 E67.30628
M205 X8.18 Y8.18
G0 F1800 X86.145 Y104.013
M205 X3 Y3
G1 F1200 X166.536 Y104.013 E71.317
M205 X8.18 Y8.18
G0 F1800 X165.354 Y102.036
M205 X3 Y3
G1 F1200 X165.354 Y109.329 E71.68085
M205 X8.18 Y8.18
G0 F1800 X165.316 Y109.347
M205 X3 Y3
G1 F1200 X162.66 Y109.347 E71.81336
M205 X8.18 Y8.18
G0 F1800 X162.687 Y109.492
M205 X3 Y3
G1 F1200 X162.687 Y101.864 E72.19392
M205 X8.18 Y8.18
G0 F1800 X161.54 Y101.346
M205 X3 Y3
G1 F1200 X68.192 Y101.346 E76.85107
M205 X8.18 Y8.18
G0 F1800 X66.675 Y102.935
M205 X3 Y3
G1 F1200 X66.675 Y121.544 E77.77948
M205 X8.18 Y8.18
G0 F1800 X64.008 Y121.544
M205 X3 Y3
G1 F1200 X64.008 Y102.964 E78.70644
M205 X8.18 Y8.18
G0 F1800 X61.341 Y102.964
M205 X3 Y3
G1 F1200 X61.341 Y121.544 E79.6334
M205 X8.18 Y8.18
G0 F1800 X58.674 Y121.544
M205 X3 Y3
G1 F1200 X58.674 Y102.964 E80.56036
M205 X8.18 Y8.18
G0 F1800 X56.007 Y102.964
M205 X3 Y3
G1 F1200 X56.007 Y121.544 E81.48732
M205 X8.18 Y8.18
G0 F1800 X53.34 Y121.544
M205 X3 Y3
G1 F1200 X53.34 Y102.812 E82.42186
M205 X8.18 Y8.18
G0 F1800 X48.442 Y98.679
M205 X3 Y3
G1 F1200 X43.459 Y98.679 E82.67047
M205 X8.18 Y8.18
G0 F1800 X43.459 Y96.012
M205 X3 Y3
G1 F1200 X47.837 Y96.012 E82.88889
M205 X8.18 Y8.18
G0 F1800 X48.006 Y97.127
M205 X3 Y3
G1 F1200 X48.006 Y112.444 E83.65305
M205 X8.18 Y8.18
G0 F1800 X45.339 Y112.444
M205 X3 Y3
G1 F1200 X45.339 Y89.499 E84.79778
M205 X8.18 Y8.18
G0 F1800 X46.385 Y90.678
M205 X3 Y3
G1 F1200 X43.459 Y90.678 E84.94376
M205 X8.18 Y8.18
G0 F1800 X43.459 Y93.345
M205 X3 Y3
G1 F1200 X47.651 Y93.345 E85.1529
M205 X8.18 Y8.18
G0 F1800 X43.459 Y106.68
M205 X3 Y3
G1 F1200 X78.291 Y106.68 E86.89068
M205 X8.18 Y8.18
G0 F1800 X79.264 Y109.347
M205 X3 Y3
G1 F1200 X43.459 Y109.347 E88.677
M205 X8.18 Y8.18
G0 F1800 X43.459 Y112.014
M205 X3 Y3
G1 F1200 X156.54 Y112.014 E94.31863
M205 X8.18 Y8.18
G0 F1800 X160.02 Y106.994
M205 X3 Y3
G1 F1200 X160.02 Y99.364 E94.69929
M205 X8.18 Y8.18
G0 F1800 X166.54 Y106.68
M205 X3 Y3
G1 F1200 X87.007 Y106.68 E98.66721
M205 X8.18 Y8.18
G0 F1800 X96.012 Y98.98
M205 X3 Y3
G1 F1200 X96.012 Y121.544 E99.79293
M205 X8.18 Y8.18
G0 F1800 X93.345 Y121.544
M205 X3 Y3
G1 F1200 X93.345 Y95.546 E101.08998
M205 X8.18 Y8.18
G0 F1800 X93.806 Y96.012
M205 X3 Y3
G1 F1200 X71.49 Y96.012 E102.20333
