;FLAVOR:Marlin
;TIME:24501
;Filament used: 19.5748m
;Layer height: 0.2
;MINX:22.12
;MINY:109.474
;MINZ:0.3
;MAXX:187.8
;MAXY:176.879
;MAXZ:30.7
;Generated with Cura_SteamEngine 4.13.0
M140 S70
M105
M190 S70
M104 S212
M105
M109 S212
M82 ;absolute extrusion mode
G21 ;metric values
G90 ;absolute positioning
M82 ;set extruder to absolute mode
M107 ;start with the fan off
G28 X0 Y0 ;move X/Y to min endstops
G28 Z0 ;move Z to min endstops
G1 Z15.0 F60 ;move the platform down 15mm
G92 E0 ;zero the extruded length
G1 F200 E3 ;extrude 3mm of feed stock
G92 E0 ;zero the extruded length again
G1 F60
M117 Printing...
G5
G92 E0
G92 E0
G1 F1500 E-6.5
;LAYER_COUNT:153
;LAYER:0
M107
M204 S300
M205 X8.18 Y8.18
G0 F1800 X27.889 Y109.776 Z0.3
M205 X3 Y3
;TYPE:SKIRT
G1 F1500 E0
G1 F1200 X28.658 Y109.597 E0.03939
G1 X29.442 Y109.497 E0.07882
G1 X30.037 Y109.474 E0.10853
G1 X179.803 Y109.474 E7.58038
G1 X180.592 Y109.514 E7.6198
G1 X181.372 Y109.633 E7.65916
G1 X182.137 Y109.831 E7.69859
G1 X182.877 Y110.105 E7.73796
G1 X183.586 Y110.453 E7.77736
G1 X184.257 Y110.871 E7.8168
G1 X184.881 Y111.354 E7.85617
G1 X185.318 Y111.759 E7.88589
G1 X185.435 Y111.876 E7.89415
G1 X185.965 Y112.462 E7.93357
G1 X186.432 Y113.098 E7.97293
G1 X186.833 Y113.778 E8.01232
G1 X187.163 Y114.496 E8.05174
G1 X187.418 Y115.243 E8.09112
G1 X187.597 Y116.012 E8.13051
G1 X187.697 Y116.796 E8.16994
G1 X187.72 Y117.391 E8.19965
G1 X187.72 Y139.157 E9.28556
G1 X187.68 Y139.946 E9.32497
G1 X187.561 Y140.726 E9.36434
G1 X187.363 Y141.491 E9.40376
G1 X187.089 Y142.231 E9.44313
G1 X186.741 Y142.94 E9.48253
G1 X186.635 Y143.111 E9.49257
G1 X186.913 Y143.583 E9.5199
G1 X187.243 Y144.301 E9.55932
G1 X187.498 Y145.048 E9.5987
G1 X187.677 Y145.817 E9.63809
G1 X187.777 Y146.601 E9.67752
G1 X187.8 Y147.196 E9.70723
G1 X187.8 Y168.962 E10.79314
G1 X187.76 Y169.751 E10.83256
G1 X187.641 Y170.531 E10.87192
G1 X187.443 Y171.296 E10.91134
G1 X187.169 Y172.036 E10.95071
G1 X186.821 Y172.745 E10.99012
G1 X186.403 Y173.416 E11.02956
G1 X185.92 Y174.04 E11.06892
G1 X185.515 Y174.477 E11.09865
G1 X185.398 Y174.594 E11.1069
G1 X184.812 Y175.124 E11.14632
G1 X184.176 Y175.591 E11.18569
G1 X183.496 Y175.992 E11.22507
G1 X182.778 Y176.322 E11.2645
G1 X182.031 Y176.577 E11.30388
G1 X181.262 Y176.756 E11.34327
G1 X180.478 Y176.856 E11.3827
G1 X179.883 Y176.879 E11.41241
G1 X30.117 Y176.879 E18.88426
G1 X29.328 Y176.839 E18.92368
G1 X28.548 Y176.72 E18.96304
G1 X27.783 Y176.522 E19.00246
G1 X27.043 Y176.248 E19.04183
G1 X26.334 Y175.9 E19.08124
G1 X25.663 Y175.482 E19.12068
G1 X25.039 Y174.999 E19.16004
G1 X24.602 Y174.594 E19.18977
G1 X24.485 Y174.477 E19.19802
G1 X23.955 Y173.891 E19.23744
G1 X23.488 Y173.255 E19.27681
G1 X23.087 Y172.575 E19.31619
G1 X22.757 Y171.857 E19.35562
G1 X22.502 Y171.11 E19.395
G1 X22.323 Y170.341 E19.43439
G1 X22.223 Y169.557 E19.47382
G1 X22.2 Y168.962 E19.50353
G1 X22.2 Y154.067 E20.24664
G1 X22.21 Y153.679 E20.266
G1 X22.244 Y152.996 E20.30012
G1 X22.321 Y152.225 E20.33878
G1 X22.423 Y151.546 E20.37303
G1 X22.572 Y150.8 E20.41099
G1 X22.739 Y150.137 E20.4451
G1 X22.957 Y149.42 E20.48249
G1 X23.184 Y148.784 E20.51618
G1 X23.479 Y148.07 E20.55472
G1 X23.778 Y147.438 E20.5896
G1 X24.143 Y146.758 E20.6281
G1 X24.495 Y146.172 E20.66221
G1 X24.918 Y145.539 E20.70019
G1 X25.096 Y145.3 E20.71506
G1 X24.959 Y145.194 E20.7237
G1 X24.522 Y144.789 E20.75343
G1 X24.405 Y144.672 E20.76168
G1 X23.875 Y144.086 E20.8011
G1 X23.408 Y143.45 E20.84047
G1 X23.007 Y142.77 E20.87985
G1 X22.677 Y142.052 E20.91927
G1 X22.422 Y141.305 E20.95865
G1 X22.243 Y140.536 E20.99804
G1 X22.143 Y139.752 E21.03748
G1 X22.12 Y139.157 E21.06718
G1 X22.12 Y117.391 E22.15309
G1 X22.16 Y116.602 E22.19251
G1 X22.279 Y115.822 E22.23187
G1 X22.477 Y115.057 E22.27129
G1 X22.751 Y114.317 E22.31066
G1 X23.099 Y113.608 E22.35007
G1 X23.517 Y112.937 E22.38951
G1 X24 Y112.313 E22.42887
G1 X24.405 Y111.876 E22.4586
G1 X24.522 Y111.759 E22.46685
G1 X25.108 Y111.229 E22.50627
G1 X25.744 Y110.762 E22.54564
G1 X26.424 Y110.361 E22.58502
G1 X27.142 Y110.031 E22.62445
G1 X27.889 Y109.776 E22.66383
M205 X8.18 Y8.18
G0 F1800 X28.096 Y110.133
M205 X3 Y3
G1 F1200 X28.847 Y109.97 E22.70217
G1 X29.612 Y109.886 E22.74056
G1 X30.037 Y109.874 E22.76177
G1 X179.803 Y109.874 E30.23363
G1 X180.571 Y109.914 E30.272
G1 X181.331 Y110.033 E30.31038
G1 X182.074 Y110.231 E30.34874
G1 X182.793 Y110.505 E30.38713
G1 X183.479 Y110.852 E30.42548
G1 X184.126 Y111.268 E30.46386
G1 X184.726 Y111.749 E30.50222
G1 X185.153 Y112.158 E30.53172
G1 X185.667 Y112.73 E30.57009
G1 X186.12 Y113.352 E30.60848
G1 X186.506 Y114.017 E30.64684
G1 X186.821 Y114.719 E30.68522
G1 X187.061 Y115.45 E30.72361
G1 X187.224 Y116.201 E30.76195
G1 X187.308 Y116.966 E30.80034
G1 X187.32 Y117.391 E30.82156
G1 X187.32 Y139.157 E31.90747
G1 X187.28 Y139.925 E31.94583
G1 X187.161 Y140.685 E31.98421
G1 X186.963 Y141.428 E32.02257
G1 X186.689 Y142.147 E32.06096
G1 X186.342 Y142.833 E32.09932
G1 X186.165 Y143.109 E32.11567
G1 X186.2 Y143.157 E32.11864
G1 X186.586 Y143.822 E32.157
G1 X186.901 Y144.524 E32.19539
G1 X187.141 Y145.255 E32.23377
G1 X187.304 Y146.006 E32.27211
G1 X187.388 Y146.771 E32.31051
G1 X187.4 Y147.196 E32.33172
G1 X187.4 Y168.962 E33.41763
G1 X187.36 Y169.73 E33.456
G1 X187.241 Y170.49 E33.49437
G1 X187.043 Y171.233 E33.53274
G1 X186.769 Y171.952 E33.57112
G1 X186.422 Y172.638 E33.60948
G1 X186.006 Y173.285 E33.64785
G1 X185.525 Y173.885 E33.68622
G1 X185.116 Y174.312 E33.71572
G1 X184.544 Y174.826 E33.75408
G1 X183.922 Y175.279 E33.79247
G1 X183.257 Y175.665 E33.83083
G1 X182.555 Y175.98 E33.86922
G1 X181.824 Y176.22 E33.90761
G1 X181.073 Y176.383 E33.94595
G1 X180.308 Y176.467 E33.98434
G1 X179.883 Y176.479 E34.00555
G1 X30.117 Y176.479 E41.47741
G1 X29.349 Y176.439 E41.51578
G1 X28.589 Y176.32 E41.55416
G1 X27.846 Y176.122 E41.59252
G1 X27.127 Y175.848 E41.63091
G1 X26.441 Y175.501 E41.66926
G1 X25.794 Y175.085 E41.70763
G1 X25.194 Y174.604 E41.746
G1 X24.767 Y174.195 E41.7755
G1 X24.253 Y173.623 E41.81387
G1 X23.8 Y173.001 E41.85225
G1 X23.414 Y172.336 E41.89062
G1 X23.099 Y171.634 E41.929
G1 X22.859 Y170.903 E41.96739
G1 X22.696 Y170.152 E42.00573
G1 X22.612 Y169.387 E42.04412
G1 X22.6 Y168.962 E42.06534
G1 X22.6 Y154.067 E42.80845
G1 X22.609 Y153.699 E42.82681
G1 X22.643 Y153.016 E42.86093
G1 X22.716 Y152.285 E42.89758
G1 X22.818 Y151.606 E42.93184
G1 X22.96 Y150.898 E42.96786
G1 X23.127 Y150.235 E43.00197
G1 X23.334 Y149.554 E43.03749
G1 X23.561 Y148.918 E43.07118
G1 X23.841 Y148.241 E43.10773
G1 X24.14 Y147.609 E43.14261
G1 X24.485 Y146.964 E43.1791
G1 X24.837 Y146.378 E43.21321
G1 X25.239 Y145.777 E43.24928
G1 X25.648 Y145.227 E43.28347
G1 X25.114 Y144.799 E43.31762
G1 X24.687 Y144.39 E43.34712
G1 X24.173 Y143.818 E43.38548
G1 X23.72 Y143.196 E43.42387
G1 X23.334 Y142.531 E43.46223
G1 X23.019 Y141.829 E43.50062
G1 X22.779 Y141.098 E43.539
G1 X22.616 Y140.347 E43.57734
G1 X22.532 Y139.582 E43.61574
G1 X22.52 Y139.157 E43.63695
G1 X22.52 Y117.391 E44.72286
G1 X22.56 Y116.623 E44.76123
G1 X22.679 Y115.863 E44.79961
G1 X22.877 Y115.12 E44.83797
G1 X23.151 Y114.401 E44.87636
G1 X23.498 Y113.715 E44.91471
G1 X23.914 Y113.068 E44.95309
G1 X24.395 Y112.468 E44.99145
G1 X24.804 Y112.041 E45.02095
G1 X25.376 Y111.527 E45.05932
G1 X25.998 Y111.074 E45.09771
G1 X26.663 Y110.688 E45.13607
G1 X27.365 Y110.373 E45.17445
G1 X28.096 Y110.133 E45.21284
M205 X8.18 Y8.18
G0 F1800 X28.3 Y110.493
M205 X3 Y3
G1 F1200 X29.033 Y110.346 E45.25014
G1 X30.037 Y110.274 E45.30036
G1 X179.803 Y110.274 E52.77221
G1 X180.55 Y110.314 E52.80953
G1 X181.288 Y110.433 E52.84683
G1 X182.01 Y110.631 E52.88418
G1 X182.706 Y110.904 E52.92148
G1 X183.369 Y111.251 E52.95881
G1 X183.992 Y111.666 E52.99616
G1 X184.753 Y112.324 E53.04635
G1 X184.87 Y112.441 E53.0546
G1 X185.37 Y112.998 E53.09195
G1 X185.807 Y113.604 E53.12922
G1 X186.178 Y114.254 E53.16656
G1 X186.477 Y114.94 E53.20389
G1 X186.701 Y115.654 E53.24123
G1 X186.848 Y116.387 E53.27852
G1 X186.92 Y117.391 E53.32874
G1 X186.92 Y139.157 E54.41465
G1 X186.88 Y139.904 E54.45197
G1 X186.761 Y140.642 E54.48927
G1 X186.563 Y141.364 E54.52662
G1 X186.29 Y142.06 E54.56392
G1 X185.943 Y142.723 E54.60125
G1 X185.679 Y143.12 E54.62504
G1 X185.887 Y143.409 E54.6428
G1 X186.258 Y144.059 E54.68014
G1 X186.557 Y144.745 E54.71748
G1 X186.781 Y145.459 E54.75481
G1 X186.928 Y146.192 E54.79211
G1 X187 Y147.196 E54.84233
G1 X187 Y168.962 E55.92824
G1 X186.96 Y169.709 E55.96556
G1 X186.841 Y170.447 E56.00285
G1 X186.643 Y171.169 E56.0402
G1 X186.37 Y171.865 E56.0775
G1 X186.023 Y172.528 E56.11484
G1 X185.608 Y173.151 E56.15218
G1 X184.95 Y173.912 E56.20237
G1 X184.833 Y174.029 E56.21063
G1 X184.276 Y174.529 E56.24797
G1 X183.67 Y174.966 E56.28525
G1 X183.02 Y175.337 E56.32258
G1 X182.334 Y175.636 E56.35992
G1 X181.62 Y175.86 E56.39725
G1 X180.887 Y176.007 E56.43455
G1 X179.883 Y176.079 E56.48477
G1 X30.117 Y176.079 E63.95662
G1 X29.37 Y176.039 E63.99395
G1 X28.632 Y175.92 E64.03124
G1 X27.91 Y175.722 E64.06859
G1 X27.214 Y175.449 E64.10589
G1 X26.551 Y175.102 E64.14322
G1 X25.928 Y174.687 E64.18057
G1 X25.167 Y174.029 E64.23076
G1 X25.05 Y173.912 E64.23902
G1 X24.55 Y173.355 E64.27636
G1 X24.113 Y172.749 E64.31363
G1 X23.742 Y172.099 E64.35097
G1 X23.443 Y171.413 E64.38831
G1 X23.219 Y170.699 E64.42564
G1 X23.072 Y169.966 E64.46294
G1 X23 Y168.962 E64.51316
G1 X23 Y154.067 E65.25627
G1 X23.009 Y153.719 E65.27364
G1 X23.043 Y153.036 E65.30776
G1 X23.112 Y152.344 E65.34245
G1 X23.214 Y151.665 E65.37671
G1 X23.348 Y150.995 E65.41079
G1 X23.515 Y150.332 E65.4449
G1 X23.71 Y149.689 E65.47843
G1 X23.937 Y149.053 E65.51212
G1 X24.202 Y148.412 E65.54672
G1 X24.501 Y147.78 E65.5816
G1 X24.828 Y147.17 E65.61613
G1 X25.18 Y146.584 E65.65024
G1 X25.56 Y146.016 E65.68433
G1 X25.972 Y145.461 E65.71882
G1 X26.236 Y145.14 E65.73955
G1 X25.848 Y144.882 E65.7628
G1 X25.087 Y144.224 E65.81299
G1 X24.97 Y144.107 E65.82124
G1 X24.47 Y143.55 E65.85859
G1 X24.033 Y142.944 E65.89586
G1 X23.662 Y142.294 E65.9332
G1 X23.363 Y141.608 E65.97053
G1 X23.139 Y140.894 E66.00787
G1 X22.992 Y140.161 E66.04517
G1 X22.92 Y139.157 E66.09538
G1 X22.92 Y117.391 E67.18129
G1 X22.96 Y116.644 E67.21862
G1 X23.079 Y115.906 E67.25591
G1 X23.277 Y115.184 E67.29326
G1 X23.55 Y114.488 E67.33056
G1 X23.897 Y113.825 E67.36789
G1 X24.312 Y113.202 E67.40524
G1 X24.97 Y112.441 E67.45543
G1 X25.087 Y112.324 E67.46369
G1 X25.644 Y111.824 E67.50103
G1 X26.25 Y111.387 E67.5383
G1 X26.9 Y111.016 E67.57564
G1 X27.586 Y110.717 E67.61298
G1 X28.3 Y110.493 E67.65031
M205 X8.18 Y8.18
G0 F1800 X28.501 Y110.855
M205 X3 Y3
G1 F1200 X29.216 Y110.725 E67.68657
G1 X30.037 Y110.674 E67.72761
G1 X179.803 Y110.674 E75.19946
G1 X180.528 Y110.714 E75.23569
G1 X181.245 Y110.833 E75.27195
G1 X181.944 Y111.031 E75.30819
G1 X182.617 Y111.304 E75.34443
G1 X183.256 Y111.649 E75.38066
G1 X183.853 Y112.063 E75.4169
G1 X184.47 Y112.607 E75.45794
G1 X184.587 Y112.724 E75.46619
G1 X185.071 Y113.265 E75.50241
G1 X185.494 Y113.856 E75.53867
G1 X185.848 Y114.49 E75.5749
G1 X186.131 Y115.159 E75.61114
G1 X186.339 Y115.855 E75.64738
G1 X186.469 Y116.57 E75.68363
G1 X186.52 Y117.391 E75.72467
G1 X186.52 Y139.157 E76.81058
G1 X186.48 Y139.882 E76.84681
G1 X186.361 Y140.599 E76.88307
G1 X186.163 Y141.298 E76.91931
G1 X185.89 Y141.971 E76.95555
G1 X185.545 Y142.61 E76.99178
G1 X185.189 Y143.123 E77.02293
G1 X185.574 Y143.661 E77.05593
G1 X185.928 Y144.295 E77.09216
G1 X186.211 Y144.964 E77.1284
G1 X186.419 Y145.66 E77.16464
G1 X186.549 Y146.375 E77.2009
G1 X186.6 Y147.196 E77.24194
G1 X186.6 Y168.962 E78.32785
G1 X186.56 Y169.687 E78.36407
G1 X186.441 Y170.404 E78.40033
G1 X186.243 Y171.103 E78.43658
G1 X185.97 Y171.776 E78.47281
G1 X185.625 Y172.415 E78.50904
G1 X185.211 Y173.012 E78.54529
G1 X184.667 Y173.629 E78.58633
G1 X184.55 Y173.746 E78.59458
G1 X184.009 Y174.23 E78.6308
G1 X183.418 Y174.653 E78.66706
G1 X182.784 Y175.007 E78.70328
G1 X182.115 Y175.29 E78.73952
G1 X181.419 Y175.498 E78.77576
G1 X180.704 Y175.628 E78.81202
G1 X179.883 Y175.679 E78.85306
G1 X30.117 Y175.679 E86.32492
G1 X29.392 Y175.639 E86.36114
G1 X28.675 Y175.52 E86.3974
G1 X27.976 Y175.322 E86.43365
G1 X27.303 Y175.049 E86.46988
G1 X26.664 Y174.704 E86.50611
G1 X26.067 Y174.29 E86.54235
G1 X25.45 Y173.746 E86.58339
G1 X25.333 Y173.629 E86.59165
G1 X24.849 Y173.088 E86.62786
G1 X24.426 Y172.497 E86.66412
G1 X24.072 Y171.863 E86.70035
G1 X23.789 Y171.194 E86.73659
G1 X23.581 Y170.498 E86.77283
G1 X23.451 Y169.783 E86.80909
G1 X23.4 Y168.962 E86.85013
G1 X23.4 Y154.067 E87.59324
G1 X23.408 Y153.739 E87.60961
G1 X23.442 Y153.056 E87.64373
G1 X23.507 Y152.404 E87.67642
G1 X23.609 Y151.725 E87.71067
G1 X23.736 Y151.093 E87.74283
G1 X23.903 Y150.43 E87.77694
G1 X24.087 Y149.823 E87.80859
G1 X24.314 Y149.187 E87.84228
G1 X24.564 Y148.583 E87.87489
G1 X24.863 Y147.951 E87.90977
G1 X25.171 Y147.375 E87.94236
G1 X25.523 Y146.789 E87.97646
G1 X25.882 Y146.254 E88.00861
G1 X26.294 Y145.699 E88.04309
G1 X26.705 Y145.198 E88.07542
G1 X26.847 Y145.041 E88.08598
G1 X26.584 Y144.899 E88.10089
G1 X25.987 Y144.485 E88.13714
G1 X25.37 Y143.941 E88.17818
G1 X25.253 Y143.824 E88.18643
G1 X24.769 Y143.283 E88.22265
G1 X24.346 Y142.692 E88.25891
G1 X23.992 Y142.058 E88.29513
G1 X23.709 Y141.389 E88.33137
G1 X23.501 Y140.693 E88.36762
G1 X23.371 Y139.978 E88.40387
G1 X23.32 Y139.157 E88.44491
G1 X23.32 Y117.391 E89.53082
G1 X23.36 Y116.666 E89.56705
G1 X23.479 Y115.949 E89.60331
G1 X23.677 Y115.25 E89.63955
G1 X23.95 Y114.577 E89.67579
G1 X24.295 Y113.938 E89.71202
G1 X24.709 Y113.341 E89.74826
G1 X25.253 Y112.724 E89.7893
G1 X25.37 Y112.607 E89.79755
G1 X25.911 Y112.123 E89.83377
G1 X26.502 Y111.7 E89.87003
G1 X27.136 Y111.346 E89.90626
G1 X27.805 Y111.063 E89.9425
G1 X28.501 Y110.855 E89.97874
M205 X8.18 Y8.18
G0 F1800 X28.022 Y111.41
M205 X3 Y3
G1 F1200 X28.7 Y111.22 E90.01387
G1 X29.395 Y111.107 E90.04899
G1 X30.037 Y111.074 E90.08107
G1 X179.803 Y111.074 E97.55292
G1 X180.506 Y111.114 E97.58805
G1 X181.2 Y111.233 E97.62318
G1 X181.875 Y111.431 E97.65828
G1 X182.524 Y111.703 E97.69338
G1 X183.138 Y112.048 E97.72852
G1 X183.709 Y112.459 E97.76362
G1 X184.187 Y112.89 E97.79573
G1 X184.304 Y113.007 E97.80398
G1 X184.773 Y113.532 E97.83911
G1 X185.179 Y114.107 E97.87422
G1 X185.517 Y114.725 E97.90937
G1 X185.784 Y115.376 E97.94447
G1 X185.974 Y116.054 E97.9796
G1 X186.087 Y116.749 E98.01473
G1 X186.12 Y117.391 E98.0468
G1 X186.12 Y139.157 E99.13271
G1 X186.08 Y139.86 E99.16784
G1 X185.961 Y140.554 E99.20297
G1 X185.763 Y141.229 E99.23806
G1 X185.491 Y141.878 E99.27317
G1 X185.146 Y142.492 E99.30831
G1 X184.735 Y143.063 E99.34341
G1 X184.671 Y143.134 E99.34818
G1 X184.853 Y143.337 E99.36178
G1 X185.259 Y143.912 E99.3969
G1 X185.597 Y144.53 E99.43204
G1 X185.864 Y145.181 E99.46714
G1 X186.054 Y145.859 E99.50227
G1 X186.167 Y146.554 E99.5374
G1 X186.2 Y147.196 E99.56947
G1 X186.2 Y168.962 E100.65538
G1 X186.16 Y169.665 E100.69051
G1 X186.041 Y170.359 E100.72564
G1 X185.843 Y171.034 E100.76073
G1 X185.571 Y171.683 E100.79584
G1 X185.226 Y172.297 E100.83098
G1 X184.815 Y172.868 E100.86608
G1 X184.384 Y173.346 E100.89819
G1 X184.267 Y173.463 E100.90644
G1 X183.742 Y173.932 E100.94157
G1 X183.167 Y174.338 E100.97668
G1 X182.549 Y174.676 E101.01183
G1 X181.898 Y174.943 E101.04693
G1 X181.22 Y175.133 E101.08206
G1 X180.525 Y175.246 E101.11719
G1 X179.883 Y175.279 E101.14926
G1 X30.117 Y175.279 E108.62111
G1 X29.414 Y175.239 E108.65624
G1 X28.72 Y175.12 E108.69137
G1 X28.045 Y174.922 E108.72647
G1 X27.396 Y174.65 E108.76158
G1 X26.782 Y174.305 E108.79671
