;FLAVOR:Marlin
;TIME:11829
;Filament used: 9.76419m
;Layer height: 0.2
;MINX:22.2
;MINY:86.445
;MINZ:0.3
;MAXX:187.8
;MAXY:124.045
;MAXZ:30.7
;Generated with Cura_SteamEngine 4.13.0
M140 S70
M105
M190 S70
M104 S212
M105
M109 S212
M82 ;absolute extrusion mode
G21 ;metric values
G90 ;absolute positioning
M82 ;set extruder to absolute mode
M107 ;start with the fan off
G28 X0 Y0 ;move X/Y to min endstops
G28 Z0 ;move Z to min endstops
G1 Z15.0 F60 ;move the platform down 15mm
G92 E0 ;zero the extruded length
G1 F200 E3 ;extrude 3mm of feed stock
G92 E0 ;zero the extruded length again
G1 F60
M117 Printing...
G5
G92 E0
G92 E0
G1 F1500 E-6.5
;LAYER_COUNT:153
;LAYER:0
M107
M204 S300
M205 X8.18 Y8.18
G0 F1800 X27.969 Y86.747 Z0.3
M205 X3 Y3
;TYPE:SKIRT
G1 F1500 E0
G1 F1200 X28.738 Y86.568 E0.03939
G1 X29.522 Y86.468 E0.07882
G1 X30.117 Y86.445 E0.10853
G1 X179.883 Y86.445 E7.58038
G1 X180.672 Y86.485 E7.6198
G1 X181.452 Y86.604 E7.65916
G1 X182.217 Y86.802 E7.69859
G1 X182.957 Y87.076 E7.73796
G1 X183.666 Y87.424 E7.77736
G1 X184.337 Y87.842 E7.8168
G1 X184.961 Y88.325 E7.85617
G1 X185.398 Y88.73 E7.88589
G1 X185.515 Y88.847 E7.89415
G1 X186.045 Y89.433 E7.93357
G1 X186.512 Y90.069 E7.97293
G1 X186.913 Y90.749 E8.01232
G1 X187.243 Y91.467 E8.05174
G1 X187.498 Y92.214 E8.09112
G1 X187.677 Y92.983 E8.13051
G1 X187.777 Y93.767 E8.16994
G1 X187.8 Y94.362 E8.19965
G1 X187.8 Y116.128 E9.28556
G1 X187.76 Y116.917 E9.32497
G1 X187.641 Y117.697 E9.36434
G1 X187.443 Y118.462 E9.40376
G1 X187.169 Y119.202 E9.44313
G1 X186.821 Y119.911 E9.48253
G1 X186.403 Y120.582 E9.52197
G1 X185.92 Y121.206 E9.56134
G1 X185.515 Y121.643 E9.59107
G1 X185.398 Y121.76 E9.59932
G1 X184.812 Y122.29 E9.63874
G1 X184.176 Y122.757 E9.67811
G1 X183.496 Y123.158 E9.71749
G1 X182.778 Y123.488 E9.75691
G1 X182.031 Y123.743 E9.79629
G1 X181.262 Y123.922 E9.83569
G1 X180.478 Y124.022 E9.87512
G1 X179.883 Y124.045 E9.90482
G1 X36.98 Y124.045 E17.03428
G1 X36.561 Y124.034 E17.05519
G1 X35.874 Y123.997 E17.08952
G1 X35.132 Y123.921 E17.12673
G1 X34.448 Y123.818 E17.16124
G1 X33.69 Y123.665 E17.19982
G1 X33.032 Y123.498 E17.23369
G1 X32.306 Y123.276 E17.27156
G1 X31.654 Y123.041 E17.30614
G1 X30.938 Y122.742 E17.34485
G1 X30.316 Y122.445 E17.37924
G1 X29.637 Y122.078 E17.41775
G1 X29.064 Y121.731 E17.45117
G1 X28.459 Y121.325 E17.48752
G1 X27.906 Y120.915 E17.52186
G1 X27.303 Y120.42 E17.56078
G1 X26.795 Y119.958 E17.59504
G1 X26.258 Y119.42 E17.63297
G1 X25.803 Y118.917 E17.6668
G1 X25.315 Y118.319 E17.70531
G1 X24.899 Y117.756 E17.74024
G1 X24.477 Y117.124 E17.77815
G1 X24.129 Y116.542 E17.81198
G1 X23.771 Y115.869 E17.85001
G1 X23.474 Y115.24 E17.88471
G1 X23.179 Y114.526 E17.92326
G1 X22.949 Y113.88 E17.95747
G1 X22.727 Y113.142 E17.99592
G1 X22.562 Y112.477 E18.0301
G1 X22.414 Y111.724 E18.06839
G1 X22.315 Y111.045 E18.10262
G1 X22.243 Y110.305 E18.13971
G1 X22.21 Y109.637 E18.17308
G1 X22.2 Y109.252 E18.19229
G1 X22.2 Y94.362 E18.93516
G1 X22.24 Y93.573 E18.97457
G1 X22.359 Y92.793 E19.01394
G1 X22.557 Y92.028 E19.05336
G1 X22.831 Y91.288 E19.09273
G1 X23.179 Y90.579 E19.13213
G1 X23.597 Y89.908 E19.17157
G1 X24.08 Y89.284 E19.21094
G1 X24.485 Y88.847 E19.24067
G1 X24.602 Y88.73 E19.24892
G1 X25.188 Y88.2 E19.28834
G1 X25.824 Y87.733 E19.32771
G1 X26.504 Y87.332 E19.36709
G1 X27.222 Y87.002 E19.40651
G1 X27.969 Y86.747 E19.44589
M205 X8.18 Y8.18
G0 F1800 X28.176 Y87.104
M205 X3 Y3
G1 F1200 X28.927 Y86.941 E19.48423
G1 X29.692 Y86.857 E19.52263
G1 X30.117 Y86.845 E19.54384
G1 X179.883 Y86.845 E27.0157
G1 X180.651 Y86.885 E27.05406
G1 X181.411 Y87.004 E27.09244
G1 X182.154 Y87.202 E27.13081
G1 X182.873 Y87.476 E27.16919
G1 X183.559 Y87.823 E27.20755
G1 X184.206 Y88.239 E27.24592
G1 X184.806 Y88.72 E27.28429
G1 X185.233 Y89.129 E27.31379
G1 X185.747 Y89.701 E27.35215
G1 X186.2 Y90.323 E27.39054
G1 X186.586 Y90.988 E27.4289
G1 X186.901 Y91.69 E27.46729
G1 X187.141 Y92.421 E27.50568
G1 X187.304 Y93.172 E27.54402
G1 X187.388 Y93.937 E27.58241
G1 X187.4 Y94.362 E27.60362
G1 X187.4 Y116.128 E28.68953
G1 X187.36 Y116.896 E28.7279
G1 X187.241 Y117.656 E28.76628
G1 X187.043 Y118.399 E28.80464
G1 X186.769 Y119.118 E28.84303
G1 X186.422 Y119.804 E28.88138
G1 X186.006 Y120.451 E28.91976
G1 X185.525 Y121.051 E28.95812
G1 X185.116 Y121.478 E28.98762
G1 X184.544 Y121.992 E29.02599
G1 X183.922 Y122.445 E29.06438
G1 X183.257 Y122.831 E29.10274
G1 X182.555 Y123.146 E29.14113
G1 X181.824 Y123.386 E29.17951
G1 X181.073 Y123.549 E29.21785
G1 X180.308 Y123.633 E29.25625
G1 X179.883 Y123.645 E29.27746
G1 X36.98 Y123.645 E36.40692
G1 X36.582 Y123.634 E36.42678
G1 X35.895 Y123.597 E36.46111
G1 X35.191 Y123.526 E36.49641
G1 X34.507 Y123.423 E36.53092
G1 X33.789 Y123.278 E36.56746
G1 X33.131 Y123.111 E36.60133
G1 X32.442 Y122.9 E36.63728
G1 X31.79 Y122.665 E36.67186
G1 X31.11 Y122.381 E36.70862
G1 X30.488 Y122.084 E36.74301
G1 X29.844 Y121.736 E36.77953
G1 X29.271 Y121.389 E36.81295
G1 X28.697 Y121.003 E36.84746
G1 X28.144 Y120.593 E36.8818
G1 X27.572 Y120.124 E36.91871
G1 X27.064 Y119.662 E36.95297
G1 X26.555 Y119.151 E36.98895
G1 X26.1 Y118.648 E37.02279
G1 X25.636 Y118.082 E37.0593
G1 X25.22 Y117.519 E37.09423
G1 X24.821 Y116.919 E37.13017
G1 X24.473 Y116.337 E37.164
G1 X24.132 Y115.699 E37.2001
G1 X23.835 Y115.07 E37.2348
G1 X23.556 Y114.392 E37.27138
G1 X23.326 Y113.746 E37.30559
G1 X23.115 Y113.046 E37.34206
G1 X22.95 Y112.381 E37.37625
G1 X22.809 Y111.667 E37.41256
G1 X22.71 Y110.988 E37.44679
G1 X22.642 Y110.285 E37.48203
G1 X22.609 Y109.617 E37.51539
G1 X22.6 Y109.252 E37.53361
G1 X22.6 Y94.362 E38.27647
G1 X22.64 Y93.594 E38.31484
G1 X22.759 Y92.834 E38.35322
G1 X22.957 Y92.091 E38.39158
G1 X23.231 Y91.372 E38.42997
G1 X23.578 Y90.686 E38.46832
G1 X23.994 Y90.039 E38.5067
G1 X24.475 Y89.439 E38.54506
G1 X24.884 Y89.012 E38.57456
G1 X25.456 Y88.498 E38.61293
G1 X26.078 Y88.045 E38.65132
G1 X26.743 Y87.659 E38.68968
G1 X27.445 Y87.344 E38.72807
G1 X28.176 Y87.104 E38.76645
M205 X8.18 Y8.18
G0 F1800 X28.38 Y87.464
M205 X3 Y3
G1 F1200 X29.113 Y87.317 E38.80375
G1 X30.117 Y87.245 E38.85397
G1 X179.883 Y87.245 E46.32582
G1 X180.63 Y87.285 E46.36315
G1 X181.368 Y87.404 E46.40044
G1 X182.09 Y87.602 E46.43779
G1 X182.786 Y87.875 E46.47509
G1 X183.449 Y88.222 E46.51242
G1 X184.072 Y88.637 E46.54977
G1 X184.833 Y89.295 E46.59996
G1 X184.95 Y89.412 E46.60822
G1 X185.45 Y89.969 E46.64556
G1 X185.887 Y90.575 E46.68283
G1 X186.258 Y91.225 E46.72017
G1 X186.557 Y91.911 E46.75751
G1 X186.781 Y92.625 E46.79484
G1 X186.928 Y93.358 E46.83214
G1 X187 Y94.362 E46.88236
G1 X187 Y116.128 E47.96827
G1 X186.96 Y116.875 E48.00559
G1 X186.841 Y117.613 E48.04288
G1 X186.643 Y118.335 E48.08023
G1 X186.37 Y119.031 E48.11753
G1 X186.023 Y119.694 E48.15487
G1 X185.608 Y120.317 E48.19221
G1 X184.95 Y121.078 E48.2424
G1 X184.833 Y121.195 E48.25066
G1 X184.276 Y121.695 E48.288
G1 X183.67 Y122.132 E48.32527
G1 X183.02 Y122.503 E48.36261
G1 X182.334 Y122.802 E48.39995
G1 X181.62 Y123.026 E48.43728
G1 X180.887 Y123.173 E48.47458
G1 X179.883 Y123.245 E48.5248
G1 X36.98 Y123.245 E55.65426
G1 X36.604 Y123.235 E55.67302
G1 X35.917 Y123.198 E55.70735
G1 X35.251 Y123.13 E55.74075
G1 X34.567 Y123.027 E55.77526
G1 X33.887 Y122.89 E55.80986
G1 X33.229 Y122.723 E55.84373
G1 X32.577 Y122.523 E55.87776
G1 X31.925 Y122.288 E55.91233
G1 X31.283 Y122.02 E55.94704
G1 X30.661 Y121.723 E55.98143
G1 X30.051 Y121.394 E56.01601
G1 X29.478 Y121.047 E56.04943
G1 X28.935 Y120.682 E56.08207
G1 X28.382 Y120.272 E56.11641
G1 X27.841 Y119.828 E56.15133
G1 X27.333 Y119.366 E56.18559
G1 X26.852 Y118.883 E56.2196
G1 X26.397 Y118.38 E56.25343
G1 X25.958 Y117.844 E56.288
G1 X25.542 Y117.281 E56.32292
G1 X25.164 Y116.713 E56.35696
G1 X24.816 Y116.131 E56.39079
G1 X24.494 Y115.528 E56.4249
G1 X24.197 Y114.899 E56.4596
G1 X23.933 Y114.258 E56.49419
G1 X23.703 Y113.612 E56.5284
G1 X23.503 Y112.95 E56.5629
G1 X23.338 Y112.285 E56.59708
G1 X23.205 Y111.609 E56.63145
G1 X23.106 Y110.93 E56.66569
G1 X23.042 Y110.265 E56.69902
G1 X23.009 Y109.597 E56.73239
G1 X23 Y109.252 E56.7496
G1 X23 Y94.362 E57.49247
G1 X23.04 Y93.615 E57.52979
G1 X23.159 Y92.877 E57.56708
G1 X23.357 Y92.155 E57.60444
G1 X23.63 Y91.459 E57.64173
G1 X23.977 Y90.796 E57.67907
G1 X24.392 Y90.173 E57.71641
G1 X25.05 Y89.412 E57.76661
G1 X25.167 Y89.295 E57.77486
G1 X25.724 Y88.795 E57.8122
G1 X26.33 Y88.358 E57.84948
G1 X26.98 Y87.987 E57.88682
G1 X27.666 Y87.688 E57.92415
G1 X28.38 Y87.464 E57.96148
M205 X8.18 Y8.18
G0 F1800 X28.581 Y87.826
M205 X3 Y3
G1 F1200 X29.296 Y87.696 E57.99774
G1 X30.117 Y87.645 E58.03878
G1 X179.883 Y87.645 E65.51064
G1 X180.608 Y87.685 E65.54686
G1 X181.325 Y87.804 E65.58312
G1 X182.024 Y88.002 E65.61937
G1 X182.697 Y88.275 E65.6556
G1 X183.336 Y88.62 E65.69183
G1 X183.933 Y89.034 E65.72808
G1 X184.55 Y89.578 E65.76911
G1 X184.667 Y89.695 E65.77737
G1 X185.151 Y90.236 E65.81358
G1 X185.574 Y90.827 E65.84984
G1 X185.928 Y91.461 E65.88607
G1 X186.211 Y92.13 E65.92231
G1 X186.419 Y92.826 E65.95855
G1 X186.549 Y93.541 E65.99481
G1 X186.6 Y94.362 E66.03585
G1 X186.6 Y116.128 E67.12176
G1 X186.56 Y116.853 E67.15798
G1 X186.441 Y117.57 E67.19424
G1 X186.243 Y118.269 E67.23049
G1 X185.97 Y118.942 E67.26672
G1 X185.625 Y119.581 E67.30295
G1 X185.211 Y120.178 E67.3392
G1 X184.667 Y120.795 E67.38023
G1 X184.55 Y120.912 E67.38849
G1 X184.009 Y121.396 E67.42471
G1 X183.418 Y121.819 E67.46096
G1 X182.784 Y122.173 E67.49719
G1 X182.115 Y122.456 E67.53343
G1 X181.419 Y122.664 E67.56967
G1 X180.704 Y122.794 E67.60593
G1 X179.883 Y122.845 E67.64697
G1 X36.98 Y122.845 E74.77643
G1 X36.625 Y122.835 E74.79415
G1 X35.938 Y122.798 E74.82847
G1 X35.31 Y122.734 E74.85996
G1 X34.626 Y122.631 E74.89447
G1 X33.985 Y122.502 E74.92709
G1 X33.327 Y122.335 E74.96096
G1 X32.713 Y122.147 E74.993
G1 X32.061 Y121.912 E75.02757
G1 X31.455 Y121.659 E75.06034
G1 X30.833 Y121.362 E75.09473
G1 X30.258 Y121.051 E75.12734
G1 X29.685 Y120.704 E75.16076
G1 X29.173 Y120.361 E75.19151
G1 X28.62 Y119.951 E75.22585
G1 X28.11 Y119.532 E75.25878
G1 X27.602 Y119.07 E75.29304
G1 X27.148 Y118.615 E75.32511
G1 X26.693 Y118.112 E75.35894
G1 X26.28 Y117.606 E75.39153
G1 X25.864 Y117.043 E75.42645
G1 X25.507 Y116.508 E75.45854
G1 X25.159 Y115.926 E75.49237
G1 X24.856 Y115.357 E75.52453
G1 X24.559 Y114.728 E75.55924
G1 X24.309 Y114.124 E75.59185
G1 X24.079 Y113.478 E75.62606
G1 X23.891 Y112.853 E75.65862
G1 X23.726 Y112.188 E75.69281
G1 X23.601 Y111.551 E75.72519
G1 X23.502 Y110.872 E75.75943
G1 X23.441 Y110.246 E75.79081
G1 X23.408 Y109.578 E75.82417
G1 X23.4 Y109.252 E75.84044
G1 X23.4 Y94.362 E76.58331
G1 X23.44 Y93.637 E76.61953
G1 X23.559 Y92.92 E76.65579
G1 X23.757 Y92.221 E76.69204
G1 X24.03 Y91.548 E76.72827
G1 X24.375 Y90.909 E76.7645
G1 X24.789 Y90.312 E76.80075
G1 X25.333 Y89.695 E76.84178
G1 X25.45 Y89.578 E76.85004
G1 X25.991 Y89.094 E76.88626
G1 X26.582 Y88.671 E76.92251
G1 X27.216 Y88.317 E76.95874
G1 X27.885 Y88.034 E76.99498
G1 X28.581 Y87.826 E77.03122
M205 X8.18 Y8.18
G0 F1800 X28.102 Y88.381
M205 X3 Y3
G1 F1200 X28.78 Y88.191 E77.06635
G1 X29.475 Y88.078 E77.10148
G1 X30.117 Y88.045 E77.13355
G1 X179.883 Y88.045 E84.60541
G1 X180.586 Y88.085 E84.64054
G1 X181.28 Y88.204 E84.67567
G1 X181.955 Y88.402 E84.71076
G1 X182.604 Y88.674 E84.74587
G1 X183.218 Y89.019 E84.78101
G1 X183.789 Y89.43 E84.81611
G1 X184.267 Y89.861 E84.84822
G1 X184.384 Y89.978 E84.85647
G1 X184.853 Y90.503 E84.89159
G1 X185.259 Y91.078 E84.92671
G1 X185.597 Y91.696 E84.96185
G1 X185.864 Y92.347 E84.99696
G1 X186.054 Y93.025 E85.03208
G1 X186.167 Y93.72 E85.06721
G1 X186.2 Y94.362 E85.09929
G1 X186.2 Y116.128 E86.1852
G1 X186.16 Y116.831 E86.22032
G1 X186.041 Y117.525 E86.25545
G1 X185.843 Y118.2 E86.29055
G1 X185.571 Y118.849 E86.32566
G1 X185.226 Y119.463 E86.36079
G1 X184.815 Y120.034 E86.39589
G1 X184.384 Y120.512 E86.428
G1 X184.267 Y120.629 E86.43626
G1 X183.742 Y121.098 E86.47138
G1 X183.167 Y121.504 E86.5065
G1 X182.549 Y121.842 E86.54164
G1 X181.898 Y122.109 E86.57674
G1 X181.22 Y122.299 E86.61187
G1 X180.525 Y122.412 E86.647
G1 X179.883 Y122.445 E86.67907
G1 X36.98 Y122.445 E93.80853
G1 X36.647 Y122.436 E93.82515
G1 X35.96 Y122.399 E93.85948
G1 X35.37 Y122.339 E93.88906
G1 X34.686 Y122.236 E93.92357
G1 X34.084 Y122.114 E93.95422
G1 X33.426 Y121.947 E93.98809
G1 X32.849 Y121.771 E94.01818
G1 X32.197 Y121.536 E94.05276
G1 X31.627 Y121.298 E94.08358
G1 X31.005 Y121.001 E94.11796
G1 X30.465 Y120.709 E94.14859
G1 X29.892 Y120.362 E94.18201
G1 X29.411 Y120.039 E94.21092
G1 X28.858 Y119.629 E94.24526
G1 X28.38 Y119.236 E94.27613
G1 X27.872 Y118.774 E94.31039
G1 X27.445 Y118.346 E94.34055
G1 X26.99 Y117.843 E94.37439
G1 X26.602 Y117.368 E94.40499
G1 X26.186 Y116.805 E94.43992
G1 X25.851 Y116.303 E94.47003
G1 X25.503 Y115.721 E94.50386
G1 X25.218 Y115.186 E94.5341
G1 X24.921 Y114.557 E94.5688
G1 X24.686 Y113.99 E94.59942
G1 X24.456 Y113.344 E94.63363
G1 X24.279 Y112.757 E94.66422
G1 X24.114 Y112.092 E94.6984
G1 X23.997 Y111.494 E94.7288
G1 X23.898 Y110.815 E94.76304
G1 X23.841 Y110.226 E94.79256
G1 X23.808 Y109.558 E94.82593
G1 X23.8 Y109.252 E94.8412
G1 X23.8 Y94.362 E95.58407
G1 X23.84 Y93.659 E95.61919
G1 X23.959 Y92.965 E95.65432
G1 X24.157 Y92.29 E95.68942
G1 X24.429 Y91.641 E95.72453
G1 X24.774 Y91.027 E95.75966
G1 X25.185 Y90.456 E95.79476
G1 X25.616 Y89.978 E95.82687
G1 X25.733 Y89.861 E95.83513
G1 X26.258 Y89.392 E95.87025
G1 X26.833 Y88.986 E95.90537
G1 X27.451 Y88.648 E95.94051
G1 X28.102 Y88.381 E95.97561
M205 X8.18 Y8.18
G0 F1800 X28.317 Y88.731
M205 X3 Y3
G1 F1200 X28.976 Y88.558 E96.0096
G1 X29.65 Y88.464 E96.04356
G1 X30.117 Y88.445 E96.06687
G1 X179.883 Y88.445 E103.53873
G1 X180.563 Y88.485 E103.57271
G1 X181.233 Y88.604 E103.60666
G1 X181.885 Y88.801 E103.64064
G1 X182.509 Y89.073 E103.67461
G1 X183.097 Y89.417 E103.70859
G1 X183.641 Y89.827 E103.74258
G1 X184.101 Y90.261 E103.77413
G1 X184.554 Y90.77 E103.80812
G1 X184.943 Y91.328 E103.84206
G1 X185.265 Y91.928 E103.87603
G1 X185.514 Y92.562 E103.91001
G1 X185.687 Y93.221 E103.94401
G1 X185.781 Y93.895 E103.97796
G1 X185.8 Y94.362 E104.00128
G1 X185.8 Y116.128 E105.08719
G1 X185.76 Y116.808 E105.12117
G1 X185.641 Y117.478 E105.15512
G1 X185.444 Y118.13 E105.1891
G1 X185.172 Y118.754 E105.22306
G1 X184.828 Y119.342 E105.25705
G1 X184.418 Y119.886 E105.29103
G1 X183.984 Y120.346 E105.32258
G1 X183.475 Y120.799 E105.35658
G1 X182.917 Y121.188 E105.39051
G1 X182.317 Y121.51 E105.42449
G1 X181.683 Y121.759 E105.45847
G1 X181.024 Y121.932 E105.49246
G1 X180.35 Y122.026 E105.52641
G1 X179.883 Y122.045 E105.54973
G1 X36.98 Y122.045 E112.67919
G1 X36.668 Y122.037 E112.69476
G1 X35.981 Y122 E112.72909
G1 X35.429 Y121.943 E112.75677
G1 X34.745 Y121.84 E112.79128
G1 X34.182 Y121.727 E112.81993
G1 X33.524 Y121.56 E112.8538
G1 X32.984 Y121.394 E112.88198
G1 X32.332 Y121.159 E112.91656
G1 X31.8 Y120.937 E112.94532
G1 X31.178 Y120.64 E112.97971
G1 X30.673 Y120.367 E113.00835
G1 X30.1 Y120.02 E113.04177
G1 X29.65 Y119.718 E113.06881
G1 X29.097 Y119.308 E113.10315
G1 X28.649 Y118.94 E113.13207
G1 X28.141 Y118.478 E113.16633
G1 X27.742 Y118.078 E113.19452
G1 X27.287 Y117.575 E113.22836
G1 X26.923 Y117.131 E113.257
G1 X26.507 Y116.568 E113.29193
G1 X26.194 Y116.098 E113.3201
G1 X25.846 Y115.516 E113.35393
G1 X25.579 Y115.015 E113.38225
G1 X25.282 Y114.386 E113.41696
G1 X25.063 Y113.855 E113.44561
G1 X24.833 Y113.209 E113.47982
G1 X24.668 Y112.661 E113.50837
G1 X24.503 Y111.996 E113.54256
G1 X24.393 Y111.436 E113.57103
G1 X24.294 Y110.757 E113.60526
G1 X24.24 Y110.206 E113.63288
G1 X24.207 Y109.538 E113.66625
