;FLAVOR:Marlin
;TIME:1104
;Filament used: 0.761185m
;Layer height: 0.2
;MINX:92.18
;MINY:79.18
;MINZ:0.1
;MAXX:117.82
;MAXY:101.82
;MAXZ:12.3
;Generated with Cura_SteamEngine 4.13.1
M140 S53
M105
M190 S53
M104 S212
M105
M109 S212
M82 ;absolute extrusion mode
G21 ;metric values
G90 ;absolute positioning
M82 ;set extruder to absolute mode
M107 ;start with the fan off
G28 X0 Y0 ;move X/Y to min endstops
G28 Z0 ;move Z to min endstops
G1 Z15.0 F120 ;move the platform down 15mm
G92 E0 ;zero the extruded length
G1 F200 E3 ;extrude 3mm of feed stock
G92 E0 ;zero the extruded length again
G1 F120
M117 Printing...
G5
G92 E0
G92 E0
G1 F4200 E-6
;LAYER_COUNT:62
;LAYER:0
M107
G0 F6000 X93.195 Y81.062 Z0.1
;TYPE:SKIRT
G1 F4200 E0
G1 F1200 X93.605 Y80.596 E0.01342
G1 X94.072 Y80.187 E0.02684
G1 X94.587 Y79.842 E0.04024
G1 X95.143 Y79.565 E0.05367
G1 X95.729 Y79.362 E0.06708
G1 X96.337 Y79.236 E0.0805
G1 X96.874 Y79.191 E0.09215
G1 X97.33 Y79.18 E0.10201
G1 X112.362 Y79.18 E0.42699
G1 X113.06 Y79.19 E0.44208
G1 X113.679 Y79.239 E0.45551
G1 X114.286 Y79.367 E0.46892
G1 X114.872 Y79.572 E0.48234
G1 X115.427 Y79.851 E0.49577
G1 X115.941 Y80.198 E0.50918
G1 X116.406 Y80.609 E0.52259
G1 X116.815 Y81.076 E0.53601
G1 X117.16 Y81.591 E0.54941
G1 X117.437 Y82.147 E0.56284
G1 X117.639 Y82.734 E0.57627
G1 X117.764 Y83.342 E0.58968
G1 X117.809 Y83.874 E0.60123
G1 X117.82 Y84.33 E0.61109
G1 X117.82 Y96.324 E0.87039
G1 X117.811 Y97.051 E0.88611
G1 X117.763 Y97.669 E0.89951
G1 X117.636 Y98.277 E0.91293
G1 X117.433 Y98.863 E0.92634
G1 X117.155 Y99.418 E0.93976
G1 X116.809 Y99.933 E0.95317
G1 X116.399 Y100.4 E0.96661
G1 X115.933 Y100.809 E0.98001
G1 X115.418 Y101.156 E0.99344
G1 X114.862 Y101.433 E1.00687
G1 X114.276 Y101.637 E1.02028
G1 X113.669 Y101.763 E1.03369
G1 X113.126 Y101.809 E1.04547
G1 X112.67 Y101.82 E1.05533
G1 X97.645 Y101.82 E1.38016
G1 X96.947 Y101.811 E1.39525
G1 X96.328 Y101.763 E1.40867
G1 X95.721 Y101.636 E1.42208
G1 X95.134 Y101.432 E1.43551
G1 X94.579 Y101.154 E1.44893
G1 X94.065 Y100.807 E1.46234
G1 X93.599 Y100.397 E1.47576
G1 X93.189 Y99.931 E1.48918
G1 X92.843 Y99.415 E1.50261
G1 X92.566 Y98.86 E1.51602
G1 X92.363 Y98.274 E1.52942
G1 X92.237 Y97.666 E1.54285
G1 X92.191 Y97.121 E1.55467
G1 X92.18 Y96.658 E1.56468
G1 X92.18 Y84.609 E1.82517
G1 X92.189 Y83.944 E1.83955
G1 X92.238 Y83.325 E1.85298
G1 X92.365 Y82.718 E1.86638
G1 X92.57 Y82.132 E1.8798
G1 X92.848 Y81.577 E1.89322
G1 X93.195 Y81.062 E1.90665
G0 F6000 X93.708 Y81.253
G1 F1200 X94.114 Y80.83 E1.91932
G1 X94.573 Y80.466 E1.93199
G1 X95.077 Y80.167 E1.94466
G1 X95.618 Y79.94 E1.95734
G1 X96.184 Y79.789 E1.97001
G1 X96.888 Y79.711 E1.98532
G1 X97.33 Y79.7 E1.99488
G1 X112.355 Y79.7 E2.3197
G1 X113.053 Y79.71 E2.3348
G1 X113.637 Y79.759 E2.34747
G1 X114.209 Y79.886 E2.36013
G1 X114.758 Y80.09 E2.3728
G1 X115.275 Y80.367 E2.38548
G1 X115.749 Y80.711 E2.39814
G1 X116.172 Y81.117 E2.41081
G1 X116.536 Y81.577 E2.42349
G1 X116.834 Y82.082 E2.43617
G1 X117.061 Y82.622 E2.44884
G1 X117.212 Y83.189 E2.46152
G1 X117.289 Y83.889 E2.47675
G1 X117.3 Y84.33 E2.48628
G1 X117.3 Y96.317 E2.74543
G1 X117.291 Y97.044 E2.76115
G1 X117.243 Y97.628 E2.77382
G1 X117.117 Y98.201 E2.7865
G1 X116.914 Y98.751 E2.79917
G1 X116.639 Y99.268 E2.81183
G1 X116.295 Y99.743 E2.82451
G1 X115.89 Y100.167 E2.83719
G1 X115.431 Y100.532 E2.84987
G1 X114.927 Y100.831 E2.86254
G1 X114.387 Y101.058 E2.8752
G1 X113.821 Y101.21 E2.88787
G1 X113.112 Y101.289 E2.90329
G1 X112.67 Y101.3 E2.91285
G1 X97.652 Y101.3 E3.23753
G1 X96.954 Y101.291 E3.25262
G1 X96.369 Y101.243 E3.26531
G1 X95.797 Y101.117 E3.27797
G1 X95.247 Y100.913 E3.29065
G1 X94.73 Y100.637 E3.30332
G1 X94.255 Y100.294 E3.31599
G1 X93.832 Y99.888 E3.32867
G1 X93.467 Y99.429 E3.34134
G1 X93.168 Y98.925 E3.35401
G1 X92.941 Y98.385 E3.36668
G1 X92.789 Y97.818 E3.37937
G1 X92.711 Y97.107 E3.39483
G1 X92.7 Y96.658 E3.40454
G1 X92.7 Y84.616 E3.66488
G1 X92.709 Y83.951 E3.67926
G1 X92.757 Y83.367 E3.69192
G1 X92.884 Y82.794 E3.70461
G1 X93.088 Y82.245 E3.71727
G1 X93.364 Y81.728 E3.72994
G1 X93.708 Y81.253 E3.74262
G0 F6000 X93.88 Y81.888
G1 F1200 X94.22 Y81.457 E3.75449
G1 X94.62 Y81.08 E3.76638
G1 X95.07 Y80.764 E3.77826
G1 X95.561 Y80.517 E3.79015
G1 X96.082 Y80.344 E3.80201
G1 X96.624 Y80.249 E3.81391
G1 X97.224 Y80.221 E3.8269
G1 X112.347 Y80.22 E4.15384
G1 X113.045 Y80.23 E4.16893
G1 X113.593 Y80.278 E4.18083
G1 X114.127 Y80.405 E4.19269
G1 X114.638 Y80.608 E4.20458
G1 X115.114 Y80.883 E4.21646
G1 X115.545 Y81.223 E4.22833
G1 X115.922 Y81.623 E4.24021
G1 X116.237 Y82.073 E4.25209
G1 X116.484 Y82.565 E4.26399
G1 X116.656 Y83.086 E4.27585
G1 X116.752 Y83.628 E4.28775
G1 X116.779 Y84.224 E4.30065
G1 X116.78 Y96.311 E4.56196
G1 X116.771 Y97.038 E4.57768
G1 X116.724 Y97.585 E4.58955
G1 X116.598 Y98.12 E4.60143
G1 X116.396 Y98.631 E4.61331
G1 X116.123 Y99.108 E4.62519
G1 X115.783 Y99.54 E4.63708
G1 X115.384 Y99.917 E4.64894
G1 X114.934 Y100.233 E4.66083
G1 X114.443 Y100.481 E4.67272
G1 X113.922 Y100.655 E4.6846
G1 X113.381 Y100.751 E4.69648
G1 X112.776 Y100.779 E4.70957
G1 X97.658 Y100.78 E5.03641
G1 X96.96 Y100.771 E5.0515
G1 X96.413 Y100.724 E5.06337
G1 X95.878 Y100.598 E5.07525
G1 X95.367 Y100.396 E5.08713
G1 X94.89 Y100.122 E5.09902
G1 X94.459 Y99.781 E5.11091
G1 X94.081 Y99.382 E5.12279
G1 X93.766 Y98.932 E5.13466
G1 X93.518 Y98.441 E5.14656
G1 X93.345 Y97.92 E5.15842
G1 X93.249 Y97.379 E5.1703
G1 X93.221 Y96.76 E5.1837
G1 X93.22 Y84.623 E5.44609
G1 X93.229 Y83.958 E5.46047
G1 X93.277 Y83.41 E5.47236
G1 X93.403 Y82.875 E5.48424
G1 X93.605 Y82.365 E5.4961
G1 X93.88 Y81.888 E5.50801
G0 F6000 X94.395 Y82.061
G1 F1200 X94.731 Y81.677 E5.51904
G1 X95.123 Y81.35 E5.53007
G1 X95.561 Y81.088 E5.54111
G1 X96.034 Y80.898 E5.55213
G1 X96.531 Y80.784 E5.56315
G1 X97.239 Y80.741 E5.57848
G1 X112.34 Y80.74 E5.90495
G1 X113.038 Y80.75 E5.92005
G1 X113.546 Y80.798 E5.93108
G1 X114.04 Y80.923 E5.94209
G1 X114.509 Y81.125 E5.95313
G1 X114.941 Y81.397 E5.96417
G1 X115.325 Y81.734 E5.97522
G1 X115.651 Y82.126 E5.98624
G1 X115.913 Y82.564 E5.99727
G1 X116.103 Y83.037 E6.00829
G1 X116.216 Y83.535 E6.01933
G1 X116.259 Y84.238 E6.03456
G1 X116.26 Y96.304 E6.29541
G1 X116.251 Y97.031 E6.31113
G1 X116.205 Y97.54 E6.32218
G1 X116.08 Y98.034 E6.3332
G1 X115.879 Y98.503 E6.34423
G1 X115.607 Y98.936 E6.35528
G1 X115.272 Y99.32 E6.3663
G1 X114.881 Y99.648 E6.37733
G1 X114.443 Y99.91 E6.38837
G1 X113.97 Y100.101 E6.3994
G1 X113.472 Y100.215 E6.41044
G1 X112.761 Y100.259 E6.42584
G1 X97.665 Y100.26 E6.7522
G1 X96.967 Y100.251 E6.76729
G1 X96.459 Y100.204 E6.77832
G1 X95.964 Y100.079 E6.78936
G1 X95.495 Y99.878 E6.80039
G1 X95.063 Y99.606 E6.81143
G1 X94.679 Y99.271 E6.82245
G1 X94.352 Y98.879 E6.83348
G1 X94.089 Y98.441 E6.84453
G1 X93.899 Y97.968 E6.85555
G1 X93.784 Y97.471 E6.86658
G1 X93.741 Y96.746 E6.88228
G1 X93.74 Y84.63 E7.14421
G1 X93.749 Y83.965 E7.15859
G1 X93.796 Y83.457 E7.16962
G1 X93.922 Y82.962 E7.18066
G1 X94.123 Y82.493 E7.1917
G1 X94.395 Y82.061 E7.20273
G1 F4200 E1.20273
;MESH:06-Chamfer.stl
G0 F6000 X96.335 Y84.794
G0 X97.794 Y84.794
G0 X105.903 Y85.783
G0 X106.805 Y85.948
G0 X107.709 Y86.245
G0 X109.006 Y86.987
G0 X110.107 Y87.993
G1 F4200 E7.20273
G0 F6000 X110.026 Y88.05
;TYPE:WALL-INNER
G1 F1500 X109.645 Y87.596 E7.21555
G1 X109.559 Y87.501 E7.21832
G1 X109.122 Y87.114 E7.23094
G1 X108.981 Y86.998 E7.23488
G1 X108.393 Y86.616 E7.25004
G1 X108.252 Y86.545 E7.25345
G1 X107.693 Y86.281 E7.26682
G1 X107.59 Y86.239 E7.26922
G1 X106.796 Y85.986 E7.28724
G1 X105.899 Y85.822 E7.30695
G1 X104.955 Y85.769 E7.3274
G1 X104.085 Y85.825 E7.34624
G1 X103.245 Y85.978 E7.3647
G1 X103.107 Y86.018 E7.36781
G1 X102.472 Y86.217 E7.38219
G1 X102.362 Y86.26 E7.38475
G1 X101.717 Y86.56 E7.40013
G1 X101.619 Y86.61 E7.4025
G1 X101.006 Y87.007 E7.41829
G1 X100.377 Y87.567 E7.4365
G1 X99.956 Y88.079 E7.45083
G1 X99.876 Y88.2 E7.45397
G1 X99.574 Y88.725 E7.46706
G1 X99.321 Y89.395 E7.48254
G1 X99.207 Y89.947 E7.49473
G1 X99.174 Y90.598 E7.50882
G1 X99.228 Y91.188 E7.52163
G1 X99.282 Y91.4 E7.52636
G1 X99.427 Y91.93 E7.53824
G1 X99.709 Y92.536 E7.55269
G1 X100.133 Y93.158 E7.56896
G1 X100.632 Y93.685 E7.58465
G1 X101.198 Y94.128 E7.60019
G1 X101.774 Y94.473 E7.61471
G1 X102.361 Y94.731 E7.62857
G1 X102.588 Y94.828 E7.63391
G1 X103.385 Y95.056 E7.65183
G1 X104.316 Y95.2 E7.6722
G1 X105.264 Y95.226 E7.6927
G1 X106.119 Y95.147 E7.71126
G1 X106.262 Y95.119 E7.71441
G1 X106.914 Y94.979 E7.72883
G1 X107.026 Y94.949 E7.73133
G1 X107.722 Y94.707 E7.74727
G1 X107.827 Y94.665 E7.74971
G1 X108.396 Y94.375 E7.76352
G1 X108.54 Y94.298 E7.76705
G1 X109.123 Y93.889 E7.78244
G1 X109.266 Y93.767 E7.78651
G1 X109.714 Y93.334 E7.79998
G1 X110.197 Y92.696 E7.81728
G1 X110.509 Y92.091 E7.83199
G1 X110.716 Y91.458 E7.84639
G1 X110.825 Y90.735 E7.8622
G1 X110.809 Y90.043 E7.87716
G1 X110.768 Y89.872 E7.88096
G1 X110.668 Y89.356 E7.89233
G1 X110.43 Y88.737 E7.90666
G1 X110.026 Y88.05 E7.92389
G0 F6000 X109.701 Y88.522
;TYPE:WALL-OUTER
G1 F1500 X109.6 Y88.352 E7.92817
G1 X109.252 Y87.937 E7.93988
G1 X109.192 Y87.87 E7.94182
G1 X108.785 Y87.51 E7.95357
G1 X108.673 Y87.418 E7.9567
G1 X108.133 Y87.067 E7.97063
G1 X108.024 Y87.012 E7.97327
G1 X107.484 Y86.757 E7.98618
G1 X107.413 Y86.728 E7.98784
G1 X106.67 Y86.492 E8.00469
G1 X105.837 Y86.339 E8.023
G1 X104.957 Y86.29 E8.04205
G1 X104.149 Y86.342 E8.05956
G1 X103.364 Y86.485 E8.07681
G1 X103.256 Y86.516 E8.07924
G1 X102.646 Y86.707 E8.09306
G1 X102.568 Y86.738 E8.09487
G1 X101.946 Y87.027 E8.1097
G1 X101.88 Y87.061 E8.1113
G1 X101.322 Y87.422 E8.12567
G1 X100.753 Y87.929 E8.14215
G1 X100.375 Y88.388 E8.155
G1 X100.319 Y88.473 E8.1572
G1 X100.046 Y88.948 E8.16905
G1 X99.822 Y89.541 E8.18275
G1 X99.724 Y90.013 E8.19317
G1 X99.695 Y90.587 E8.2056
G1 X99.742 Y91.099 E8.21671
G1 X99.785 Y91.267 E8.22046
G1 X99.917 Y91.75 E8.23129
G1 X100.163 Y92.278 E8.24388
G1 X100.539 Y92.831 E8.25834
G1 X100.983 Y93.299 E8.27228
G1 X101.493 Y93.699 E8.2863
G1 X102.013 Y94.01 E8.2994
G1 X102.568 Y94.254 E8.3125
G1 X102.762 Y94.337 E8.31707
G1 X103.497 Y94.547 E8.33359
G1 X104.363 Y94.681 E8.35254
G1 X105.247 Y94.705 E8.37165
G1 X106.045 Y94.632 E8.38898
G1 X106.158 Y94.61 E8.39147
G1 X106.791 Y94.474 E8.40546
G1 X106.872 Y94.452 E8.40728
G1 X107.539 Y94.22 E8.42255
G1 X107.611 Y94.191 E8.42422
G1 X108.155 Y93.914 E8.43742
G1 X108.267 Y93.854 E8.44017
G1 X108.804 Y93.478 E8.45434
G1 X108.916 Y93.382 E8.45753
G1 X109.324 Y92.988 E8.46979
G1 X109.755 Y92.418 E8.48524
G1 X110.028 Y91.89 E8.49809
G1 X110.208 Y91.338 E8.51064
G1 X110.304 Y90.702 E8.52455
G1 X110.29 Y90.11 E8.53735
G1 X110.262 Y89.992 E8.53997
G1 X110.166 Y89.5 E8.55081
G1 X109.96 Y88.963 E8.56325
G1 X109.701 Y88.522 E8.5743
G0 F6000 X109.6 Y88.352
G0 X109.47 Y88.197
G0 X109.909 Y87.83
G0 X109.946 Y87.8
G0 X109.004 Y86.966
G0 X105.961 Y85.305
;TYPE:WALL-INNER
G1 F1500 X106.921 Y85.305 E8.59506
G1 X107.901 Y85.304 E8.61624
G1 X111.7 Y85.3 E8.69837
G1 X111.7 Y89.976 E8.79946
G1 X111.7 Y90.768 E8.81659
G1 X111.7 Y91.578 E8.8341
G1 X111.7 Y95.7 E8.92321
G1 X107.904 Y95.7 E9.00528
G1 X107.036 Y95.7 E9.02404
G1 X106.367 Y95.7 E9.03851
G1 X105.785 Y95.7 E9.05109
G1 X106.367 Y95.628 E9.05203
G1 X107.036 Y95.485 E9.0563
G1 X107.179 Y95.446 E9.0595
G1 X107.904 Y95.194 E9.07143
G1 X108.042 Y95.139 E9.07464
G1 X108.637 Y94.836 E9.08907
G1 X108.813 Y94.742 E9.09339
G1 X109.442 Y94.301 E9.10999
G1 X109.616 Y94.152 E9.11495
G1 X110.104 Y93.68 E9.12962
G1 X110.639 Y92.974 E9.14878
G1 X110.99 Y92.292 E9.16536
G1 X111.224 Y91.578 E9.1816
G1 X111.346 Y90.768 E9.19579
G1 X111.328 Y89.976 E9.20777
G1 X111.278 Y89.767 E9.21242
G1 X111.17 Y89.212 E9.22464
G1 X110.9 Y88.51 E9.2409
G1 X110.452 Y87.749 E9.25999
G1 X110.037 Y87.254 E9.27396
G1 X109.925 Y87.131 E9.27755
G1 X109.46 Y86.718 E9.291
G1 X109.289 Y86.578 E9.29578
G1 X108.652 Y86.164 E9.3122
G1 X108.48 Y86.078 E9.31636
G1 X107.902 Y85.805 E9.33018
G1 X107.767 Y85.75 E9.33333
G1 X106.922 Y85.48 E9.34448
G1 X105.961 Y85.305 E9.34826
G0 F6000 X98.3 Y85.3
G1 F1500 X102.299 Y85.304 E9.43471
G1 X103.126 Y85.306 E9.45259
G1 X104.021 Y85.308 E9.47194
G1 X103.126 Y85.471 E9.47526
G1 X102.957 Y85.52 E9.47906
G1 X102.299 Y85.726 E9.48771
G1 X102.157 Y85.782 E9.49101
G1 X101.489 Y86.092 E9.50693
G1 X101.359 Y86.159 E9.51009
G1 X100.69 Y86.592 E9.52732
G1 X100.001 Y87.206 E9.54727
G1 X99.537 Y87.77 E9.56306
G1 X99.433 Y87.927 E9.56713
G1 X99.102 Y88.502 E9.58147
G1 X98.82 Y89.25 E9.59876
G1 X98.69 Y89.881 E9.61268
G1 X98.653 Y90.609 E9.62844
G1 X98.714 Y91.276 E9.64292
G1 X98.779 Y91.533 E9.64865
G1 X98.937 Y92.11 E9.66159
G1 X99.255 Y92.794 E9.67789
G1 X99.727 Y93.485 E9.69599
G1 X100.281 Y94.071 E9.71342
G1 X100.903 Y94.557 E9.73049
G1 X101.535 Y94.936 E9.74642
G1 X102.154 Y95.208 E9.76103
G1 X102.414 Y95.319 E9.76715
G1 X103.273 Y95.565 E9.78646
G1 X104.146 Y95.7 E9.80556
G1 X103.273 Y95.7 E9.80797
G1 X102.154 Y95.7 E9.82299
G1 X98.3 Y95.7 E9.90631
G1 X98.3 Y91.276 E10.00195
G1 X98.3 Y90.609 E10.0126
G1 X98.3 Y89.881 E10.02387
G1 X98.3 Y89.249 E10.03583
G1 X98.3 Y85.3 E10.1212
G0 F6000 X97.78 Y84.78
G1 F1500 X112.22 Y84.78 E10.43338
G1 X112.22 Y96.22 E10.6807
G1 X97.78 Y96.22 E10.99288
G1 X97.78 Y84.78 E11.2402
G0 F6000 X97.26 Y84.26
;TYPE:WALL-OUTER
G1 F1500 X112.74 Y84.26 E11.57487
G1 X112.74 Y96.74 E11.84467
G1 X97.26 Y96.74 E12.17934
G1 X97.26 Y84.26 E12.44914
G0 F6000 X97.66 Y84.26
G0 X97.832 Y84.832
G0 X97.832 Y84.88
G0 X98.81 Y85.81
;TYPE:SKIN
G1 F1500 X100.955 Y85.813 E12.49552
G1 X100.38 Y86.186 E12.51033
G1 X99.632 Y86.851 E12.53197
G1 X99.127 Y87.466 E12.54918
G1 X98.81 Y87.987 E12.56236
G1 X98.81 Y85.81 E12.60942
G0 F6000 X99.702 Y86.465
G1 F1500 X99.287 Y86.05 E12.62211
G0 F6000 X99.049 Y86.547
G1 F1500 X99.335 Y86.833 E12.63086
G0 F6000 X98.81 Y93.047
G1 F1500 X99.329 Y93.806 E12.65074
G1 X99.937 Y94.449 E12.66987
G1 X100.614 Y94.978 E12.68844
G1 X100.968 Y95.19 E12.69736
G1 X98.81 Y95.19 E12.74402
G1 X98.81 Y93.047 E12.79035
G0 F6000 X99.361 Y94.949
G1 F1500 X99.049 Y94.637 E12.79988
G0 F6000 X99.049 Y93.901
G1 F1500 X100.097 Y94.949 E12.83193
G1 X100.167 Y95.019
G0 F6000 X104.755 Y95.24
G0 X109.056 Y95.19
G1 F1500 X109.08 Y95.177 E12.83252
G1 X109.756 Y94.705 E12.85034
G1 X109.96 Y94.529 E12.85617
G1 X110.487 Y94.019 E12.87202
G1 X111.072 Y93.247 E12.89296
G1 X111.19 Y93.018 E12.89853
G1 X111.19 Y95.19 E12.94549
G1 X109.056 Y95.19 E12.99162
G0 F6000 X110.136 Y94.692
G1 F1500 X110.393 Y94.95 E12.99949
G0 F6000 X110.949 Y94.77
G1 F1500 X110.509 Y94.33 E13.01295
G0 F6000 X110.85 Y93.936
G1 F1500 X110.949 Y94.035 E13.01597
G0 F6000 X111.19 Y87.997
G1 F1500 X110.87 Y87.453 E13.02962
G1 X110.421 Y86.918 E13.04472
G1 X110.284 Y86.768 E13.04911
G1 X109.791 Y86.33 E13.06337
G1 X109.591 Y86.166 E13.06896
G1 X109.046 Y85.812 E13.08301
G1 X111.19 Y85.81 E13.12936
G1 X111.19 Y87.997 E13.17664
G0 F6000 X110.949 Y86.681
G1 F1500 X110.319 Y86.051 E13.1959
G0 F6000 X105.715 Y85.351
;TYPE:SKIN
G1 F1500 X105.399 Y85.035 E13.19962
G0 F6000 X105.375 Y85.293
G1 F1500 X105.083 Y85.284 E13.20557
G1 X104.513 Y85.28 E13.21717
G1 X104.208 Y85.54 E13.22533
G0 F6000 X104.189 Y85.521
G0 X105.682 Y85.035
G1 F1500 X105.738 Y85.091 E13.22598
G0 F6000 X105.739 Y85.293
;MESH:NONMESH
G0 F600 X105.739 Y85.293 Z0.3
G0 F6000 X102.459 Y86.18
G0 X101.6 Y86.576
G0 X100.47 Y87.432
G0 X99.52 Y88.62
G0 X99.541 Y88.632
;TIME_ELAPSED:35.507930
;LAYER:1
M106 S255
;TYPE:WALL-INNER
;MESH:06-Chamfer.stl
G1 F1800 X99.254 Y89.373 E13.25241
G1 X99.131 Y89.974 E13.27282
G1 X99.117 Y90.815 E13.30079
G1 X99.144 Y91.106 E13.31051
G1 X99.327 Y91.816 E13.3349
