;FLAVOR:Marlin
;TIME:1064
;Filament used: 0.736925m
;Layer height: 0.2
;MINX:92.18
;MINY:93.68
;MINZ:0.1
;MAXX:117.82
;MAXY:116.32
;MAXZ:12.1
;Generated with Cura_SteamEngine 4.13.1
M140 S53
M105
M190 S53
M104 S212
M105
M109 S212
M82 ;absolute extrusion mode
G21 ;metric values
G90 ;absolute positioning
M82 ;set extruder to absolute mode
M107 ;start with the fan off
G28 X0 Y0 ;move X/Y to min endstops
G28 Z0 ;move Z to min endstops
G1 Z15.0 F120 ;move the platform down 15mm
G92 E0 ;zero the extruded length
G1 F200 E3 ;extrude 3mm of feed stock
G92 E0 ;zero the extruded length again
G1 F120
M117 Printing...
G5
G92 E0
G92 E0
G1 F4200 E-6
;LAYER_COUNT:61
;LAYER:0
M107
G0 F6000 X93.605 Y95.096 Z0.1
;TYPE:SKIRT
G1 F4200 E0
G1 F1200 X94.072 Y94.687 E0.01342
G1 X94.587 Y94.342 E0.02682
G1 X95.143 Y94.065 E0.04025
G1 X95.729 Y93.862 E0.05366
G1 X96.337 Y93.736 E0.06708
G1 X96.874 Y93.691 E0.07873
G1 X97.33 Y93.68 E0.08859
G1 X112.362 Y93.68 E0.41357
G1 X113.06 Y93.69 E0.42866
G1 X113.679 Y93.739 E0.44209
G1 X114.286 Y93.867 E0.4555
G1 X114.872 Y94.072 E0.46892
G1 X115.427 Y94.351 E0.48235
G1 X115.941 Y94.698 E0.49576
G1 X116.406 Y95.109 E0.50917
G1 X116.815 Y95.576 E0.52259
G1 X117.16 Y96.091 E0.536
G1 X117.437 Y96.647 E0.54943
G1 X117.639 Y97.234 E0.56285
G1 X117.764 Y97.842 E0.57627
G1 X117.809 Y98.374 E0.58781
G1 X117.82 Y98.83 E0.59767
G1 X117.82 Y110.824 E0.85697
G1 X117.811 Y111.551 E0.87269
G1 X117.763 Y112.169 E0.88609
G1 X117.636 Y112.777 E0.89952
G1 X117.433 Y113.363 E0.91292
G1 X117.155 Y113.918 E0.92634
G1 X116.809 Y114.433 E0.93976
G1 X116.399 Y114.9 E0.95319
G1 X115.933 Y115.309 E0.9666
G1 X115.418 Y115.656 E0.98002
G1 X114.862 Y115.933 E0.99345
G1 X114.276 Y116.137 E1.00686
G1 X113.669 Y116.263 E1.02027
G1 X113.126 Y116.309 E1.03205
G1 X112.67 Y116.32 E1.04191
G1 X97.645 Y116.32 E1.36674
G1 X96.947 Y116.311 E1.38183
G1 X96.328 Y116.263 E1.39525
G1 X95.721 Y116.136 E1.40866
G1 X95.134 Y115.932 E1.42209
G1 X94.579 Y115.654 E1.43551
G1 X94.065 Y115.307 E1.44892
G1 X93.599 Y114.897 E1.46234
G1 X93.189 Y114.431 E1.47576
G1 X92.843 Y113.915 E1.48919
G1 X92.566 Y113.36 E1.5026
G1 X92.363 Y112.774 E1.51601
G1 X92.237 Y112.166 E1.52943
G1 X92.191 Y111.621 E1.54125
G1 X92.18 Y111.158 E1.55127
G1 X92.18 Y99.109 E1.81175
G1 X92.189 Y98.444 E1.82613
G1 X92.238 Y97.825 E1.83956
G1 X92.365 Y97.218 E1.85296
G1 X92.57 Y96.632 E1.86638
G1 X92.848 Y96.077 E1.8798
G1 X93.195 Y95.562 E1.89323
G1 X93.605 Y95.096 E1.90665
G0 F6000 X94.114 Y95.33
G1 F1200 X94.573 Y94.966 E1.91931
G1 X95.077 Y94.667 E1.93198
G1 X95.618 Y94.44 E1.94467
G1 X96.184 Y94.289 E1.95733
G1 X96.888 Y94.211 E1.97264
G1 X97.33 Y94.2 E1.9822
G1 X112.355 Y94.2 E2.30703
G1 X113.053 Y94.21 E2.32212
G1 X113.637 Y94.259 E2.33479
G1 X114.209 Y94.386 E2.34746
G1 X114.758 Y94.59 E2.36012
G1 X115.275 Y94.867 E2.3728
G1 X115.749 Y95.211 E2.38546
G1 X116.172 Y95.617 E2.39814
G1 X116.536 Y96.077 E2.41082
G1 X116.834 Y96.582 E2.4235
G1 X117.061 Y97.122 E2.43616
G1 X117.212 Y97.689 E2.44884
G1 X117.289 Y98.389 E2.46407
G1 X117.3 Y98.83 E2.47361
G1 X117.3 Y110.817 E2.73275
G1 X117.291 Y111.544 E2.74847
G1 X117.243 Y112.128 E2.76114
G1 X117.117 Y112.701 E2.77382
G1 X116.914 Y113.251 E2.7865
G1 X116.639 Y113.768 E2.79916
G1 X116.295 Y114.243 E2.81184
G1 X115.89 Y114.667 E2.82451
G1 X115.431 Y115.032 E2.83719
G1 X114.927 Y115.331 E2.84986
G1 X114.387 Y115.558 E2.86253
G1 X113.821 Y115.71 E2.8752
G1 X113.112 Y115.789 E2.89062
G1 X112.67 Y115.8 E2.90018
G1 X97.652 Y115.8 E3.22485
G1 X96.954 Y115.791 E3.23994
G1 X96.369 Y115.743 E3.25263
G1 X95.797 Y115.617 E3.2653
G1 X95.247 Y115.413 E3.27798
G1 X94.73 Y115.137 E3.29065
G1 X94.255 Y114.794 E3.30331
G1 X93.832 Y114.388 E3.31599
G1 X93.467 Y113.929 E3.32867
G1 X93.168 Y113.425 E3.34134
G1 X92.941 Y112.885 E3.354
G1 X92.789 Y112.318 E3.36669
G1 X92.711 Y111.607 E3.38216
G1 X92.7 Y111.158 E3.39187
G1 X92.7 Y99.116 E3.6522
G1 X92.709 Y98.451 E3.66658
G1 X92.757 Y97.867 E3.67925
G1 X92.884 Y97.294 E3.69194
G1 X93.088 Y96.745 E3.7046
G1 X93.364 Y96.228 E3.71727
G1 X93.708 Y95.753 E3.72995
G1 X94.114 Y95.33 E3.74262
G0 F6000 X94.22 Y95.957
G1 F1200 X94.62 Y95.58 E3.75451
G1 X95.07 Y95.264 E3.76639
G1 X95.561 Y95.017 E3.77828
G1 X96.082 Y94.844 E3.79015
G1 X96.624 Y94.749 E3.80204
G1 X97.224 Y94.721 E3.81503
G1 X112.347 Y94.72 E4.14197
G1 X113.045 Y94.73 E4.15706
G1 X113.593 Y94.778 E4.16896
G1 X114.127 Y94.905 E4.18082
G1 X114.638 Y95.108 E4.19271
G1 X115.114 Y95.383 E4.2046
G1 X115.545 Y95.723 E4.21646
G1 X115.922 Y96.123 E4.22835
G1 X116.237 Y96.573 E4.24022
G1 X116.484 Y97.065 E4.25212
G1 X116.656 Y97.586 E4.26399
G1 X116.752 Y98.128 E4.27589
G1 X116.779 Y98.724 E4.28878
G1 X116.78 Y110.811 E4.55009
G1 X116.771 Y111.538 E4.56581
G1 X116.724 Y112.085 E4.57768
G1 X116.598 Y112.62 E4.58956
G1 X116.396 Y113.131 E4.60144
G1 X116.123 Y113.608 E4.61332
G1 X115.783 Y114.04 E4.62521
G1 X115.384 Y114.417 E4.63708
G1 X114.934 Y114.733 E4.64896
G1 X114.443 Y114.981 E4.66086
G1 X113.922 Y115.155 E4.67273
G1 X113.381 Y115.251 E4.68461
G1 X112.776 Y115.279 E4.6977
G1 X97.658 Y115.28 E5.02454
G1 X96.96 Y115.271 E5.03963
G1 X96.413 Y115.224 E5.0515
G1 X95.878 Y115.098 E5.06338
G1 X95.367 Y114.896 E5.07526
G1 X94.89 Y114.622 E5.08716
G1 X94.459 Y114.281 E5.09904
G1 X94.081 Y113.882 E5.11092
G1 X93.766 Y113.432 E5.1228
G1 X93.518 Y112.941 E5.13469
G1 X93.345 Y112.42 E5.14656
G1 X93.249 Y111.879 E5.15843
G1 X93.221 Y111.26 E5.17183
G1 X93.22 Y99.123 E5.43422
G1 X93.229 Y98.458 E5.4486
G1 X93.277 Y97.91 E5.46049
G1 X93.403 Y97.375 E5.47237
G1 X93.605 Y96.865 E5.48423
G1 X93.88 Y96.388 E5.49614
G1 X94.22 Y95.957 E5.50801
G0 F6000 X94.731 Y96.177
G1 F1200 X95.123 Y95.85 E5.51904
G1 X95.561 Y95.588 E5.53008
G1 X96.034 Y95.398 E5.5411
G1 X96.531 Y95.284 E5.55212
G1 X97.239 Y95.241 E5.56745
G1 X112.34 Y95.24 E5.89392
G1 X113.038 Y95.25 E5.90901
G1 X113.546 Y95.298 E5.92005
G1 X114.04 Y95.423 E5.93106
G1 X114.509 Y95.625 E5.9421
G1 X114.941 Y95.897 E5.95314
G1 X115.325 Y96.234 E5.96418
G1 X115.651 Y96.626 E5.97521
G1 X115.913 Y97.064 E5.98624
G1 X116.103 Y97.537 E5.99726
G1 X116.216 Y98.035 E6.0083
G1 X116.259 Y98.738 E6.02353
G1 X116.26 Y110.804 E6.28438
G1 X116.251 Y111.531 E6.3001
G1 X116.205 Y112.04 E6.31115
G1 X116.08 Y112.534 E6.32217
G1 X115.879 Y113.003 E6.3332
G1 X115.607 Y113.436 E6.34425
G1 X115.272 Y113.82 E6.35527
G1 X114.881 Y114.148 E6.3663
G1 X114.443 Y114.41 E6.37734
G1 X113.97 Y114.601 E6.38837
G1 X113.472 Y114.715 E6.39941
G1 X112.761 Y114.759 E6.41481
G1 X97.665 Y114.76 E6.74117
G1 X96.967 Y114.751 E6.75626
G1 X96.459 Y114.704 E6.76729
G1 X95.964 Y114.579 E6.77833
G1 X95.495 Y114.378 E6.78936
G1 X95.063 Y114.106 E6.8004
G1 X94.679 Y113.771 E6.81142
G1 X94.352 Y113.379 E6.82245
G1 X94.089 Y112.941 E6.8335
G1 X93.899 Y112.468 E6.84452
G1 X93.784 Y111.971 E6.85555
G1 X93.741 Y111.246 E6.87125
G1 X93.74 Y99.13 E7.13318
G1 X93.749 Y98.465 E7.14756
G1 X93.796 Y97.957 E7.15859
G1 X93.922 Y97.462 E7.16963
G1 X94.123 Y96.993 E7.18066
G1 X94.395 Y96.561 E7.1917
G1 X94.731 Y96.177 E7.20273
G1 F4200 E1.20273
;MESH:04-Chamfer.stl
G0 F6000 X97.794 Y97.835
G0 X97.794 Y99.294
G0 X99.9 Y101.272
G1 F4200 E7.20273
G0 F6000 X99.97 Y101.343
;TYPE:WALL-INNER
G1 F1500 X99.483 Y101.88 E7.2184
G1 X99.423 Y101.957 E7.22052
G1 X99.044 Y102.523 E7.23524
G1 X98.996 Y102.605 E7.2373
G1 X98.69 Y103.258 E7.25289
G1 X98.478 Y103.971 E7.26897
G1 X98.367 Y104.996 E7.29126
G1 X98.428 Y105.738 E7.30735
G1 X98.442 Y105.83 E7.30936
G1 X98.614 Y106.531 E7.32497
G1 X98.912 Y107.24 E7.3416
G1 X99.314 Y107.901 E7.35832
G1 X99.811 Y108.5 E7.37515
G1 X100.344 Y108.986 E7.39074
G1 X100.426 Y109.053 E7.39303
G1 X101.045 Y109.48 E7.40929
G1 X101.699 Y109.829 E7.42531
G1 X102.533 Y110.154 E7.44467
G1 X102.677 Y110.188 E7.44786
G1 X103.426 Y110.38 E7.46458
G1 X104.236 Y110.49 E7.48225
G1 X104.408 Y110.509 E7.48599
G1 X105.27 Y110.523 E7.50463
G1 X105.414 Y110.519 E7.50775
G1 X106.2 Y110.442 E7.52482
G1 X106.362 Y110.416 E7.52837
G1 X107.125 Y110.252 E7.54524
G1 X107.836 Y110.015 E7.56144
G1 X108.041 Y109.941 E7.56615
G1 X108.75 Y109.598 E7.58318
G1 X108.834 Y109.551 E7.58526
G1 X109.512 Y109.103 E7.60283
G1 X110.133 Y108.558 E7.62069
G1 X110.602 Y108.009 E7.6363
G1 X110.669 Y107.923 E7.63866
G1 X111.062 Y107.292 E7.65473
G1 X111.362 Y106.601 E7.67102
G1 X111.532 Y105.96 E7.68535
G1 X111.554 Y105.855 E7.68767
G1 X111.629 Y105.165 E7.70268
G1 X111.594 Y104.383 E7.7196
G1 X111.431 Y103.619 E7.73649
G1 X111.185 Y102.968 E7.75154
G1 X111.14 Y102.869 E7.75389
G1 X110.791 Y102.253 E7.76919
G1 X110.301 Y101.623 E7.78645
G1 X109.824 Y101.158 E7.80085
G1 X109.714 Y101.06 E7.80403
G1 X109.157 Y100.65 E7.81899
G1 X109.067 Y100.588 E7.82135
G1 X108.475 Y100.256 E7.83602
G1 X107.613 Y99.896 E7.85622
G1 X106.812 Y99.671 E7.87421
G1 X106.713 Y99.648 E7.8764
G1 X105.921 Y99.523 E7.89374
G1 X105.752 Y99.506 E7.89741
G1 X104.879 Y99.472 E7.9163
G1 X104.739 Y99.476 E7.91932
G1 X103.989 Y99.532 E7.93558
G1 X103.895 Y99.544 E7.93763
G1 X103.081 Y99.697 E7.95554
G1 X102.86 Y99.761 E7.96051
G1 X102.144 Y99.983 E7.97672
G1 X101.369 Y100.334 E7.99511
G1 X100.679 Y100.759 E8.01263
G1 X100.564 Y100.842 E8.0157
G1 X100.121 Y101.209 E8.02814
G1 X99.97 Y101.343 E8.0325
G0 F6000 X100.336 Y101.713
;TYPE:WALL-OUTER
G1 F1500 X99.881 Y102.216 E8.04716
G1 X99.844 Y102.263 E8.04846
G1 X99.485 Y102.799 E8.0624
G1 X99.457 Y102.847 E8.0636
G1 X99.177 Y103.443 E8.07784
G1 X98.99 Y104.074 E8.09207
G1 X98.889 Y105.003 E8.11227
G1 X98.945 Y105.677 E8.12689
G1 X98.953 Y105.729 E8.12803
G1 X99.109 Y106.368 E8.14225
G1 X99.376 Y107.003 E8.15714
G1 X99.738 Y107.598 E8.1722
G1 X100.188 Y108.14 E8.18743
G1 X100.684 Y108.592 E8.20194
G1 X100.739 Y108.637 E8.20347
G1 X101.316 Y109.035 E8.21863
G1 X101.917 Y109.356 E8.23336
G1 X102.687 Y109.656 E8.25122
G1 X102.807 Y109.684 E8.25389
G1 X103.526 Y109.869 E8.26994
G1 X104.298 Y109.974 E8.28678
G1 X104.44 Y109.989 E8.28987
G1 X105.268 Y110.003 E8.30777
G1 X105.382 Y110 E8.31024
G1 X106.134 Y109.926 E8.32657
G1 X106.267 Y109.905 E8.32948
G1 X106.987 Y109.75 E8.34541
G1 X107.666 Y109.523 E8.36088
G1 X107.84 Y109.461 E8.36488
G1 X108.51 Y109.136 E8.38098
G1 X108.564 Y109.106 E8.38231
G1 X109.196 Y108.689 E8.39868
G1 X109.762 Y108.192 E8.41497
G1 X110.199 Y107.68 E8.42952
G1 X110.242 Y107.625 E8.43103
G1 X110.6 Y107.05 E8.44567
G1 X110.869 Y106.43 E8.46028
G1 X111.026 Y105.839 E8.4735
G1 X111.04 Y105.773 E8.47496
G1 X111.108 Y105.149 E8.48853
G1 X111.076 Y104.449 E8.50368
G1 X110.931 Y103.766 E8.51878
G1 X110.704 Y103.167 E8.53262
G1 X110.676 Y103.105 E8.53409
G1 X110.357 Y102.542 E8.54808
G1 X109.912 Y101.97 E8.56375
G1 X109.469 Y101.538 E8.57713
G1 X109.386 Y101.464 E8.57953
G1 X108.856 Y101.074 E8.59376
G1 X108.792 Y101.03 E8.59544
G1 X108.247 Y100.724 E8.60895
G1 X107.607 Y100.456 E8.62395
G1 X107.443 Y100.388 E8.62779
G1 X106.684 Y100.175 E8.64483
G1 X106.614 Y100.159 E8.64638
G1 X105.854 Y100.039 E8.66302
G1 X105.716 Y100.025 E8.66602
G1 X104.876 Y99.992 E8.68419
G1 X104.766 Y99.995 E8.68657
G1 X104.04 Y100.05 E8.70231
G1 X103.974 Y100.058 E8.70375
G1 X103.202 Y100.203 E8.72073
G1 X103.01 Y100.259 E8.72505
G1 X102.329 Y100.47 E8.74047
G1 X101.614 Y100.794 E8.75744
G1 X100.968 Y101.192 E8.77384
G1 X100.882 Y101.254 E8.77613
G1 X100.459 Y101.604 E8.788
G1 X100.336 Y101.713 E8.79156
G0 F6000 X100.068 Y102.009
G0 X99.645 Y101.626
G0 X99.609 Y101.593
G0 X100.657 Y100.726
G0 X101.351 Y100.299
G0 X102.13 Y99.946
G0 X103.072 Y99.659
G0 X103.985 Y99.493
G0 X104.879 Y99.432
G0 X108.724 Y99.8
;TYPE:WALL-INNER
G1 F1500 X109.459 Y99.8 E8.80745
G1 X111.7 Y99.8 E8.85589
G1 X111.7 Y101.964 E8.90268
G1 X111.7 Y102.861 E8.92207
G1 X111.604 Y102.633 E8.92742
G1 X111.225 Y101.964 E8.93873
G1 X110.69 Y101.276 E8.95757
G1 X110.179 Y100.778 E8.973
G1 X110.042 Y100.656 E8.97697
G1 X109.459 Y100.226 E8.99263
G1 X109.342 Y100.146 E8.99569
G1 X108.724 Y99.8 E9.00094
G0 F6000 X110.33 Y101.597
G0 X110.824 Y102.231
G0 X111.221 Y102.953
G0 X111.633 Y104.378
G0 X111.57 Y105.969
G0 X111.097 Y107.31
G0 X108.699 Y110.2
G1 F1500 X109.105 Y109.995 E9.01077
G1 X109.828 Y109.517 E9.02951
G1 X110.504 Y108.924 E9.04895
G1 X111.005 Y108.338 E9.06562
G1 X111.096 Y108.221 E9.06882
G1 X111.524 Y107.534 E9.08632
G1 X111.7 Y107.129 E9.09587
G1 X111.7 Y107.728 E9.10787
G1 X111.7 Y110.2 E9.16132
G1 X108.699 Y110.2 E9.22619
G0 F6000 X105.27 Y110.563
G0 X104.232 Y110.529
G0 X103.419 Y110.419
G0 X102.522 Y110.192
G0 X101.683 Y109.865
G0 X100.453 Y109.111
G0 X98.3 Y107.125
G1 F1500 X98.448 Y107.477 E9.23445
G1 X98.889 Y108.204 E9.25283
G1 X99.434 Y108.86 E9.27127
G1 X100.004 Y109.38 E9.28795
G1 X100.113 Y109.469 E9.29099
G1 X100.774 Y109.925 E9.30835
G1 X101.29 Y110.2 E9.32099
G1 X98.3 Y110.2 E9.38564
G1 X98.3 Y107.788 E9.43778
G1 X98.3 Y107.125 E9.45018
G0 F6000 X98.3 Y99.8
G1 F1500 X100.502 Y99.8 E9.49779
G1 X101.287 Y99.8 E9.51476
G1 X101.124 Y99.874 E9.51863
G1 X100.39 Y100.326 E9.53211
G1 X100.246 Y100.43 E9.53595
G1 X99.782 Y100.814 E9.54897
G1 X99.604 Y100.973 E9.55413
G1 X99.085 Y101.545 E9.57083
G1 X99.001 Y101.652 E9.57377
G1 X98.603 Y102.247 E9.58925
G1 X98.535 Y102.363 E9.59215
G1 X98.3 Y102.866 E9.60416
G1 X98.3 Y102.247 E9.60828
G1 X98.3 Y99.8 E9.66118
G0 F6000 X97.78 Y99.28
G1 F1500 X103.081 Y99.28 E9.77578
G1 X103.989 Y99.28 E9.78899
G1 X104.739 Y99.28 E9.79598
G1 X105.921 Y99.28 E9.80827
G1 X106.812 Y99.28 E9.82003
G1 X112.22 Y99.28 E9.93694
G1 X112.22 Y110.72 E10.18426
G1 X107.125 Y110.72 E10.29441
G1 X106.2 Y110.72 E10.30972
G1 X105.27 Y110.72 E10.31983
G1 X104.236 Y110.72 E10.32974
G1 X103.426 Y110.72 E10.33934
G1 X102.717 Y110.72 E10.35223
G1 X97.78 Y110.72 E10.45896
G1 X97.78 Y99.28 E10.70628
G0 F6000 X97.26 Y98.76
;TYPE:WALL-OUTER
G1 F1500 X112.74 Y98.76 E11.04095
G1 X112.74 Y111.24 E11.31075
G1 X97.26 Y111.24 E11.64542
G1 X97.26 Y98.76 E11.91522
G0 F6000 X97.66 Y98.76
G0 X97.832 Y99.332
G0 X97.832 Y99.38
G0 X98.81 Y100.31
;TYPE:SKIN
G1 F1500 X99.591 Y100.31 E11.93211
G1 X99.245 Y100.61 E11.94201
G1 X98.81 Y101.089 E11.956
G1 X98.81 Y100.31 E11.97284
G0 F6000 X98.328 Y104.996
G0 X98.81 Y108.907
G1 F1500 X99.064 Y109.213 E11.98144
G1 X99.587 Y109.69 E11.99674
G1 X98.81 Y109.69 E12.01354
G1 X98.81 Y108.907 E12.03046
G0 F6000 X102.668 Y110.226
G0 X104.406 Y110.548
G0 X105.416 Y110.558
G0 X110.403 Y109.69
G1 F1500 X110.867 Y109.283 E12.04381
G1 X111.19 Y108.906 E12.05454
G1 X111.19 Y109.69 E12.07149
G1 X110.403 Y109.69 E12.0885
G0 F6000 X111.593 Y105.861
G0 X111.65 Y104.72
G0 X111.19 Y101.088
G1 F1500 X111.071 Y100.935 E12.09269
G1 X110.527 Y100.405 E12.10911
G1 X110.42 Y100.31 E12.11221
G1 X111.19 Y100.31 E12.12885
G1 X111.19 Y101.088 E12.14567
G0 F6000 X111.609 Y103.124
G0 X111.786 Y103.301
;TYPE:SKIN
G1 F1500 X111.904 Y103.136 E12.14742
G1 X111.796 Y103.594 E12.15146
G1 X111.915 Y104.844 E12.16224
G1 X111.86 Y106.204 E12.17393
G1 X111.801 Y106.71 E12.17831
G1 X111.629 Y106.821 E12.18007
G0 F6000 X111.689 Y106.881
G0 X110.161 Y108.586
G0 X109.536 Y109.134
G0 X108.768 Y109.633
G0 X107.849 Y110.052
G0 X106.205 Y110.481
G0 X105.27 Y110.563
G0 X104.232 Y110.529
G0 X103.419 Y110.419
G0 X102.522 Y110.192
G0 X101.683 Y109.865
G0 X100.318 Y109.016
G0 X98.378 Y106.863
G0 X98.206 Y106.691
G1 F1500 X98.196 Y106.398 E12.18291
G1 X98.081 Y105.152 E12.19506
G1 X98.166 Y103.54 E12.21073
G1 X98.366 Y103.175 E12.21477
G0 F6000 X98.304 Y103.112
G0 X98.034 Y106.802
G1 F1500 X98.142 Y106.91 E12.21604
G0 F6000 X98.223 Y106.941
;MESH:NONMESH
G0 F600 X98.223 Y106.941 Z0.3
G0 F6000 X98.439 Y103.964
G0 X98.942 Y102.644
G0 X99.83 Y101.349
G0 X100.146 Y101.637
