;FLAVOR:Marlin
;TIME:15826
;Filament used: 11.1612m
;Layer height: 0.2
;MINX:7.1
;MINY:84.7
;MINZ:0.3
;MAXX:202.897
;MAXY:125.486
;MAXZ:24.7
;Generated with Cura_SteamEngine 4.2.1
M140 S60
M105
M190 S60
M104 S200
M105
M109 S200
M82 ;absolute extrusion mode
G21 ;metric values
G90 ;absolute positioning
M82 ;set extruder to absolute mode
M107 ;start with the fan off
G28 X0 Y0 ;move X/Y to min endstops
G28 Z0 ;move Z to min endstops
G1 Z15.0 F60 ;move the platform down 15mm
G92 E0 ;zero the extruded length
G1 F200 E3 ;extrude 3mm of feed stock
G92 E0 ;zero the extruded length again
G1 F60
M117 Printing...
G5
M141 S28
G92 E0
G92 E0
G1 F1500 E-6.5
;LAYER_COUNT:123
;LAYER:0
M107
M204 S300
M205 X8.18 Y8.18
G0 F1800 X9.88 Y92.756 Z0.3
M205 X3 Y3
;TYPE:SKIRT
G1 F1500 E0
G1 F1200 X10.365 Y92.711 E0.0243
G1 X10.922 Y92.701 E0.05209
G1 X10.979 Y92.7 E0.05494
G1 X54.766 Y92.7 E2.23948
G1 X57.563 Y92.66 E2.37904
G1 X60.28 Y92.545 E2.51471
G1 X63.027 Y92.35 E2.6521
G1 X65.731 Y92.082 E2.78767
G1 X68.455 Y91.734 E2.92467
G1 X71.155 Y91.309 E3.06104
G1 X73.864 Y90.806 E3.1985
G1 X76.488 Y90.241 E3.33241
G1 X79.2 Y89.577 E3.47171
G1 X81.807 Y88.859 E3.60662
G1 X84.454 Y88.049 E3.74472
G1 X87.038 Y87.177 E3.88078
G1 X89.324 Y86.34 E4.00223
G1 X89.423 Y86.306 E4.00745
G1 X90.565 Y85.93 E4.06744
G1 X90.671 Y85.897 E4.07298
G1 X91.114 Y85.768 E4.096
G1 X91.267 Y85.727 E4.1039
G1 X92.727 Y85.379 E4.17878
G1 X92.817 Y85.359 E4.18338
G1 X93.317 Y85.255 E4.20886
G1 X93.414 Y85.236 E4.21379
G1 X93.789 Y85.17 E4.23278
G1 X93.868 Y85.158 E4.23677
G1 X94.753 Y85.025 E4.28142
G1 X94.833 Y85.014 E4.28545
G1 X95.138 Y84.976 E4.30078
G1 X95.196 Y84.969 E4.3037
G1 X96.202 Y84.862 E4.35417
G1 X96.294 Y84.853 E4.35878
G1 X96.903 Y84.806 E4.38926
G1 X96.959 Y84.803 E4.39205
G1 X97.868 Y84.749 E4.43748
G1 X97.939 Y84.745 E4.44103
G1 X98.234 Y84.734 E4.45576
G1 X98.271 Y84.733 E4.45761
G1 X98.741 Y84.721 E4.48106
G1 X98.781 Y84.72 E4.48306
G1 X100.137 Y84.702 E4.55071
G1 X100.179 Y84.702 E4.55281
G1 X191.362 Y84.7 E9.10195
G1 X198.922 Y84.7 E9.47912
G1 X199.611 Y84.71 E9.5135
G1 X200.115 Y84.758 E9.53875
G1 X200.604 Y84.884 E9.56395
G1 X201.068 Y85.085 E9.58918
G1 X201.494 Y85.357 E9.61439
G1 X201.872 Y85.693 E9.63962
G1 X202.193 Y86.084 E9.66486
G1 X202.448 Y86.52 E9.69006
G1 X202.63 Y86.992 E9.7153
G1 X202.737 Y87.486 E9.74052
G1 X202.764 Y87.834 E9.75793
G1 X202.786 Y88.759 E9.80409
G1 X202.787 Y88.821 E9.80719
G1 X202.897 Y113.182 E11.02257
G1 X202.897 Y113.225 E11.02472
G1 X202.891 Y113.881 E11.05745
G1 X202.846 Y114.385 E11.08269
G1 X202.723 Y114.875 E11.1079
G1 X202.524 Y115.34 E11.13313
G1 X202.254 Y115.768 E11.15838
G1 X202.095 Y115.964 E11.17097
G1 X201.972 Y116.104 E11.18027
G1 X201.609 Y116.456 E11.20549
G1 X201.382 Y116.628 E11.2197
G1 X200.481 Y117.248 E11.27427
G1 X200.44 Y117.276 E11.27675
G1 X199.921 Y117.621 E11.30784
G1 X197.704 Y119.19 E11.44334
G1 X195.52 Y120.83 E11.5796
G1 X194.823 Y121.385 E11.62405
G1 X194.788 Y121.412 E11.62626
G1 X194.043 Y121.989 E11.67327
G1 X193.621 Y122.266 E11.69845
G1 X193.159 Y122.473 E11.72371
G1 X192.671 Y122.605 E11.74893
G1 X192.152 Y122.658 E11.77496
G1 X191.588 Y122.67 E11.8031
G1 X191.52 Y122.671 E11.8065
G1 X155.211 Y122.672 E13.61796
G1 X152.414 Y122.712 E13.75752
G1 X149.697 Y122.827 E13.89319
G1 X146.954 Y123.021 E14.03038
G1 X144.251 Y123.29 E14.1659
G1 X142.694 Y123.479 E14.24415
G1 X141.72 Y123.605 E14.29315
G1 X141.463 Y123.628 E14.30602
G1 X141.132 Y123.644 E14.32255
G1 X141.07 Y123.647 E14.32565
G1 X139.019 Y123.707 E14.42802
G1 X136.274 Y123.864 E14.56519
G1 X133.564 Y124.097 E14.70089
G1 X130.864 Y124.406 E14.83648
G1 X128.142 Y124.796 E14.97366
G1 X125.944 Y125.191 E15.08508
G1 X125.919 Y125.195 E15.08634
G1 X124.552 Y125.429 E15.15553
G1 X124.117 Y125.473 E15.17735
G1 X123.781 Y125.484 E15.19412
G1 X123.676 Y125.486 E15.19936
G1 X120.57 Y125.486 E15.35432
G1 X119.862 Y125.476 E15.38964
G1 X119.681 Y125.468 E15.39868
G1 X118.751 Y125.402 E15.4452
G1 X115.99 Y125.246 E15.58316
G1 X113.241 Y125.169 E15.72036
G1 X110.522 Y125.169 E15.85602
G1 X107.767 Y125.248 E15.99352
G1 X104.995 Y125.405 E16.13204
G1 X104.133 Y125.468 E16.17516
G1 X103.989 Y125.476 E16.18235
G1 X103.669 Y125.485 E16.19832
G1 X103.579 Y125.486 E16.20281
G1 X100.45 Y125.486 E16.35892
G1 X99.752 Y125.476 E16.39375
G1 X99.347 Y125.444 E16.41402
G1 X96.532 Y125.043 E16.55588
G1 X93.826 Y124.735 E16.69175
G1 X91.118 Y124.505 E16.82734
G1 X88.367 Y124.348 E16.96481
G1 X85.622 Y124.269 E17.10182
G1 X82.239 Y124.279 E17.27059
G1 X80.201 Y124.32 E17.37229
G1 X80.137 Y124.321 E17.37548
G1 X79.655 Y124.321 E17.39953
G1 X78.957 Y124.311 E17.43436
G1 X78.505 Y124.272 E17.45699
G1 X75.884 Y123.859 E17.58937
G1 X73.105 Y123.461 E17.72943
G1 X70.409 Y123.153 E17.86481
G1 X67.702 Y122.922 E18.00035
G1 X64.951 Y122.764 E18.13782
G1 X62.189 Y122.684 E18.27568
G1 X60.756 Y122.673 E18.34717
G1 X18.635 Y122.672 E20.4486
G1 X18.581 Y122.672 E20.45129
G1 X17.867 Y122.66 E20.48692
G1 X17.562 Y122.64 E20.50217
G1 X14.858 Y122.334 E20.63793
G1 X13.166 Y122.19 E20.72265
G1 X13.123 Y122.186 E20.72481
G1 X12.618 Y122.136 E20.75013
G1 X12.12 Y122.047 E20.77536
G1 X11.643 Y121.88 E20.80058
G1 X11.198 Y121.641 E20.82578
G1 X10.622 Y121.165 E20.86306
G1 X10.487 Y121.024 E20.8728
G1 X10.062 Y120.47 E20.90763
G1 X9.395 Y119.37 E20.97181
G1 X9.382 Y119.348 E20.97309
G1 X8.251 Y117.448 E21.0834
G1 X7.975 Y117.006 E21.1094
G1 X7.79 Y116.666 E21.12871
G1 X7.559 Y116.171 E21.15596
G1 X7.349 Y115.57 E21.18772
G1 X7.224 Y115.053 E21.21426
G1 X7.135 Y114.377 E21.24828
G1 X7.11 Y113.323 E21.30088
G1 X7.109 Y113.258 E21.30412
G1 X7.102 Y111.291 E21.40225
G1 X7.102 Y111.245 E21.40455
G1 X7.109 Y110.604 E21.43653
G1 X7.112 Y110.512 E21.44112
G1 X7.236 Y107.394 E21.5968
G1 X7.274 Y104.621 E21.73516
G1 X7.235 Y101.892 E21.87133
G1 X7.15 Y100.055 E21.96307
G1 X7.149 Y100.022 E21.96472
G1 X7.107 Y98.844 E22.02353
G1 X7.105 Y98.769 E22.02727
G1 X7.1 Y98.36 E22.04768
G1 X7.1 Y96.657 E22.13264
G1 X7.11 Y95.979 E22.16647
G1 X7.158 Y95.475 E22.19173
G1 X7.284 Y94.986 E22.21692
G1 X7.485 Y94.522 E22.24215
G1 X7.757 Y94.096 E22.26737
G1 X8.008 Y93.803 E22.28661
G1 X8.12 Y93.687 E22.29466
G1 X8.499 Y93.352 E22.31989
G1 X8.926 Y93.081 E22.34513
G1 X9.39 Y92.881 E22.37033
G1 X9.88 Y92.756 E22.39556
M205 X8.18 Y8.18
G0 F1800 X10.5 Y96.1
M205 X3 Y3
;TYPE:SUPPORT
G1 F1200 X70.256 Y96.1 E25.3768
G1 X71.098 Y96.092 E25.41881
G1 X72.067 Y96.058 E25.46718
G1 X73.425 Y95.967 E25.53509
G1 X74.712 Y95.825 E25.59969
G1 X75.866 Y95.645 E25.65796
G1 X77.034 Y95.409 E25.7174
G1 X78.167 Y95.121 E25.77573
G1 X79.117 Y94.831 E25.82528
G1 X80.184 Y94.453 E25.88176
G1 X81.307 Y93.988 E25.9424
G1 X82.33 Y93.515 E25.99863
G1 X83.642 Y92.849 E26.07203
G1 X85.679 Y91.751 E26.18748
G1 X87.264 Y90.917 E26.27684
G1 X88.33 Y90.403 E26.33588
G1 X89.198 Y90.017 E26.38327
G1 X90.072 Y89.668 E26.43023
G1 X90.927 Y89.367 E26.47545
G1 X91.842 Y89.087 E26.52319
G1 X92.808 Y88.836 E26.57298
G1 X93.89 Y88.598 E26.62825
G1 X94.969 Y88.42 E26.68281
G1 X96.288 Y88.262 E26.74909
G1 X97.855 Y88.145 E26.82748
G1 X97.924 Y88.145 E26.83093
G1 X99.583 Y88.102 E26.91372
G1 X191.362 Y88.1 E31.49259
G1 X199.5 Y88.1 E31.8986
G1 X199.5 Y113.794 E33.18048
G1 X199.494 Y113.8 E33.1809
G1 X192.399 Y113.801 E33.53487
G1 X192 Y114.2 E33.56303
G1 X192 Y119.271 E33.81602
G1 X141.338 Y119.272 E36.34356
G1 X140.963 Y119.722 E36.37278
G1 X141.06 Y120.243 E36.39922
G1 X124.205 Y120.244 E37.24012
G1 X123.806 Y120.643 E37.26827
G1 X123.806 Y122.086 E37.34026
G1 X120.109 Y122.086 E37.52471
G1 X120.114 Y120.645 E37.5966
G1 X119.715 Y120.244 E37.62482
G1 X104.108 Y120.245 E38.40346
G1 X103.709 Y120.644 E38.43161
G1 X103.709 Y122.086 E38.50355
G1 X99.991 Y122.086 E38.68904
G1 X100.007 Y120.648 E38.76079
G1 X99.608 Y120.245 E38.78908
G1 X93.701 Y120.245 E39.08378
G1 X93.827 Y119.743 E39.1096
G1 X93.461 Y119.274 E39.13928
G1 X84.38 Y119.275 E39.59234
G1 X82.579 Y120.681 E39.70633
G1 X82.155 Y120.681 E39.72748
G1 X81.777 Y120.805 E39.74733
G1 X81.507 Y120.805 E39.7608
G1 X81.127 Y120.921 E39.78062
G1 X79.022 Y120.921 E39.88564
G1 X78.642 Y120.805 E39.90546
G1 X78.316 Y120.805 E39.92173
G1 X77.937 Y120.68 E39.94164
G1 X77.54 Y120.68 E39.96144
G1 X75.666 Y119.274 E40.07833
G1 X18.012 Y119.272 E42.9547
G1 X17.504 Y118.763 E42.99057
G1 X13.011 Y118.762 E43.21473
G1 X13 Y118.751 E43.21551
G1 X13 Y116.994 E43.30316
G1 X12.738 Y116.556 E43.32863
G1 X11.514 Y115.906 E43.39777
G1 X11.112 Y115.562 E43.42416
G1 X10.82 Y115.159 E43.44899
G1 X10.61 Y114.689 E43.47468
G1 X10.512 Y114.218 E43.49868
G1 X10.5 Y110.59 E43.67968
G1 X10.547 Y109.752 E43.72155
G1 X10.719 Y109.224 E43.74926
G1 X11.018 Y108.748 E43.7773
G1 X11.419 Y108.363 E43.80504
G1 X11.926 Y108.075 E43.83413
G1 X12.467 Y107.927 E43.86211
G1 X15.093 Y107.902 E43.99313
G1 X15.1 Y107.909 E43.99362
G1 X15.1 Y110.001 E44.09799
G1 X15.499 Y110.4 E44.12614
G1 X17.592 Y110.4 E44.23056
G1 X18.192 Y110.373 E44.26053
G1 X18.828 Y110.197 E44.29345
G1 X19.392 Y109.879 E44.32575
G1 X19.889 Y109.425 E44.35934
G1 X20.245 Y108.844 E44.39333
G1 X20.452 Y108.214 E44.42641
G1 X20.5 Y107.705 E44.45192
G1 X20.5 Y104.445 E44.61456
G1 X20.488 Y103.696 E44.65194
G1 X20.37 Y103.184 E44.67815
G1 X20.115 Y102.608 E44.70958
G1 X19.715 Y102.094 E44.74207
G1 X19.3 Y101.747 E44.76906
G1 X18.816 Y101.502 E44.79612
G1 X18.222 Y101.328 E44.827
G1 X17.566 Y101.3 E44.85976
G1 X15.5 Y101.3 E44.96283
G1 X15.5 Y99.199 E45.06765
G1 X15.101 Y98.8 E45.0958
G1 X10.5 Y98.8 E45.32535
G1 X10.5 Y96.1 E45.46005
M205 X8.18 Y8.18
G0 F1800 X155.087 Y106.936
M205 X3 Y3
G1 F1200 X154.998 Y107.859 E45.50631
G1 X155.116 Y108.785 E45.55289
G1 X155.435 Y109.654 E45.59907
G1 X155.941 Y110.437 E45.64558
G1 X156.606 Y111.082 E45.6918
G1 X157.407 Y111.57 E45.73859
G1 X158.279 Y111.862 E45.78447
G1 X159.211 Y111.951 E45.83118
G1 X160.13 Y111.837 E45.87738
G1 X161.011 Y111.511 E45.92425
G1 X161.782 Y111.014 E45.97001
G1 X162.435 Y110.338 E46.0169
G1 X162.918 Y109.552 E46.06293
G1 X163.213 Y108.664 E46.10961
G1 X163.302 Y107.741 E46.15588
G1 X163.184 Y106.815 E46.20245
G1 X162.865 Y105.946 E46.24863
G1 X162.359 Y105.163 E46.29514
G1 X161.694 Y104.518 E46.34136
G1 X160.893 Y104.03 E46.38816
G1 X160.021 Y103.738 E46.43403
G1 X159.089 Y103.649 E46.48074
G1 X158.17 Y103.763 E46.52694
G1 X157.289 Y104.089 E46.57381
G1 X156.518 Y104.586 E46.61957
G1 X155.865 Y105.262 E46.66647
G1 X155.382 Y106.048 E46.71249
G1 X155.087 Y106.936 E46.75917
M205 X8.18 Y8.18
G0 F1800 X155.003 Y106.68
M205 X3 Y3
G1 F1200 X20.659 Y106.68 E53.46162
M205 X8.18 Y8.18
G0 F1800 X20.652 Y104.013
M205 X3 Y3
G1 F1200 X157.109 Y104.013 E60.26949
M205 X8.18 Y8.18
G0 F1800 X157.353 Y103.895
M205 X3 Y3
G1 F1200 X157.353 Y88.26 E61.04952
M205 X8.18 Y8.18
G0 F1800 X154.686 Y88.26
M205 X3 Y3
G1 F1200 X154.686 Y119.112 E62.58874
M205 X8.18 Y8.18
G0 F1800 X152.019 Y119.112
M205 X3 Y3
G1 F1200 X152.019 Y88.26 E64.12795
M205 X8.18 Y8.18
G0 F1800 X149.352 Y88.26
M205 X3 Y3
G1 F1200 X149.352 Y119.112 E65.66716
M205 X8.18 Y8.18
G0 F1800 X146.685 Y119.112
M205 X3 Y3
G1 F1200 X146.685 Y88.26 E67.20638
M205 X8.18 Y8.18
G0 F1800 X144.018 Y88.261
M205 X3 Y3
G1 F1200 X144.018 Y119.112 E68.74554
M205 X8.18 Y8.18
G0 F1800 X141.351 Y119.112
M205 X3 Y3
G1 F1200 X141.351 Y88.261 E70.2847
M205 X8.18 Y8.18
G0 F1800 X138.684 Y88.261
M205 X3 Y3
G1 F1200 X138.684 Y120.084 E71.87236
M205 X8.18 Y8.18
G0 F1800 X140.855 Y120.015
M205 X3 Y3
G1 F1200 X93.924 Y120.015 E74.21375
M205 X8.18 Y8.18
G0 F1800 X93.345 Y119.115
M205 X3 Y3
G1 F1200 X93.345 Y88.881 E75.72213
M205 X8.18 Y8.18
G0 F1800 X96.012 Y88.456
M205 X3 Y3
G1 F1200 X96.012 Y120.085 E77.30011
M205 X8.18 Y8.18
G0 F1800 X98.679 Y120.085
M205 X3 Y3
G1 F1200 X98.679 Y88.285 E78.88662
M205 X8.18 Y8.18
G0 F1800 X101.346 Y88.261
M205 X3 Y3
G1 F1200 X101.346 Y121.926 E80.56617
M205 X8.18 Y8.18
G0 F1800 X104.013 Y120.113
M205 X3 Y3
G1 F1200 X104.013 Y88.261 E82.15528
M205 X8.18 Y8.18
G0 F1800 X106.68 Y88.261
M205 X3 Y3
G1 F1200 X106.68 Y120.085 E83.74298
M205 X8.18 Y8.18
G0 F1800 X109.347 Y120.085
M205 X3 Y3
G1 F1200 X109.347 Y88.261 E85.33069
M205 X8.18 Y8.18
G0 F1800 X112.014 Y88.261
M205 X3 Y3
G1 F1200 X112.014 Y120.085 E86.91839
M205 X8.18 Y8.18
G0 F1800 X114.681 Y120.085
M205 X3 Y3
G1 F1200 X114.681 Y88.261 E88.5061
M205 X8.18 Y8.18
G0 F1800 X117.348 Y88.261
M205 X3 Y3
G1 F1200 X117.348 Y120.085 E90.0938
M205 X8.18 Y8.18
G0 F1800 X120.015 Y120.318
M205 X3 Y3
G1 F1200 X120.015 Y88.261 E91.69314
M205 X8.18 Y8.18
G0 F1800 X122.682 Y88.261
M205 X3 Y3
G1 F1200 X122.682 Y121.926 E93.37269
M205 X8.18 Y8.18
G0 F1800 X125.349 Y120.084
M205 X3 Y3
G1 F1200 X125.349 Y88.261 E94.96034
M205 X8.18 Y8.18
G0 F1800 X128.016 Y88.261
M205 X3 Y3
G1 F1200 X128.016 Y120.084 E96.548
M205 X8.18 Y8.18
G0 F1800 X130.683 Y120.084
M205 X3 Y3
G1 F1200 X130.683 Y88.261 E98.13566
M205 X8.18 Y8.18
G0 F1800 X133.35 Y88.261
M205 X3 Y3
G1 F1200 X133.35 Y120.084 E99.72331
M205 X8.18 Y8.18
G0 F1800 X136.017 Y120.084
M205 X3 Y3
G1 F1200 X136.017 Y88.261 E101.31097
M205 X8.18 Y8.18
G0 F1800 X160.02 Y88.26
M205 X3 Y3
G1 F1200 X160.02 Y103.577 E102.07514
M205 X8.18 Y8.18
G0 F1800 X161.174 Y104.013
M205 X3 Y3
G1 F1200 X199.34 Y104.013 E103.97925
M205 X8.18 Y8.18
G0 F1800 X199.34 Y101.346
M205 X3 Y3
G1 F1200 X18.853 Y101.346 E112.98378
M205 X8.18 Y8.18
G0 F1800 X18.669 Y101.291
M205 X3 Y3
G1 F1200 X18.669 Y96.26 E113.23478
M205 X8.18 Y8.18
G0 F1800 X16.002 Y96.26
M205 X3 Y3
G1 F1200 X16.002 Y101.14 E113.47824
M205 X8.18 Y8.18
G0 F1800 X15.206 Y98.679
M205 X3 Y3
G1 F1200 X199.34 Y98.679 E122.66472
M205 X8.18 Y8.18
G0 F1800 X199.34 Y96.012
M205 X3 Y3
G1 F1200 X74.47 Y96.012 E128.89451
M205 X8.18 Y8.18
G0 F1800 X74.676 Y95.989
M205 X3 Y3
G1 F1200 X74.676 Y119.113 E130.04817
M205 X8.18 Y8.18
G0 F1800 X76.919 Y120.015
M205 X3 Y3
G1 F1200 X83.171 Y120.015 E130.36009
M205 X8.18 Y8.18
G0 F1800 X82.677 Y120.402
M205 X3 Y3
G1 F1200 X82.677 Y93.517 E131.70139
M205 X8.18 Y8.18
G0 F1800 X83.018 Y93.345
M205 X3 Y3
G1 F1200 X199.34 Y93.345 E137.50471
M205 X8.18 Y8.18
G0 F1800 X199.34 Y90.678
M205 X3 Y3
G1 F1200 X88.129 Y90.678 E143.05305
M205 X8.18 Y8.18
G0 F1800 X88.011 Y90.734
M205 X3 Y3
G1 F1200 X88.011 Y119.115 E144.46899
M205 X8.18 Y8.18
G0 F1800 X85.344 Y119.115
M205 X3 Y3
G1 F1200 X85.344 Y92.113 E145.81612
M205 X8.18 Y8.18
G0 F1800 X90.678 Y89.624
M205 X3 Y3
G1 F1200 X90.678 Y119.115 E147.28743
M205 X8.18 Y8.18
G0 F1800 X80.01 Y120.761
M205 X3 Y3
G1 F1200 X80.01 Y94.684 E148.58842
M205 X8.18 Y8.18
G0 F1800 X77.343 Y95.495
M205 X3 Y3
G1 F1200 X77.343 Y120.331 E149.82749
M205 X8.18 Y8.18
G0 F1800 X72.009 Y119.113
M205 X3 Y3
G1 F1200 X72.009 Y96.22 E150.96963
M205 X8.18 Y8.18
G0 F1800 X69.342 Y96.26
M205 X3 Y3
G1 F1200 X69.342 Y119.113 E152.10977
M205 X8.18 Y8.18
G0 F1800 X66.675 Y119.113
M205 X3 Y3
G1 F1200 X66.675 Y96.26 E153.24991
M205 X8.18 Y8.18
G0 F1800 X64.008 Y96.26
M205 X3 Y3
G1 F1200 X64.008 Y119.113 E154.39005
M205 X8.18 Y8.18
G0 F1800 X61.341 Y119.113
M205 X3 Y3
G1 F1200 X61.341 Y96.26 E155.53019
M205 X8.18 Y8.18
G0 F1800 X58.674 Y96.26
M205 X3 Y3
G1 F1200 X58.674 Y119.113 E156.67033
M205 X8.18 Y8.18
G0 F1800 X56.007 Y119.113
M205 X3 Y3
G1 F1200 X56.007 Y96.26 E157.81048
M205 X8.18 Y8.18
G0 F1800 X53.34 Y96.26
M205 X3 Y3
G1 F1200 X53.34 Y119.113 E158.95062
M205 X8.18 Y8.18
G0 F1800 X50.673 Y119.113
M205 X3 Y3
G1 F1200 X50.673 Y96.26 E160.09076
M205 X8.18 Y8.18
G0 F1800 X48.006 Y96.26
M205 X3 Y3
G1 F1200 X48.006 Y119.113 E161.2309
M205 X8.18 Y8.18
G0 F1800 X45.339 Y119.112
M205 X3 Y3
