;FLAVOR:Marlin
;TIME:16454
;Filament used: 13.7051m
;Layer height: 0.2
;MINX:17.1
;MINY:83.8
;MINZ:0.3
;MAXX:192.9
;MAXY:123.576
;MAXZ:19.9
;Generated with Cura_SteamEngine 4.2.1
M140 S60
M105
M190 S60
M104 S200
M105
M109 S200
M82 ;absolute extrusion mode
G21 ;metric values
G90 ;absolute positioning
M82 ;set extruder to absolute mode
M107 ;start with the fan off
G28 X0 Y0 ;move X/Y to min endstops
G28 Z0 ;move Z to min endstops
G1 Z15.0 F60 ;move the platform down 15mm
G92 E0 ;zero the extruded length
G1 F200 E3 ;extrude 3mm of feed stock
G92 E0 ;zero the extruded length again
G1 F60
M117 Printing...
G5
M141 S28
G92 E0
G92 E0
G1 F1500 E-6.5
;LAYER_COUNT:99
;LAYER:0
M107
M204 S300
M205 X8.18 Y8.18
G0 F1800 X19.886 Y91.837 Z0.3
M205 X3 Y3
;TYPE:SKIRT
G1 F1500 E0
G1 F1200 X20.22 Y91.81 E0.01672
G1 X20.54 Y91.801 E0.03269
G1 X20.63 Y91.8 E0.03718
G1 X44.603 Y91.8 E1.2332
G1 X47.4 Y91.76 E1.37275
G1 X50.117 Y91.645 E1.50843
G1 X52.863 Y91.45 E1.64577
G1 X55.569 Y91.182 E1.78143
G1 X58.292 Y90.834 E1.91839
G1 X60.993 Y90.409 E2.0548
G1 X63.701 Y89.906 E2.19222
G1 X66.349 Y89.336 E2.32735
G1 X68.989 Y88.689 E2.46296
G1 X71.669 Y87.952 E2.60163
G1 X74.274 Y87.154 E2.73755
G1 X77.576 Y86.028 E2.91161
G1 X79.308 Y85.402 E3.00349
G1 X79.421 Y85.364 E3.00943
G1 X80.494 Y85.021 E3.06563
G1 X80.595 Y84.99 E3.07091
G1 X81.092 Y84.849 E3.09668
G1 X81.245 Y84.81 E3.10456
G1 X82.829 Y84.444 E3.18566
G1 X82.936 Y84.421 E3.19112
G1 X83.556 Y84.3 E3.22264
G1 X83.691 Y84.277 E3.22947
G1 X84.756 Y84.116 E3.28321
G1 X84.843 Y84.104 E3.28759
G1 X85.2 Y84.06 E3.30554
G1 X85.26 Y84.053 E3.30855
G1 X86.182 Y83.957 E3.3548
G1 X86.272 Y83.949 E3.35931
G1 X86.933 Y83.899 E3.39238
G1 X87.01 Y83.894 E3.39623
G1 X88.196 Y83.833 E3.45547
G1 X88.288 Y83.83 E3.46007
G1 X88.997 Y83.814 E3.49545
G1 X89.033 Y83.813 E3.49724
G1 X90.195 Y83.8 E3.55522
G1 X189.039 Y83.8 E8.48657
G1 X189.737 Y83.81 E8.5214
G1 X190.24 Y83.857 E8.5466
G1 X190.73 Y83.983 E8.57184
G1 X191.194 Y84.185 E8.59709
G1 X191.62 Y84.457 E8.6223
G1 X191.998 Y84.792 E8.6475
G1 X192.318 Y85.183 E8.67271
G1 X192.573 Y85.62 E8.69795
G1 X192.756 Y86.091 E8.72316
G1 X192.863 Y86.585 E8.74838
G1 X192.89 Y86.92 E8.76515
G1 X192.899 Y87.24 E8.78112
G1 X192.9 Y87.33 E8.78561
G1 X192.9 Y114.808 E10.15649
G1 X192.89 Y115.535 E10.19277
G1 X192.843 Y116.038 E10.21797
G1 X192.717 Y116.528 E10.24321
G1 X192.516 Y116.992 E10.26844
G1 X192.244 Y117.418 E10.29365
G1 X191.909 Y117.797 E10.31889
G1 X191.335 Y118.236 E10.35494
G1 X190.13 Y118.958 E10.42503
G1 X188.121 Y120.188 E10.54255
G1 X184.87 Y122.326 E10.73667
G1 X183.894 Y122.998 E10.79579
G1 X183.457 Y123.251 E10.82098
G1 X182.985 Y123.432 E10.8462
G1 X182.49 Y123.536 E10.87144
G1 X182.137 Y123.561 E10.88909
G1 X181.577 Y123.571 E10.91704
G1 X181.52 Y123.572 E10.91988
G1 X30.548 Y123.575 E18.4519
G1 X28.592 Y123.576 E18.54949
G1 X28.546 Y123.576 E18.55178
G1 X27.894 Y123.567 E18.58432
G1 X27.39 Y123.52 E18.60957
G1 X27.033 Y123.436 E18.62787
G1 X26.558 Y123.296 E18.65257
G1 X26.485 Y123.274 E18.65638
G1 X24.806 Y122.735 E18.74435
G1 X22.157 Y121.965 E18.88198
G1 X21.768 Y121.824 E18.90262
G1 X21.601 Y121.751 E18.91172
G1 X21.156 Y121.513 E18.93689
G1 X20.753 Y121.207 E18.96214
G1 X20.403 Y120.842 E18.98737
G1 X20.173 Y120.52 E19.00711
G1 X19.365 Y119.233 E19.08292
G1 X19.335 Y119.185 E19.08575
G1 X19.206 Y118.971 E19.09821
G1 X18.225 Y117.401 E19.19058
G1 X18.206 Y117.37 E19.19239
G1 X17.827 Y116.748 E19.22873
G1 X17.556 Y116.186 E19.25986
G1 X17.382 Y115.712 E19.28505
G1 X17.217 Y115.05 E19.31908
G1 X17.174 Y114.741 E19.33465
G1 X17.161 Y114.643 E19.33958
G1 X17.139 Y114.439 E19.34982
G1 X17.122 Y114.157 E19.36391
G1 X17.102 Y113.103 E19.41651
G1 X17.101 Y113.044 E19.41945
G1 X17.1 Y111.146 E19.51414
G1 X17.1 Y111.099 E19.51649
G1 X17.113 Y110.171 E19.56279
G1 X17.116 Y110.082 E19.56723
G1 X17.13 Y109.749 E19.58386
G1 X17.13 Y109.74 E19.58431
G1 X17.222 Y107.69 E19.68669
G1 X17.269 Y104.931 E19.82435
G1 X17.238 Y102.193 E19.96096
G1 X17.116 Y99.242 E20.10831
G1 X17.114 Y99.204 E20.11021
G1 X17.101 Y98.765 E20.13212
G1 X17.1 Y98.67 E20.13686
G1 X17.1 Y95.652 E20.28743
G1 X17.11 Y94.963 E20.32181
G1 X17.158 Y94.459 E20.34707
G1 X17.284 Y93.97 E20.37226
G1 X17.485 Y93.506 E20.39749
G1 X17.757 Y93.08 E20.42271
G1 X18.093 Y92.702 E20.44794
G1 X18.484 Y92.381 E20.47318
G1 X18.92 Y92.126 E20.49838
G1 X19.392 Y91.944 E20.52361
G1 X19.886 Y91.837 E20.54883
M205 X8.18 Y8.18
G1 F1500 E14.04883
G0 F1800 X19.639 Y94.843
G0 X19.638 Y114.06
G0 X19.955 Y115.39
G0 X20.708 Y116.364
G0 X23 Y118.111
M205 X3 Y3
;TYPE:SUPPORT
G1 F1500 E20.54883
G1 F1200 X116.393 Y118.11 E25.20823
G1 X182 Y118.11 E28.48137
G1 X182 Y120.172 E28.58425
G1 X30.509 Y120.175 E36.14216
G1 X28 Y120.176 E36.26734
G1 X28 Y119.067 E36.32267
G1 X27.601 Y118.668 E36.35082
G1 X23 Y118.666 E36.58036
G1 X23 Y118.111 E36.60805
M205 X8.18 Y8.18
G0 F1800 X24.003 Y118.27
M205 X3 Y3
G1 F1200 X24.003 Y118.506 E36.61983
M205 X8.18 Y8.18
G0 F1800 X26.67 Y118.507
M205 X3 Y3
G1 F1200 X26.67 Y118.27 E36.63165
M205 X8.18 Y8.18
G0 F1800 X28.159 Y120.015
M205 X3 Y3
G1 F1200 X30.508 Y120.015 E36.74884
M205 X8.18 Y8.18
G0 F1800 X29.337 Y120.016
M205 X3 Y3
G1 F1200 X29.337 Y118.27 E36.83595
M205 X8.18 Y8.18
G0 F1800 X32.004 Y118.27
M205 X3 Y3
G1 F1200 X32.004 Y120.015 E36.92301
M205 X8.18 Y8.18
G0 F1800 X34.671 Y120.015
M205 X3 Y3
G1 F1200 X34.671 Y118.27 E37.01007
M205 X8.18 Y8.18
G0 F1800 X37.338 Y118.27
M205 X3 Y3
G1 F1200 X37.338 Y120.015 E37.09713
M205 X8.18 Y8.18
G0 F1800 X40.005 Y120.015
M205 X3 Y3
G1 F1200 X40.005 Y118.27 E37.18418
M205 X8.18 Y8.18
G0 F1800 X42.672 Y118.27
M205 X3 Y3
G1 F1200 X42.672 Y120.015 E37.27124
M205 X8.18 Y8.18
G0 F1800 X45.339 Y120.015
M205 X3 Y3
G1 F1200 X45.339 Y118.27 E37.3583
M205 X8.18 Y8.18
G0 F1800 X48.006 Y118.27
M205 X3 Y3
G1 F1200 X48.006 Y120.015 E37.44536
M205 X8.18 Y8.18
G0 F1800 X50.673 Y120.015
M205 X3 Y3
G1 F1200 X50.673 Y118.27 E37.53242
M205 X8.18 Y8.18
G0 F1800 X53.34 Y118.27
M205 X3 Y3
G1 F1200 X53.34 Y120.015 E37.61948
M205 X8.18 Y8.18
G0 F1800 X56.007 Y120.015
M205 X3 Y3
G1 F1200 X56.007 Y118.27 E37.70653
M205 X8.18 Y8.18
G0 F1800 X58.674 Y118.27
M205 X3 Y3
G1 F1200 X58.674 Y120.015 E37.79359
M205 X8.18 Y8.18
G0 F1800 X61.341 Y120.015
M205 X3 Y3
G1 F1200 X61.341 Y118.27 E37.88065
M205 X8.18 Y8.18
G0 F1800 X64.008 Y118.27
M205 X3 Y3
G1 F1200 X64.008 Y120.015 E37.96771
M205 X8.18 Y8.18
G0 F1800 X66.675 Y120.015
M205 X3 Y3
G1 F1200 X66.675 Y118.27 E38.05477
M205 X8.18 Y8.18
G0 F1800 X69.342 Y118.27
M205 X3 Y3
G1 F1200 X69.342 Y120.015 E38.14183
M205 X8.18 Y8.18
G0 F1800 X72.009 Y120.015
M205 X3 Y3
G1 F1200 X72.009 Y118.27 E38.22888
M205 X8.18 Y8.18
G0 F1800 X74.676 Y118.27
M205 X3 Y3
G1 F1200 X74.676 Y120.015 E38.31594
M205 X8.18 Y8.18
G0 F1800 X77.343 Y120.015
M205 X3 Y3
G1 F1200 X77.343 Y118.27 E38.403
M205 X8.18 Y8.18
G0 F1800 X80.01 Y118.27
M205 X3 Y3
G1 F1200 X80.01 Y120.015 E38.49006
M205 X8.18 Y8.18
G0 F1800 X82.677 Y120.014
M205 X3 Y3
G1 F1200 X82.677 Y118.27 E38.57707
M205 X8.18 Y8.18
G0 F1800 X85.344 Y118.27
M205 X3 Y3
G1 F1200 X85.344 Y120.014 E38.66408
M205 X8.18 Y8.18
G0 F1800 X88.011 Y120.014
M205 X3 Y3
G1 F1200 X88.011 Y118.27 E38.75109
M205 X8.18 Y8.18
G0 F1800 X90.678 Y118.27
M205 X3 Y3
G1 F1200 X90.678 Y120.014 E38.83809
M205 X8.18 Y8.18
G0 F1800 X93.345 Y120.014
M205 X3 Y3
G1 F1200 X93.345 Y118.27 E38.9251
M205 X8.18 Y8.18
G0 F1800 X96.012 Y118.27
M205 X3 Y3
G1 F1200 X96.012 Y120.014 E39.01211
M205 X8.18 Y8.18
G0 F1800 X98.679 Y120.014
M205 X3 Y3
G1 F1200 X98.679 Y118.27 E39.09912
M205 X8.18 Y8.18
G0 F1800 X101.346 Y118.27
M205 X3 Y3
G1 F1200 X101.346 Y120.014 E39.18613
M205 X8.18 Y8.18
G0 F1800 X104.013 Y120.014
M205 X3 Y3
G1 F1200 X104.013 Y118.27 E39.27314
M205 X8.18 Y8.18
G0 F1800 X106.68 Y118.27
M205 X3 Y3
G1 F1200 X106.68 Y120.014 E39.36014
M205 X8.18 Y8.18
G0 F1800 X109.347 Y120.014
M205 X3 Y3
G1 F1200 X109.347 Y118.27 E39.44715
M205 X8.18 Y8.18
G0 F1800 X112.014 Y118.27
M205 X3 Y3
G1 F1200 X112.014 Y120.014 E39.53416
M205 X8.18 Y8.18
G0 F1800 X114.681 Y120.014
M205 X3 Y3
G1 F1200 X114.681 Y118.27 E39.62117
M205 X8.18 Y8.18
G0 F1800 X117.348 Y118.27
M205 X3 Y3
G1 F1200 X117.348 Y120.014 E39.70818
M205 X8.18 Y8.18
G0 F1800 X120.015 Y120.014
M205 X3 Y3
G1 F1200 X120.015 Y118.27 E39.79519
M205 X8.18 Y8.18
G0 F1800 X122.682 Y118.27
M205 X3 Y3
G1 F1200 X122.682 Y120.014 E39.8822
M205 X8.18 Y8.18
G0 F1800 X125.349 Y120.014
M205 X3 Y3
G1 F1200 X125.349 Y118.27 E39.9692
M205 X8.18 Y8.18
G0 F1800 X128.016 Y118.27
M205 X3 Y3
G1 F1200 X128.016 Y120.014 E40.05621
M205 X8.18 Y8.18
G0 F1800 X130.683 Y120.014
M205 X3 Y3
G1 F1200 X130.683 Y118.27 E40.14322
M205 X8.18 Y8.18
G0 F1800 X133.35 Y118.27
M205 X3 Y3
G1 F1200 X133.35 Y120.013 E40.23018
M205 X8.18 Y8.18
G0 F1800 X136.017 Y120.013
M205 X3 Y3
G1 F1200 X136.017 Y118.27 E40.31714
M205 X8.18 Y8.18
G0 F1800 X138.684 Y118.27
M205 X3 Y3
G1 F1200 X138.684 Y120.013 E40.4041
M205 X8.18 Y8.18
G0 F1800 X141.351 Y120.013
M205 X3 Y3
G1 F1200 X141.351 Y118.27 E40.49106
M205 X8.18 Y8.18
G0 F1800 X144.018 Y118.27
M205 X3 Y3
G1 F1200 X144.018 Y120.013 E40.57801
M205 X8.18 Y8.18
G0 F1800 X146.685 Y120.013
M205 X3 Y3
G1 F1200 X146.685 Y118.27 E40.66497
M205 X8.18 Y8.18
G0 F1800 X149.352 Y118.27
M205 X3 Y3
G1 F1200 X149.352 Y120.013 E40.75193
M205 X8.18 Y8.18
G0 F1800 X152.019 Y120.013
M205 X3 Y3
G1 F1200 X152.019 Y118.27 E40.83889
M205 X8.18 Y8.18
G0 F1800 X154.686 Y118.27
M205 X3 Y3
G1 F1200 X154.686 Y120.013 E40.92585
M205 X8.18 Y8.18
G0 F1800 X157.353 Y120.013
M205 X3 Y3
G1 F1200 X157.353 Y118.27 E41.01281
M205 X8.18 Y8.18
G0 F1800 X160.02 Y118.27
M205 X3 Y3
G1 F1200 X160.02 Y120.013 E41.09977
M205 X8.18 Y8.18
G0 F1800 X162.687 Y120.013
M205 X3 Y3
G1 F1200 X162.687 Y118.27 E41.18673
M205 X8.18 Y8.18
G0 F1800 X165.354 Y118.27
M205 X3 Y3
G1 F1200 X165.354 Y120.013 E41.27368
M205 X8.18 Y8.18
G0 F1800 X168.021 Y120.013
M205 X3 Y3
G1 F1200 X168.021 Y118.27 E41.36064
M205 X8.18 Y8.18
G0 F1800 X170.688 Y118.27
M205 X3 Y3
G1 F1200 X170.688 Y120.013 E41.4476
M205 X8.18 Y8.18
G0 F1800 X173.355 Y120.013
M205 X3 Y3
G1 F1200 X173.355 Y118.27 E41.53456
M205 X8.18 Y8.18
G0 F1800 X176.022 Y118.27
M205 X3 Y3
G1 F1200 X176.022 Y120.013 E41.62152
M205 X8.18 Y8.18
G0 F1800 X178.689 Y120.013
M205 X3 Y3
G1 F1200 X178.689 Y118.27 E41.70848
M205 X8.18 Y8.18
G0 F1800 X181.356 Y118.27
M205 X3 Y3
G1 F1200 X181.356 Y120.013 E41.79544
M205 X8.18 Y8.18
G1 F1500 E35.29544
;MESH:v0_16_Test.stl
G0 F1800 X181.357 Y117.648
G0 X181.356 Y116.383
G0 X152.295 Y108.861
G0 X151.576 Y108.057
G0 X150.943 Y107.647
G0 X149.633 Y107.238
G0 X148.859 Y107.219
G0 X147.347 Y107.582
G0 X147.392 Y107.671
M205 X3 Y3
;TYPE:WALL-INNER
G1 F1500 E41.79544
G1 F1200 X146.748 Y108.088 E41.83371
G1 X146.198 Y108.624 E41.87203
G1 X145.767 Y109.258 E41.91027
G1 X145.472 Y109.953 E41.94794
G1 X145.32 Y110.696 E41.98578
G1 X145.304 Y111.31 E42.01642
G1 X145.416 Y112.051 E42.05381
G1 X145.673 Y112.76 E42.09143
G1 X146.07 Y113.416 E42.12969
G1 X146.587 Y113.975 E42.16768
G1 X147.075 Y114.345 E42.19823
G1 X147.743 Y114.686 E42.23565
G1 X148.481 Y114.895 E42.27391
G1 X149.246 Y114.952 E42.31219
G1 X150.008 Y114.857 E42.3505
G1 X150.736 Y114.611 E42.38883
G1 X151.398 Y114.229 E42.42697
G1 X151.965 Y113.73 E42.46465
G1 X152.43 Y113.12 E42.50292
G1 X152.762 Y112.437 E42.5408
G1 X152.928 Y111.853 E42.57109
G1 X152.998 Y111.273 E42.60024
G1 X152.96 Y110.526 E42.63756
G1 X152.777 Y109.799 E42.67496
G1 X152.524 Y109.243 E42.70543
G1 X152.102 Y108.624 E42.74281
G1 X151.552 Y108.088 E42.78112
G1 X150.925 Y107.682 E42.81839
G1 X150.361 Y107.443 E42.84895
G1 X149.629 Y107.277 E42.8864
G1 X148.862 Y107.258 E42.92467
G1 X148.107 Y107.392 E42.96293
G1 X147.392 Y107.671 E43.00122
M205 X8.18 Y8.18
G0 F1800 X147.347 Y107.582
G0 X27.665 Y110.889
G0 X24.63 Y110.92
G0 X24.7 Y110.85
M205 X3 Y3
G1 F1200 X27.664 Y110.85 E43.1491
G1 X28.263 Y110.819 E43.17902
G1 X28.973 Y110.625 E43.21574
G1 X29.537 Y110.322 E43.24768
G1 X30.1 Y109.834 E43.28485
G1 X30.538 Y109.214 E43.32273
G1 X30.811 Y108.505 E43.36063
G1 X30.9 Y107.787 E43.39672
G1 X30.9 Y104.212 E43.57508
G1 X30.87 Y103.538 E43.60874
G1 X30.668 Y102.812 E43.64634
G1 X30.294 Y102.151 E43.68423
G1 X29.77 Y101.599 E43.7222
G1 X29.127 Y101.194 E43.76011
G1 X28.406 Y100.955 E43.79801
G1 X27.673 Y100.9 E43.83468
G1 X25.9 Y100.9 E43.92313
G1 X25.9 Y98.4 E44.04786
G1 X20.9 Y98.4 E44.29731
G1 X20.9 Y95.6 E44.437
G1 X60.351 Y95.6 E46.40522
G1 X61.416 Y95.492 E46.45863
G1 X62.474 Y95.362 E46.51181
G1 X64.39 Y95.07 E46.6085
G1 X65.98 Y94.762 E46.6893
G1 X67.624 Y94.37 E46.77362
G1 X68.957 Y93.986 E46.84283
G1 X70.364 Y93.512 E46.9169
G1 X71.853 Y92.933 E46.99661
G1 X72.739 Y92.549 E47.04478
G1 X73.746 Y92.084 E47.10012
G1 X77.281 Y90.345 E47.29667
G1 X78.462 Y89.8 E47.36156
G1 X79.327 Y89.435 E47.4084
G1 X80.159 Y89.117 E47.45283
G1 X81.029 Y88.821 E47.49868
G1 X81.938 Y88.549 E47.54602
G1 X82.902 Y88.305 E47.59563
G1 X83.955 Y88.085 E47.6493
G1 X85.051 Y87.904 E47.70472
G1 X86.351 Y87.751 E47.77002
G1 X87.936 Y87.639 E47.8493
G1 X89.663 Y87.6 E47.93548
G1 X189.1 Y87.6 E52.89641
G1 X189.1 Y114.9 E54.25841
G1 X182.622 Y114.9 E54.5816
G1 X182.142 Y115.027 E54.60637
G1 X181.732 Y115.434 E54.6352
G1 X181.6 Y115.92 E54.66032
G1 X181.6 Y116.383 E54.68342
G1 X124.817 Y116.388 E57.51634
G1 X23.4 Y116.383 E62.57605
G1 X23.4 Y115.967 E62.5968
G1 X22.352 Y115.842 E62.64946
G1 X21.921 Y115.68 E62.67243
G1 X21.595 Y115.465 E62.69191
G1 X21.323 Y115.188 E62.71128
G1 X21.09 Y114.818 E62.7331
G1 X20.962 Y114.468 E62.75169
G1 X20.901 Y113.974 E62.77652
G1 X20.9 Y110.503 E62.94969
G1 X20.924 Y109.975 E62.97606
G1 X21.046 Y109.529 E62.99913
G1 X21.272 Y109.128 E63.02209
G1 X21.596 Y108.786 E63.0456
G1 X21.901 Y108.581 E63.06393
G1 X22.341 Y108.411 E63.08746
G1 X22.723 Y108.353 E63.10674
G1 X24.5 Y108.35 E63.1954
G1 X24.7 Y108.35 E63.20537
G1 X24.7 Y108.55 E63.21183
G1 X24.7 Y110.85 E63.32658
M205 X8.18 Y8.18
G0 F1800 X25.1 Y110.45
M205 X3 Y3
;TYPE:WALL-OUTER
G1 F1200 X27.654 Y110.45 E63.454
G1 X28.199 Y110.422 E63.48123
G1 X28.824 Y110.251 E63.51356
G1 X29.309 Y109.991 E63.54101
G1 X29.801 Y109.564 E63.57351
G1 X30.183 Y109.024 E63.60651
G1 X30.42 Y108.407 E63.63949
G1 X30.5 Y107.762 E63.67191
G1 X30.5 Y104.221 E63.84857
G1 X30.472 Y103.601 E63.87954
G1 X30.296 Y102.966 E63.91241
G1 X29.97 Y102.391 E63.94539
G1 X29.514 Y101.911 E63.97842
G1 X28.955 Y101.558 E64.0114
G1 X28.327 Y101.35 E64.04441
G1 X27.658 Y101.3 E64.07788
G1 X25.5 Y101.3 E64.18554
G1 X25.5 Y98.8 E64.31027
G1 X20.5 Y98.8 E64.55972
G1 X20.5 Y95.2 E64.73932
G1 X60.331 Y95.2 E66.7265
G1 X61.371 Y95.094 E66.77865
G1 X62.42 Y94.966 E66.83138
G1 X64.322 Y94.676 E66.92736
G1 X65.895 Y94.371 E67.0073
G1 X67.522 Y93.983 E67.09075
G1 X68.838 Y93.604 E67.15907
G1 X70.228 Y93.136 E67.23225
G1 X71.701 Y92.563 E67.3111
G1 X72.576 Y92.184 E67.35867
G1 X73.574 Y91.723 E67.41352
G1 X77.104 Y89.986 E67.6098
G1 X78.306 Y89.431 E67.67585
G1 X79.171 Y89.066 E67.72269
G1 X80.022 Y88.741 E67.76814
G1 X80.9 Y88.442 E67.81441
G1 X81.84 Y88.161 E67.86336
G1 X82.82 Y87.913 E67.91379
G1 X83.877 Y87.692 E67.96766
G1 X84.986 Y87.509 E68.02374
G1 X86.318 Y87.352 E68.09066
G1 X87.92 Y87.239 E68.17078
G1 X89.654 Y87.2 E68.25731
G1 X189.5 Y87.2 E73.23865
G1 X189.5 Y115.3 E74.64056
G1 X182.674 Y115.3 E74.98111
G1 X182.348 Y115.386 E74.99793
G1 X182.09 Y115.642 E75.01607
G1 X182 Y115.973 E75.03318
G1 X182 Y116.783 E75.07359
G1 X124.817 Y116.788 E77.92646
G1 X23 Y116.783 E83.00613
G1 X23 Y116.322 E83.02913
