;FLAVOR:Marlin
;TIME:17135
;Filament used: 11.3388m
;Layer height: 0.2
;MINX:7.1
;MINY:82.802
;MINZ:0.3
;MAXX:202.9
;MAXY:126.34
;MAXZ:25.1
;Generated with Cura_SteamEngine 4.2.1
M140 S60
M105
M190 S60
M104 S200
M105
M109 S200
M82 ;absolute extrusion mode
G21 ;metric values
G90 ;absolute positioning
M82 ;set extruder to absolute mode
M107 ;start with the fan off
G28 X0 Y0 ;move X/Y to min endstops
G28 Z0 ;move Z to min endstops
G1 Z15.0 F60 ;move the platform down 15mm
G92 E0 ;zero the extruded length
G1 F200 E3 ;extrude 3mm of feed stock
G92 E0 ;zero the extruded length again
G1 F60
M117 Printing...
G5
M141 S28
G92 E0
G92 E0
G1 F1500 E-6.5
;LAYER_COUNT:125
;LAYER:0
M107
M204 S300
M205 X8.18 Y8.18
G0 F1800 X9.88 Y92.531 Z0.3
M205 X3 Y3
;TYPE:SKIRT
G1 F1500 E0
G1 F1200 X10.365 Y92.486 E0.0243
G1 X10.922 Y92.476 E0.05209
G1 X10.979 Y92.475 E0.05494
G1 X54.757 Y92.475 E2.23903
G1 X57.554 Y92.435 E2.37859
G1 X60.271 Y92.32 E2.51426
G1 X63.018 Y92.125 E2.65165
G1 X65.722 Y91.857 E2.78722
G1 X68.446 Y91.509 E2.92422
G1 X71.146 Y91.084 E3.06059
G1 X73.855 Y90.581 E3.19805
G1 X76.479 Y90.016 E3.33196
G1 X79.191 Y89.352 E3.47126
G1 X81.798 Y88.634 E3.60617
G1 X84.445 Y87.824 E3.74427
G1 X87.035 Y86.95 E3.88064
G1 X89.006 Y86.231 E3.98532
G1 X89.462 Y86.059 E4.00963
G1 X89.559 Y86.024 E4.01478
G1 X90.102 Y85.839 E4.0434
G1 X90.22 Y85.801 E4.04958
G1 X92.505 Y85.12 E4.16853
G1 X95.127 Y84.257 E4.30625
G1 X98.553 Y83.006 E4.48821
G1 X99.04 Y82.871 E4.51343
G1 X99.537 Y82.814 E4.53838
G1 X99.821 Y82.804 E4.55256
G1 X99.935 Y82.802 E4.55825
G1 X104.438 Y82.804 E4.7829
G1 X104.482 Y82.804 E4.7851
G1 X105.193 Y82.814 E4.82058
G1 X105.639 Y82.852 E4.84291
G1 X105.858 Y82.886 E4.85396
G1 X105.909 Y82.894 E4.85654
G1 X108.278 Y83.301 E4.97646
G1 X111.011 Y83.692 E5.1142
G1 X113.704 Y83.998 E5.24942
G1 X116.417 Y84.231 E5.38527
G1 X119.165 Y84.387 E5.52259
G1 X121.926 Y84.465 E5.66039
G1 X123.338 Y84.476 E5.73084
G1 X198.876 Y84.475 E9.49944
G1 X198.922 Y84.475 E9.50174
G1 X199.62 Y84.485 E9.53656
G1 X200.123 Y84.532 E9.56177
G1 X200.613 Y84.658 E9.58701
G1 X201.077 Y84.86 E9.61226
G1 X201.503 Y85.132 E9.63747
G1 X201.807 Y85.393 E9.65746
G1 X201.923 Y85.506 E9.66554
G1 X202.256 Y85.886 E9.69075
G1 X202.525 Y86.314 E9.71597
G1 X202.723 Y86.779 E9.74118
G1 X202.846 Y87.27 E9.76644
G1 X202.889 Y87.738 E9.78988
G1 X202.899 Y88.27 E9.81643
G1 X202.9 Y88.33 E9.81942
G1 X202.9 Y111.986 E10.99963
G1 X202.89 Y112.679 E11.0342
G1 X202.842 Y113.183 E11.05946
G1 X202.717 Y113.672 E11.08464
G1 X202.515 Y114.136 E11.10989
G1 X202.243 Y114.562 E11.13511
G1 X201.8 Y115.039 E11.16759
G1 X201.238 Y115.532 E11.20488
G1 X201.12 Y115.631 E11.21257
G1 X199.817 Y116.667 E11.29562
G1 X197.737 Y118.419 E11.4313
G1 X195.706 Y120.231 E11.56709
G1 X194.932 Y120.961 E11.62017
G1 X194.902 Y120.989 E11.62222
G1 X194.257 Y121.582 E11.66593
G1 X193.859 Y121.893 E11.69113
G1 X193.417 Y122.139 E11.71636
G1 X192.941 Y122.311 E11.74162
G1 X192.203 Y122.424 E11.77886
G1 X191.633 Y122.444 E11.80732
G1 X191.521 Y122.446 E11.81291
G1 X188.634 Y122.446 E11.95694
G1 X185.837 Y122.486 E12.0965
G1 X183.12 Y122.601 E12.23217
G1 X180.373 Y122.796 E12.36956
G1 X177.669 Y123.064 E12.50513
G1 X174.945 Y123.412 E12.64213
G1 X172.245 Y123.837 E12.77849
G1 X169.536 Y124.34 E12.91596
G1 X166.912 Y124.905 E13.04987
G1 X164.212 Y125.567 E13.18856
G1 X163.602 Y125.736 E13.22014
G1 X163.554 Y125.749 E13.22262
G1 X162.188 Y126.106 E13.29306
G1 X161.672 Y126.197 E13.3192
G1 X160.975 Y126.261 E13.35412
G1 X160.877 Y126.268 E13.35902
G1 X160.027 Y126.32 E13.40151
G1 X159.884 Y126.326 E13.40865
G1 X159.027 Y126.34 E13.45141
G1 X158.876 Y126.338 E13.45895
G1 X158.168 Y126.316 E13.49429
G1 X158.075 Y126.312 E13.49893
G1 X157.427 Y126.273 E13.53132
G1 X157.361 Y126.269 E13.53462
G1 X156.668 Y126.213 E13.5693
G1 X156.402 Y126.18 E13.58268
G1 X156.106 Y126.131 E13.59764
G1 X153.367 Y125.716 E13.73585
G1 X150.665 Y125.382 E13.87168
G1 X147.926 Y125.124 E14.00894
G1 X145.207 Y124.944 E14.14488
G1 X142.46 Y124.841 E14.28203
G1 X139.706 Y124.814 E14.41943
G1 X136.988 Y124.866 E14.55506
G1 X134.273 Y124.994 E14.69066
G1 X131.531 Y125.201 E14.82785
G1 X128.79 Y125.487 E14.96534
G1 X126.427 Y125.796 E15.08424
G1 X125.904 Y125.87 E15.11059
G1 X125.552 Y125.9 E15.12821
G1 X125.229 Y125.91 E15.14434
G1 X125.13 Y125.912 E15.14928
G1 X120.916 Y125.912 E15.35951
G1 X120.226 Y125.902 E15.39394
G1 X120.047 Y125.894 E15.40288
G1 X119.763 Y125.874 E15.41708
G1 X116.99 Y125.716 E15.55565
G1 X114.239 Y125.638 E15.69296
G1 X111.517 Y125.637 E15.82876
G1 X108.775 Y125.713 E15.96561
G1 X105.533 Y125.898 E16.12762
G1 X105.44 Y125.902 E16.13226
G1 X105.12 Y125.911 E16.14823
G1 X105.03 Y125.912 E16.15272
G1 X100.816 Y125.912 E16.36296
G1 X100.116 Y125.902 E16.39789
G1 X99.413 Y125.813 E16.43324
G1 X98.973 Y125.707 E16.45582
G1 X98.915 Y125.693 E16.4588
G1 X97.15 Y125.233 E16.54979
G1 X94.479 Y124.619 E16.68653
G1 X91.782 Y124.075 E16.82379
G1 X89.088 Y123.616 E16.96013
G1 X86.377 Y123.229 E17.09675
G1 X83.672 Y122.921 E17.23258
G1 X80.963 Y122.691 E17.36822
G1 X78.217 Y122.535 E17.50544
G1 X75.451 Y122.456 E17.64349
G1 X74.067 Y122.446 E17.71254
G1 X18.624 Y122.447 E20.4786
G1 X18.578 Y122.447 E20.4809
G1 X17.881 Y122.437 E20.51567
G1 X17.569 Y122.417 E20.53127
G1 X14.821 Y122.107 E20.66924
G1 X13.146 Y121.965 E20.75311
G1 X13.1 Y121.961 E20.75541
G1 X12.618 Y121.913 E20.77958
G1 X12.12 Y121.824 E20.80481
G1 X11.643 Y121.657 E20.83003
G1 X11.198 Y121.417 E20.85525
G1 X10.725 Y121.043 E20.88534
G1 X10.592 Y120.916 E20.89451
G1 X10.255 Y120.539 E20.91974
G1 X10.065 Y120.261 E20.93654
G1 X9.868 Y119.936 E20.9555
G1 X9.846 Y119.898 E20.95769
G1 X8.802 Y118.121 E21.06051
G1 X8.013 Y116.843 E21.13544
G1 X7.857 Y116.559 E21.15161
G1 X7.568 Y115.963 E21.18466
G1 X7.33 Y115.289 E21.22032
G1 X7.219 Y114.81 E21.24485
G1 X7.137 Y114.173 E21.27689
G1 X7.11 Y113.154 E21.32775
G1 X7.109 Y113.08 E21.33144
G1 X7.102 Y111.1 E21.43022
G1 X7.102 Y111.056 E21.43242
G1 X7.113 Y109.995 E21.48535
G1 X7.115 Y109.907 E21.48974
G1 X7.164 Y108.612 E21.5544
G1 X7.167 Y108.556 E21.5572
G1 X7.188 Y108.175 E21.57623
G1 X7.259 Y105.432 E21.71313
G1 X7.252 Y102.711 E21.84888
G1 X7.167 Y99.913 E21.98854
G1 X7.129 Y99.212 E22.02356
G1 X7.126 Y99.153 E22.02651
G1 X7.107 Y98.619 E22.05317
G1 X7.105 Y98.544 E22.05691
G1 X7.1 Y98.135 E22.07732
G1 X7.1 Y96.432 E22.16228
G1 X7.11 Y95.754 E22.19611
G1 X7.158 Y95.25 E22.22137
G1 X7.284 Y94.761 E22.24656
G1 X7.485 Y94.297 E22.27179
G1 X7.757 Y93.871 E22.297
G1 X8.008 Y93.578 E22.31625
G1 X8.12 Y93.462 E22.3243
G1 X8.499 Y93.127 E22.34953
G1 X8.926 Y92.856 E22.37476
G1 X9.39 Y92.656 E22.39997
G1 X9.88 Y92.531 E22.4252
M205 X8.18 Y8.18
G0 F1800 X10.5 Y95.875
M205 X3 Y3
;TYPE:SUPPORT
G1 F1200 X70.22 Y95.875 E25.40464
G1 X71.108 Y95.867 E25.44895
G1 X73.662 Y95.781 E25.57644
G1 X74.033 Y95.339 E25.60523
G1 X73.876 Y94.236 E25.66081
G1 X74.729 Y94.1 E25.70391
G1 X75.075 Y94.05 E25.72135
G1 X77.497 Y93.652 E25.8438
G1 X78.468 Y93.35 E25.89454
G1 X80.518 Y92.619 E26.00312
G1 X80.857 Y93.556 E26.05283
G1 X81.396 Y93.771 E26.08178
G1 X83.502 Y92.701 E26.19963
G1 X85.608 Y91.564 E26.31904
G1 X87.317 Y90.665 E26.41538
G1 X88.314 Y90.18 E26.47069
G1 X89.262 Y89.767 E26.52228
G1 X90.072 Y89.444 E26.56579
G1 X90.944 Y89.133 E26.61197
G1 X91.87 Y88.851 E26.66027
G1 X92.735 Y88.626 E26.70486
G1 X93.92 Y88.368 E26.76536
G1 X94.956 Y88.196 E26.81776
G1 X96.305 Y88.036 E26.88553
G1 X99.47 Y87.8 E27.04387
G1 X99.848 Y87.393 E27.07158
G1 X99.848 Y86.201 E27.13105
G1 X104.953 Y86.204 E27.38574
G1 X104.953 Y87.478 E27.4493
G1 X105.352 Y87.877 E27.47745
G1 X142.958 Y87.875 E29.35362
G1 X199.5 Y87.875 E32.17452
G1 X199.5 Y112.565 E33.4063
G1 X199.49 Y112.575 E33.40701
G1 X192.399 Y112.576 E33.76078
G1 X192 Y112.975 E33.78893
G1 X192 Y119.046 E34.09182
G1 X161.452 Y119.046 E35.61586
G1 X161.056 Y119.454 E35.64423
G1 X161.17 Y122.837 E35.8131
G1 X160.008 Y122.925 E35.87124
G1 X159.223 Y122.946 E35.91042
G1 X158.44 Y122.932 E35.94949
G1 X157.121 Y122.845 E36.01544
G1 X157.234 Y119.454 E36.18471
G1 X156.838 Y119.046 E36.21308
G1 X125.659 Y119.046 E37.7686
G1 X125.26 Y119.445 E37.79675
G1 X125.26 Y122.512 E37.94977
G1 X120.464 Y122.512 E38.18904
G1 X120.596 Y119.457 E38.3416
G1 X120.2 Y119.046 E38.37007
G1 X105.559 Y119.046 E39.10051
G1 X105.16 Y119.445 E39.12867
G1 X105.16 Y122.512 E39.28168
G1 X100.364 Y122.512 E39.52095
G1 X100.496 Y119.457 E39.67351
G1 X100.1 Y119.046 E39.70198
G1 X17.999 Y119.047 E43.79802
G1 X17.49 Y118.537 E43.83397
G1 X13 Y118.537 E44.05797
G1 X13 Y116.757 E44.14678
G1 X12.736 Y116.322 E44.17216
G1 X11.532 Y115.691 E44.23998
G1 X11.488 Y115.655 E44.24282
G1 X11.112 Y115.338 E44.26735
G1 X10.82 Y114.939 E44.29202
G1 X10.605 Y114.454 E44.31849
G1 X10.512 Y114.004 E44.34141
G1 X10.5 Y110.359 E44.52327
G1 X10.515 Y109.749 E44.55371
G1 X10.639 Y109.19 E44.58227
G1 X10.889 Y108.698 E44.60981
G1 X11.267 Y108.258 E44.63875
G1 X11.599 Y108.015 E44.65927
G1 X12.139 Y107.775 E44.68875
G1 X12.694 Y107.679 E44.71686
G1 X15.1 Y107.675 E44.83689
G1 X15.1 Y109.776 E44.94171
G1 X15.499 Y110.175 E44.96986
G1 X17.589 Y110.175 E45.07413
G1 X18.197 Y110.148 E45.1045
G1 X18.836 Y109.97 E45.13759
G1 X19.412 Y109.646 E45.17056
G1 X19.902 Y109.17 E45.20464
G1 X20.232 Y108.654 E45.2352
G1 X20.455 Y107.988 E45.27024
G1 X20.497 Y107.55 E45.29219
G1 X20.5 Y104.304 E45.45414
G1 X20.486 Y103.467 E45.4959
G1 X20.372 Y102.965 E45.52158
G1 X20.122 Y102.399 E45.55245
G1 X19.702 Y101.847 E45.58706
G1 X19.289 Y101.524 E45.61321
G1 X18.817 Y101.274 E45.63986
G1 X18.214 Y101.106 E45.67109
G1 X17.553 Y101.075 E45.7041
G1 X15.5 Y101.075 E45.80653
G1 X15.5 Y98.974 E45.91135
G1 X15.101 Y98.575 E45.9395
G1 X10.5 Y98.575 E46.16905
G1 X10.5 Y95.875 E46.30375
M205 X8.18 Y8.18
G0 F1800 X154.594 Y105.908
M205 X3 Y3
G1 F1200 X154.548 Y106.605 E46.3386
G1 X154.602 Y107.28 E46.37238
G1 X154.759 Y107.955 E46.40696
G1 X155.016 Y108.596 E46.44141
G1 X155.359 Y109.186 E46.47546
G1 X155.793 Y109.724 E46.50994
G1 X156.295 Y110.184 E46.54391
G1 X156.866 Y110.571 E46.57833
G1 X157.489 Y110.869 E46.61278
G1 X158.139 Y111.066 E46.64667
G1 X158.825 Y111.167 E46.68126
G1 X159.511 Y111.164 E46.71549
G1 X160.192 Y111.057 E46.74988
G1 X160.845 Y110.854 E46.78399
G1 X161.465 Y110.552 E46.8184
G1 X162.026 Y110.166 E46.85237
G1 X162.534 Y109.696 E46.8869
G1 X162.963 Y109.155 E46.92135
G1 X163.302 Y108.559 E46.95556
G1 X163.553 Y107.919 E46.98985
G1 X163.704 Y107.247 E47.02422
G1 X163.753 Y106.55 E47.05908
G1 X163.698 Y105.868 E47.09321
G1 X163.541 Y105.194 E47.12774
G1 X163.286 Y104.557 E47.16197
G1 X162.937 Y103.959 E47.19651
G1 X162.508 Y103.428 E47.23057
G1 X161.999 Y102.961 E47.26503
G1 X161.428 Y102.577 E47.29936
G1 X160.808 Y102.28 E47.33366
G1 X160.156 Y102.083 E47.36764
G1 X159.467 Y101.982 E47.40238
G1 X158.782 Y101.987 E47.43656
G1 X158.098 Y102.096 E47.47111
G1 X157.449 Y102.3 E47.50505
G1 X156.827 Y102.604 E47.53959
G1 X156.26 Y102.994 E47.57393
G1 X155.763 Y103.458 E47.60785
G1 X155.334 Y104.001 E47.64237
G1 X154.992 Y104.602 E47.67687
G1 X154.745 Y105.239 E47.71096
G1 X154.594 Y105.908 E47.74517
M205 X8.18 Y8.18
G0 F1800 X154.393 Y106.68
M205 X3 Y3
G1 F1200 X20.657 Y106.68 E54.41729
M205 X8.18 Y8.18
G0 F1800 X20.654 Y104.013
M205 X3 Y3
G1 F1200 X155.143 Y104.013 E61.12697
M205 X8.18 Y8.18
G0 F1800 X154.686 Y104.948
M205 X3 Y3
G1 F1200 X154.686 Y88.035 E61.97077
M205 X8.18 Y8.18
G0 F1800 X152.019 Y88.035
M205 X3 Y3
G1 F1200 X152.019 Y118.886 E63.50993
M205 X8.18 Y8.18
G0 F1800 X149.352 Y118.886
M205 X3 Y3
G1 F1200 X149.352 Y88.035 E65.04909
M205 X8.18 Y8.18
G0 F1800 X146.685 Y88.035
M205 X3 Y3
G1 F1200 X146.685 Y118.886 E66.58826
M205 X8.18 Y8.18
G0 F1800 X144.018 Y118.886
M205 X3 Y3
G1 F1200 X144.018 Y88.035 E68.12742
M205 X8.18 Y8.18
G0 F1800 X141.351 Y88.035
M205 X3 Y3
G1 F1200 X141.351 Y118.886 E69.66658
M205 X8.18 Y8.18
G0 F1800 X138.684 Y118.886
M205 X3 Y3
G1 F1200 X138.684 Y88.035 E71.20574
M205 X8.18 Y8.18
G0 F1800 X136.017 Y88.035
M205 X3 Y3
G1 F1200 X136.017 Y118.886 E72.74491
M205 X8.18 Y8.18
G0 F1800 X133.35 Y118.886
M205 X3 Y3
G1 F1200 X133.35 Y88.035 E74.28407
M205 X8.18 Y8.18
G0 F1800 X130.683 Y88.035
M205 X3 Y3
G1 F1200 X130.683 Y118.886 E75.82323
M205 X8.18 Y8.18
G0 F1800 X128.016 Y118.886
M205 X3 Y3
G1 F1200 X128.016 Y88.035 E77.36239
M205 X8.18 Y8.18
G0 F1800 X125.349 Y88.035
M205 X3 Y3
G1 F1200 X125.349 Y119.129 E78.91368
M205 X8.18 Y8.18
G0 F1800 X125.099 Y120.015
M205 X3 Y3
G1 F1200 X120.732 Y120.015 E79.13155
M205 X8.18 Y8.18
G0 F1800 X120.015 Y118.886
M205 X3 Y3
G1 F1200 X120.015 Y88.036 E80.67066
M205 X8.18 Y8.18
G0 F1800 X117.348 Y88.036
M205 X3 Y3
G1 F1200 X117.348 Y118.886 E82.20978
M205 X8.18 Y8.18
G0 F1800 X114.681 Y118.886
M205 X3 Y3
G1 F1200 X114.681 Y88.036 E83.74889
M205 X8.18 Y8.18
G0 F1800 X112.014 Y88.036
M205 X3 Y3
G1 F1200 X112.014 Y118.886 E85.288
M205 X8.18 Y8.18
G0 F1800 X109.347 Y118.886
M205 X3 Y3
G1 F1200 X109.347 Y88.036 E86.82711
M205 X8.18 Y8.18
G0 F1800 X106.68 Y88.036
M205 X3 Y3
G1 F1200 X106.68 Y118.886 E88.36623
M205 X8.18 Y8.18
G0 F1800 X104.999 Y120.015
M205 X3 Y3
G1 F1200 X100.632 Y120.015 E88.5841
M205 X8.18 Y8.18
G0 F1800 X98.679 Y118.887
M205 X3 Y3
G1 F1200 X98.679 Y88.019 E90.12411
M205 X8.18 Y8.18
G0 F1800 X98.794 Y88.011
M205 X3 Y3
G1 F1200 X105.259 Y88.011 E90.44665
M205 X8.18 Y8.18
G0 F1800 X104.013 Y86.364
M205 X3 Y3
G1 F1200 X104.013 Y122.352 E92.2421
M205 X8.18 Y8.18
G0 F1800 X101.346 Y122.352
M205 X3 Y3
G1 F1200 X101.346 Y86.362 E94.03765
M205 X8.18 Y8.18
G0 F1800 X96.012 Y88.232
M205 X3 Y3
G1 F1200 X96.012 Y118.887 E95.56703
M205 X8.18 Y8.18
G0 F1800 X93.345 Y118.887
M205 X3 Y3
G1 F1200 X93.345 Y88.656 E97.07526
M205 X8.18 Y8.18
G0 F1800 X90.678 Y89.397
M205 X3 Y3
G1 F1200 X90.678 Y118.887 E98.54652
M205 X8.18 Y8.18
G0 F1800 X88.011 Y118.887
M205 X3 Y3
G1 F1200 X88.011 Y90.505 E99.96251
M205 X8.18 Y8.18
G0 F1800 X87.656 Y90.678
M205 X3 Y3
G1 F1200 X199.34 Y90.678 E105.53444
M205 X8.18 Y8.18
G0 F1800 X199.34 Y93.345
M205 X3 Y3
G1 F1200 X82.587 Y93.345 E111.35927
M205 X8.18 Y8.18
G0 F1800 X82.677 Y93.299
M205 X3 Y3
G1 F1200 X82.677 Y118.887 E112.63586
M205 X8.18 Y8.18
G0 F1800 X80.01 Y118.887
M205 X3 Y3
G1 F1200 X80.01 Y92.969 E113.92892
M205 X8.18 Y8.18
G0 F1800 X80.611 Y93.345
M205 X3 Y3
G1 F1200 X78.959 Y93.345 E114.01134
M205 X8.18 Y8.18
G0 F1800 X77.343 Y93.838
M205 X3 Y3
G1 F1200 X77.343 Y118.887 E115.26104
M205 X8.18 Y8.18
G0 F1800 X74.676 Y118.887
M205 X3 Y3
G1 F1200 X74.676 Y94.27 E116.48918
M205 X8.18 Y8.18
G0 F1800 X72.009 Y95.996
M205 X3 Y3
G1 F1200 X72.009 Y118.887 E117.63122
M205 X8.18 Y8.18
G0 F1800 X69.342 Y118.887
M205 X3 Y3
G1 F1200 X69.342 Y96.035 E118.77131
M205 X8.18 Y8.18
G0 F1800 X71.559 Y96.012
M205 X3 Y3
G1 F1200 X199.34 Y96.012 E125.14633
M205 X8.18 Y8.18
G0 F1800 X199.34 Y98.679
M205 X3 Y3
G1 F1200 X15.431 Y98.679 E134.32159
M205 X8.18 Y8.18
G0 F1800 X13.335 Y98.415
M205 X3 Y3
G1 F1200 X13.335 Y96.035 E134.44033
M205 X8.18 Y8.18
G0 F1800 X10.668 Y96.035
M205 X3 Y3
G1 F1200 X10.668 Y98.415 E134.55907
M205 X8.18 Y8.18
G0 F1800 X16.002 Y96.035
M205 X3 Y3
G1 F1200 X16.002 Y100.915 E134.80253
M205 X8.18 Y8.18
G0 F1800 X18.669 Y101.066
M205 X3 Y3
G1 F1200 X18.669 Y96.035 E135.05353
M205 X8.18 Y8.18
G0 F1800 X21.336 Y96.035
M205 X3 Y3
G1 F1200 X21.336 Y118.887 E136.19362
M205 X8.18 Y8.18
G0 F1800 X18.669 Y118.887
M205 X3 Y3
G1 F1200 X18.669 Y110.181 E136.62796
M205 X8.18 Y8.18
G0 F1800 X19.948 Y109.347
M205 X3 Y3
G1 F1200 X155.284 Y109.347 E143.3799
M205 X8.18 Y8.18
G0 F1800 X154.686 Y108.204
