;FLAVOR:Marlin
;TIME:16889
;Filament used: 11.6534m
;Layer height: 0.2
;MINX:7.1
;MINY:84.7
;MINZ:0.3
;MAXX:202.9
;MAXY:126.602
;MAXZ:24.7
;Generated with Cura_SteamEngine 4.2.1
M140 S60
M105
M190 S60
M104 S200
M105
M109 S200
M82 ;absolute extrusion mode
G21 ;metric values
G90 ;absolute positioning
M82 ;set extruder to absolute mode
M107 ;start with the fan off
G28 X0 Y0 ;move X/Y to min endstops
G28 Z0 ;move Z to min endstops
G1 Z15.0 F60 ;move the platform down 15mm
G92 E0 ;zero the extruded length
G1 F200 E3 ;extrude 3mm of feed stock
G92 E0 ;zero the extruded length again
G1 F60
M117 Printing...
G5
M141 S28
G92 E0
G92 E0
G1 F1500 E-6.5
;LAYER_COUNT:123
;LAYER:0
M107
M204 S300
M205 X8.18 Y8.18
G0 F1800 X9.88 Y92.756 Z0.3
M205 X3 Y3
;TYPE:SKIRT
G1 F1500 E0
G1 F1200 X10.365 Y92.711 E0.0243
G1 X10.922 Y92.701 E0.05209
G1 X10.979 Y92.7 E0.05494
G1 X54.764 Y92.7 E2.23938
G1 X57.561 Y92.66 E2.37894
G1 X60.278 Y92.545 E2.51461
G1 X63.025 Y92.35 E2.652
G1 X65.729 Y92.082 E2.78757
G1 X68.453 Y91.734 E2.92457
G1 X71.153 Y91.309 E3.06094
G1 X73.862 Y90.806 E3.1984
G1 X76.486 Y90.241 E3.33231
G1 X79.198 Y89.577 E3.47161
G1 X81.805 Y88.859 E3.60652
G1 X84.452 Y88.049 E3.74462
G1 X87.036 Y87.177 E3.88068
G1 X89.306 Y86.346 E4.00128
G1 X89.407 Y86.311 E4.00661
G1 X90.569 Y85.929 E4.06764
G1 X90.675 Y85.896 E4.07318
G1 X91.157 Y85.756 E4.09822
G1 X91.305 Y85.717 E4.10585
G1 X92.692 Y85.385 E4.177
G1 X92.79 Y85.363 E4.18202
G1 X93.192 Y85.28 E4.20249
G1 X93.284 Y85.263 E4.20716
G1 X93.636 Y85.201 E4.22499
G1 X93.739 Y85.184 E4.2302
G1 X95.316 Y84.959 E4.30968
G1 X95.422 Y84.946 E4.315
G1 X96.12 Y84.87 E4.35003
G1 X96.215 Y84.861 E4.35479
G1 X96.928 Y84.805 E4.39047
G1 X97.001 Y84.8 E4.39413
G1 X98.116 Y84.738 E4.44984
G1 X98.214 Y84.734 E4.45473
G1 X98.691 Y84.722 E4.47854
G1 X98.727 Y84.721 E4.48033
G1 X100.102 Y84.702 E4.54894
G1 X100.146 Y84.702 E4.55113
G1 X189.62 Y84.7 E9.01501
G1 X198.922 Y84.7 E9.47909
G1 X199.62 Y84.71 E9.51392
G1 X200.123 Y84.757 E9.53912
G1 X200.613 Y84.883 E9.56436
G1 X201.077 Y85.085 E9.58961
G1 X201.503 Y85.357 E9.61483
G1 X201.953 Y85.769 E9.64526
G1 X202.07 Y85.899 E9.65399
G1 X202.377 Y86.301 E9.67923
G1 X202.617 Y86.745 E9.70441
G1 X202.785 Y87.222 E9.72964
G1 X202.875 Y87.72 E9.75488
G1 X202.89 Y87.982 E9.76798
G1 X202.899 Y88.477 E9.79268
G1 X202.9 Y88.535 E9.79557
G1 X202.9 Y112.222 E10.97732
G1 X202.89 Y112.918 E11.01205
G1 X202.842 Y113.421 E11.03726
G1 X202.717 Y113.911 E11.06248
G1 X202.515 Y114.375 E11.08773
G1 X202.243 Y114.801 E11.11295
G1 X201.798 Y115.28 E11.14557
G1 X201.316 Y115.702 E11.17753
G1 X201.2 Y115.798 E11.18504
G1 X199.738 Y116.961 E11.27824
G1 X197.643 Y118.728 E11.41498
G1 X195.596 Y120.555 E11.55186
G1 X194.62 Y121.473 E11.61871
G1 X194.583 Y121.508 E11.62125
G1 X194.235 Y121.825 E11.64474
G1 X193.835 Y122.135 E11.66998
G1 X193.392 Y122.378 E11.69519
G1 X192.916 Y122.548 E11.72041
G1 X192.21 Y122.656 E11.75604
G1 X191.939 Y122.667 E11.76957
G1 X191.809 Y122.67 E11.77606
G1 X152.885 Y122.673 E13.71799
G1 X150.088 Y122.713 E13.85754
G1 X147.371 Y122.828 E13.99322
G1 X144.629 Y123.022 E14.13036
G1 X141.916 Y123.292 E14.26638
G1 X139.19 Y123.641 E14.40349
G1 X136.507 Y124.062 E14.53898
G1 X133.781 Y124.569 E14.67731
G1 X131.139 Y125.138 E14.81215
G1 X128.495 Y125.787 E14.94797
G1 X126.285 Y126.396 E15.06234
G1 X126.236 Y126.409 E15.06487
G1 X125.927 Y126.489 E15.08079
G1 X125.232 Y126.589 E15.11582
G1 X124.902 Y126.6 E15.1323
G1 X124.795 Y126.602 E15.13764
G1 X119.438 Y126.602 E15.4049
G1 X118.733 Y126.592 E15.44007
G1 X118.639 Y126.589 E15.44477
G1 X118.386 Y126.578 E15.4574
G1 X118.344 Y126.576 E15.4595
G1 X116.06 Y126.447 E15.57363
G1 X113.307 Y126.369 E15.71103
G1 X110.591 Y126.369 E15.84653
G1 X107.821 Y126.447 E15.98478
G1 X106.374 Y126.52 E16.05707
G1 X105.206 Y126.587 E16.11543
G1 X105.121 Y126.591 E16.11968
G1 X104.793 Y126.601 E16.13605
G1 X104.695 Y126.602 E16.14094
G1 X99.337 Y126.602 E16.40825
G1 X98.638 Y126.592 E16.44313
G1 X97.964 Y126.51 E16.477
G1 X95.105 Y125.85 E16.62339
G1 X92.428 Y125.31 E16.75964
G1 X89.721 Y124.846 E16.89666
G1 X86.992 Y124.456 E17.03419
G1 X84.291 Y124.147 E17.16982
G1 X81.579 Y123.915 E17.30562
G1 X80.211 Y123.838 E17.37398
G1 X80.165 Y123.835 E17.37628
G1 X79.401 Y123.781 E17.41449
G1 X79.219 Y123.763 E17.42361
G1 X76.824 Y123.455 E17.54409
G1 X74.07 Y123.143 E17.68236
G1 X71.331 Y122.912 E17.8195
G1 X68.609 Y122.76 E17.95551
G1 X64.539 Y122.674 E18.15861
G1 X18.64 Y122.672 E20.44852
G1 X18.594 Y122.672 E20.45081
G1 X17.895 Y122.662 E20.48569
G1 X17.581 Y122.642 E20.50139
G1 X14.858 Y122.334 E20.6381
G1 X13.17 Y122.19 E20.72262
G1 X13.127 Y122.186 E20.72478
G1 X12.622 Y122.136 E20.7501
G1 X12.124 Y122.047 E20.77534
G1 X11.647 Y121.88 E20.80055
G1 X11.202 Y121.641 E20.82575
G1 X10.8 Y121.334 E20.85099
G1 X10.607 Y121.145 E20.86446
G1 X10.463 Y120.992 E20.87494
G1 X10.056 Y120.457 E20.90848
G1 X9.36 Y119.308 E20.9755
G1 X9.348 Y119.288 E20.97667
G1 X8.255 Y117.453 E21.08322
G1 X7.982 Y117.016 E21.10893
G1 X7.801 Y116.684 E21.1278
G1 X7.555 Y116.161 E21.15663
G1 X7.334 Y115.524 E21.19027
G1 X7.213 Y115.004 E21.21691
G1 X7.131 Y114.347 E21.24994
G1 X7.11 Y113.364 E21.29899
G1 X7.109 Y113.307 E21.30183
G1 X7.102 Y111.296 E21.40216
G1 X7.102 Y111.25 E21.40446
G1 X7.109 Y110.603 E21.43674
G1 X7.112 Y110.511 E21.44133
G1 X7.239 Y107.299 E21.60171
G1 X7.274 Y104.526 E21.74006
G1 X7.232 Y101.801 E21.87603
G1 X7.148 Y100.009 E21.96553
G1 X7.147 Y99.973 E21.96733
G1 X7.107 Y98.843 E22.02374
G1 X7.105 Y98.766 E22.02758
G1 X7.1 Y98.318 E22.04993
G1 X7.1 Y96.657 E22.1328
G1 X7.11 Y95.979 E22.16663
G1 X7.158 Y95.475 E22.19189
G1 X7.284 Y94.986 E22.21708
G1 X7.485 Y94.522 E22.24231
G1 X7.757 Y94.096 E22.26753
G1 X8.008 Y93.803 E22.28677
G1 X8.12 Y93.687 E22.29482
G1 X8.499 Y93.352 E22.32005
G1 X8.926 Y93.081 E22.34529
G1 X9.39 Y92.881 E22.37049
G1 X9.88 Y92.756 E22.39572
M205 X8.18 Y8.18
G0 F1800 X10.5 Y96.1
M205 X3 Y3
;TYPE:SUPPORT
G1 F1200 X70.22 Y96.1 E25.37517
G1 X71.076 Y96.092 E25.41787
G1 X72.042 Y96.058 E25.4661
G1 X73.46 Y95.963 E25.537
G1 X74.703 Y95.825 E25.59939
G1 X75.869 Y95.643 E25.65827
G1 X77.058 Y95.404 E25.71878
G1 X78.13 Y95.132 E25.77395
G1 X79.147 Y94.821 E25.82701
G1 X80.188 Y94.453 E25.8821
G1 X81.315 Y93.986 E25.94296
G1 X82.329 Y93.517 E25.9987
G1 X83.605 Y92.867 E26.07014
G1 X85.645 Y91.769 E26.18572
G1 X87.278 Y90.91 E26.27778
G1 X88.315 Y90.409 E26.33524
G1 X89.217 Y90.009 E26.38446
G1 X90.063 Y89.671 E26.42991
G1 X90.931 Y89.365 E26.47583
G1 X91.834 Y89.088 E26.52295
G1 X92.838 Y88.829 E26.57468
G1 X93.853 Y88.605 E26.62654
G1 X94.978 Y88.422 E26.6834
G1 X96.296 Y88.261 E26.74965
G1 X97.856 Y88.145 E26.82769
G1 X97.956 Y88.145 E26.83268
G1 X99.583 Y88.102 E26.91388
G1 X189.62 Y88.1 E31.40584
G1 X199.5 Y88.1 E31.89876
G1 X199.5 Y112.8 E33.13105
G1 X192.399 Y112.8 E33.48532
G1 X192 Y113.199 E33.51347
G1 X192 Y119.271 E33.8164
G1 X125.324 Y119.275 E37.14288
G1 X124.925 Y119.674 E37.17103
G1 X124.925 Y123.202 E37.34705
G1 X118.976 Y123.202 E37.64384
G1 X118.976 Y119.674 E37.81986
G1 X118.577 Y119.275 E37.84801
G1 X105.224 Y119.275 E38.51419
G1 X104.825 Y119.674 E38.54234
G1 X104.825 Y123.202 E38.71836
G1 X98.876 Y123.202 E39.01515
G1 X98.876 Y119.673 E39.19121
G1 X98.477 Y119.274 E39.21937
G1 X83.669 Y119.274 E39.95814
G1 X83.23 Y119.508 E39.98296
G1 X82.968 Y119.9 E40.00648
G1 X82.634 Y119.9 E40.02315
G1 X82.276 Y120.078 E40.04309
G1 X82.015 Y120.078 E40.05611
G1 X81.649 Y120.241 E40.0761
G1 X80.771 Y120.241 E40.11991
G1 X80.402 Y120.4 E40.13995
G1 X79.681 Y120.4 E40.17592
G1 X79.312 Y120.241 E40.19597
G1 X78.454 Y120.241 E40.23877
G1 X78.088 Y120.078 E40.25876
G1 X77.808 Y120.078 E40.27273
G1 X77.45 Y119.899 E40.2927
G1 X77.12 Y119.899 E40.30917
G1 X76.881 Y119.517 E40.33165
G1 X76.442 Y119.274 E40.35668
G1 X18.016 Y119.272 E43.27156
G1 X17.508 Y118.763 E43.30744
G1 X13.015 Y118.762 E43.5316
G1 X13 Y118.747 E43.53266
G1 X13 Y116.992 E43.62021
G1 X12.738 Y116.554 E43.64568
G1 X11.517 Y115.907 E43.71462
G1 X11.116 Y115.565 E43.74091
G1 X10.819 Y115.156 E43.76613
G1 X10.612 Y114.691 E43.79152
G1 X10.512 Y114.216 E43.81574
G1 X10.5 Y110.595 E43.99639
G1 X10.547 Y109.753 E44.03847
G1 X10.556 Y109.722 E44.04008
G1 X10.718 Y109.223 E44.06625
G1 X11.018 Y108.747 E44.09432
G1 X11.428 Y108.357 E44.12255
G1 X11.91 Y108.08 E44.15029
G1 X12.469 Y107.925 E44.17923
G1 X12.812 Y107.9 E44.19639
G1 X15.1 Y107.9 E44.31053
G1 X15.1 Y110.001 E44.41535
G1 X15.499 Y110.4 E44.44351
G1 X17.573 Y110.4 E44.54698
G1 X18.206 Y110.371 E44.57859
G1 X18.843 Y110.188 E44.61166
G1 X19.388 Y109.882 E44.64284
G1 X19.869 Y109.44 E44.67543
G1 X20.24 Y108.868 E44.70944
G1 X20.456 Y108.199 E44.74452
G1 X20.5 Y107.712 E44.76891
G1 X20.5 Y104.514 E44.92846
G1 X20.486 Y103.702 E44.96898
G1 X20.374 Y103.189 E44.99518
G1 X20.115 Y102.611 E45.02677
G1 X19.704 Y102.078 E45.06035
G1 X19.294 Y101.749 E45.08658
G1 X18.826 Y101.506 E45.11289
G1 X18.217 Y101.327 E45.14456
G1 X17.576 Y101.3 E45.17656
G1 X15.5 Y101.3 E45.28014
G1 X15.5 Y99.199 E45.38496
G1 X15.101 Y98.8 E45.41311
G1 X10.5 Y98.8 E45.64265
G1 X10.5 Y96.1 E45.77736
M205 X8.18 Y8.18
G0 F1800 X155.019 Y106.598
M205 X3 Y3
G1 F1200 X155.02 Y107.006 E45.79771
G1 X155.12 Y107.811 E45.83818
G1 X155.477 Y108.742 E45.88793
G1 X156.059 Y109.58 E45.93883
G1 X156.941 Y110.302 E45.9957
G1 X157.691 Y110.691 E46.03785
G1 X158.663 Y110.926 E46.08774
G1 X159.665 Y110.923 E46.13773
G1 X160.636 Y110.681 E46.18765
G1 X161.522 Y110.212 E46.23767
G1 X162.27 Y109.544 E46.2877
G1 X162.839 Y108.714 E46.3379
G1 X163.19 Y107.776 E46.38787
G1 X163.304 Y106.782 E46.43779
G1 X163.178 Y105.773 E46.48852
G1 X162.735 Y104.729 E46.5451
G1 X162.241 Y104.02 E46.58821
G1 X161.359 Y103.298 E46.64507
G1 X160.61 Y102.91 E46.68716
G1 X159.858 Y102.724 E46.72581
G1 X159.435 Y102.674 E46.74706
G1 X158.635 Y102.677 E46.78697
G1 X157.664 Y102.919 E46.83689
G1 X156.778 Y103.388 E46.88691
G1 X156.03 Y104.056 E46.93694
G1 X155.461 Y104.885 E46.9871
G1 X155.112 Y105.817 E47.03676
G1 X155.019 Y106.598 E47.076
M205 X8.18 Y8.18
G0 F1800 X154.86 Y106.68
M205 X3 Y3
G1 F1200 X20.659 Y106.68 E53.77131
M205 X8.18 Y8.18
G0 F1800 X20.65 Y104.013
M205 X3 Y3
G1 F1200 X155.865 Y104.013 E60.51721
M205 X8.18 Y8.18
G0 F1800 X157.353 Y102.903
M205 X3 Y3
G1 F1200 X157.353 Y88.26 E61.24776
M205 X8.18 Y8.18
G0 F1800 X154.686 Y88.26
M205 X3 Y3
G1 F1200 X154.686 Y119.114 E62.78707
M205 X8.18 Y8.18
G0 F1800 X152.019 Y119.114
M205 X3 Y3
G1 F1200 X152.019 Y88.26 E64.32638
M205 X8.18 Y8.18
G0 F1800 X149.352 Y88.26
M205 X3 Y3
G1 F1200 X149.352 Y119.114 E65.86569
M205 X8.18 Y8.18
G0 F1800 X146.685 Y119.114
M205 X3 Y3
G1 F1200 X146.685 Y88.26 E67.40501
M205 X8.18 Y8.18
G0 F1800 X144.018 Y88.261
M205 X3 Y3
G1 F1200 X144.018 Y119.114 E68.94427
M205 X8.18 Y8.18
G0 F1800 X141.351 Y119.115
M205 X3 Y3
G1 F1200 X141.351 Y88.261 E70.48358
M205 X8.18 Y8.18
G0 F1800 X138.684 Y88.261
M205 X3 Y3
G1 F1200 X138.684 Y119.115 E72.02289
M205 X8.18 Y8.18
G0 F1800 X136.017 Y119.115
M205 X3 Y3
G1 F1200 X136.017 Y88.261 E73.5622
M205 X8.18 Y8.18
G0 F1800 X133.35 Y88.261
M205 X3 Y3
G1 F1200 X133.35 Y119.115 E75.10152
M205 X8.18 Y8.18
G0 F1800 X130.683 Y119.115
M205 X3 Y3
G1 F1200 X130.683 Y88.261 E76.64083
M205 X8.18 Y8.18
G0 F1800 X128.016 Y88.261
M205 X3 Y3
G1 F1200 X128.016 Y119.115 E78.18014
M205 X8.18 Y8.18
G0 F1800 X125.349 Y119.115
M205 X3 Y3
G1 F1200 X125.349 Y88.261 E79.71945
M205 X8.18 Y8.18
G0 F1800 X122.682 Y88.261
M205 X3 Y3
G1 F1200 X122.682 Y123.042 E81.45469
M205 X8.18 Y8.18
G0 F1800 X124.764 Y122.682
M205 X3 Y3
G1 F1200 X119.135 Y122.682 E81.73552
M205 X8.18 Y8.18
G0 F1800 X120.015 Y123.042
M205 X3 Y3
G1 F1200 X120.015 Y88.261 E83.47075
M205 X8.18 Y8.18
G0 F1800 X117.348 Y88.261
M205 X3 Y3
G1 F1200 X117.348 Y119.115 E85.01006
M205 X8.18 Y8.18
G0 F1800 X119.135 Y120.015
M205 X3 Y3
G1 F1200 X124.764 Y120.015 E85.29089
M205 X8.18 Y8.18
G0 F1800 X114.681 Y119.115
M205 X3 Y3
G1 F1200 X114.681 Y88.261 E86.8302
M205 X8.18 Y8.18
G0 F1800 X112.014 Y88.261
M205 X3 Y3
G1 F1200 X112.014 Y119.115 E88.36952
M205 X8.18 Y8.18
G0 F1800 X109.347 Y119.115
M205 X3 Y3
G1 F1200 X109.347 Y88.261 E89.90883
M205 X8.18 Y8.18
G0 F1800 X106.68 Y88.261
M205 X3 Y3
G1 F1200 X106.68 Y119.115 E91.44814
M205 X8.18 Y8.18
G0 F1800 X104.664 Y120.015
M205 X3 Y3
G1 F1200 X99.035 Y120.015 E91.72897
M205 X8.18 Y8.18
G0 F1800 X98.679 Y119.249
M205 X3 Y3
G1 F1200 X98.679 Y88.285 E93.27377
M205 X8.18 Y8.18
G0 F1800 X101.346 Y88.261
M205 X3 Y3
G1 F1200 X101.346 Y123.042 E95.00901
M205 X8.18 Y8.18
G0 F1800 X99.035 Y122.682
M205 X3 Y3
G1 F1200 X104.664 Y122.682 E95.28984
M205 X8.18 Y8.18
G0 F1800 X104.013 Y123.042
M205 X3 Y3
G1 F1200 X104.013 Y88.261 E97.02507
M205 X8.18 Y8.18
G0 F1800 X96.012 Y88.456
M205 X3 Y3
G1 F1200 X96.012 Y119.114 E98.5546
M205 X8.18 Y8.18
G0 F1800 X93.345 Y119.114
M205 X3 Y3
G1 F1200 X93.345 Y88.881 E100.06293
M205 X8.18 Y8.18
G0 F1800 X90.678 Y89.624
M205 X3 Y3
G1 F1200 X90.678 Y119.114 E101.53419
M205 X8.18 Y8.18
G0 F1800 X88.011 Y119.114
M205 X3 Y3
G1 F1200 X88.011 Y90.733 E102.95013
M205 X8.18 Y8.18
G0 F1800 X88.127 Y90.678
M205 X3 Y3
G1 F1200 X199.34 Y90.678 E108.49857
M205 X8.18 Y8.18
G0 F1800 X199.34 Y93.345
M205 X3 Y3
G1 F1200 X83.019 Y93.345 E114.30185
M205 X8.18 Y8.18
G0 F1800 X82.677 Y93.518
M205 X3 Y3
G1 F1200 X82.677 Y119.74 E115.61007
M205 X8.18 Y8.18
G0 F1800 X81.762 Y120.015
M205 X3 Y3
G1 F1200 X78.338 Y120.015 E115.78089
M205 X8.18 Y8.18
G0 F1800 X77.343 Y119.739
M205 X3 Y3
G1 F1200 X77.343 Y95.496 E116.99038
M205 X8.18 Y8.18
G0 F1800 X74.676 Y95.988
M205 X3 Y3
G1 F1200 X74.676 Y119.113 E118.14409
M205 X8.18 Y8.18
G0 F1800 X72.009 Y119.113
M205 X3 Y3
G1 F1200 X72.009 Y96.219 E119.28628
M205 X8.18 Y8.18
G0 F1800 X74.463 Y96.012
M205 X3 Y3
G1 F1200 X199.34 Y96.012 E125.51642
M205 X8.18 Y8.18
G0 F1800 X199.34 Y98.679
M205 X3 Y3
G1 F1200 X15.206 Y98.679 E134.7029
M205 X8.18 Y8.18
G0 F1800 X13.335 Y98.64
M205 X3 Y3
G1 F1200 X13.335 Y96.26 E134.82164
M205 X8.18 Y8.18
G0 F1800 X10.668 Y96.26
M205 X3 Y3
G1 F1200 X10.668 Y98.64 E134.94037
M205 X8.18 Y8.18
G0 F1800 X16.002 Y96.26
M205 X3 Y3
G1 F1200 X16.002 Y101.14 E135.18384
M205 X8.18 Y8.18
G0 F1800 X18.669 Y101.292
M205 X3 Y3
G1 F1200 X18.669 Y96.26 E135.43489
M205 X8.18 Y8.18
G0 F1800 X21.336 Y96.26
M205 X3 Y3
G1 F1200 X21.336 Y119.112 E136.57498
M205 X8.18 Y8.18
G0 F1800 X18.669 Y119.112
M205 X3 Y3
G1 F1200 X18.669 Y110.405 E137.00937
M205 X8.18 Y8.18
G0 F1800 X20.119 Y109.347
M205 X3 Y3
G1 F1200 X155.704 Y109.347 E143.77373
M205 X8.18 Y8.18
G0 F1800 X157.353 Y110.696
M205 X3 Y3
G1 F1200 X157.353 Y119.114 E144.19371
M205 X8.18 Y8.18
G0 F1800 X160.02 Y119.113
M205 X3 Y3
G1 F1200 X160.02 Y110.999 E144.59852
M205 X8.18 Y8.18
G0 F1800 X162.599 Y109.347
M205 X3 Y3
G1 F1200 X199.34 Y109.347 E146.43154
M205 X8.18 Y8.18
G0 F1800 X199.34 Y106.68
M205 X3 Y3
G1 F1200 X163.451 Y106.68 E148.22204
M205 X8.18 Y8.18
G0 F1800 X162.687 Y104.381
M205 X3 Y3
G1 F1200 X162.687 Y88.26 E149.02632
M205 X8.18 Y8.18
G0 F1800 X160.02 Y88.26
M205 X3 Y3
G1 F1200 X160.02 Y102.599 E149.7417
M205 X8.18 Y8.18
G0 F1800 X162.431 Y104.013
M205 X3 Y3
G1 F1200 X199.34 Y104.013 E151.5831
M205 X8.18 Y8.18
G0 F1800 X199.34 Y101.346
M205 X3 Y3
G1 F1200 X18.848 Y101.346 E160.58788
M205 X8.18 Y8.18
G0 F1800 X24.003 Y96.26
M205 X3 Y3
G1 F1200 X24.003 Y119.112 E161.72797
M205 X8.18 Y8.18
G0 F1800 X26.67 Y119.112
M205 X3 Y3
G1 F1200 X26.67 Y96.26 E162.86806
M205 X8.18 Y8.18
G0 F1800 X29.337 Y96.26
M205 X3 Y3
G1 F1200 X29.337 Y119.112 E164.00815
M205 X8.18 Y8.18
