;FLAVOR:Marlin
;TIME:17140
;Filament used: 11.3422m
;Layer height: 0.2
;MINX:7.1
;MINY:82.802
;MINZ:0.3
;MAXX:202.9
;MAXY:126.34
;MAXZ:25.1
;Generated with Cura_SteamEngine 4.2.1
M140 S60
M105
M190 S60
M104 S200
M105
M109 S200
M82 ;absolute extrusion mode
G21 ;metric values
G90 ;absolute positioning
M82 ;set extruder to absolute mode
M107 ;start with the fan off
G28 X0 Y0 ;move X/Y to min endstops
G28 Z0 ;move Z to min endstops
G1 Z15.0 F60 ;move the platform down 15mm
G92 E0 ;zero the extruded length
G1 F200 E3 ;extrude 3mm of feed stock
G92 E0 ;zero the extruded length again
G1 F60
M117 Printing...
G5
M141 S28
G92 E0
G92 E0
G1 F1500 E-6.5
;LAYER_COUNT:125
;LAYER:0
M107
M204 S300
M205 X8.18 Y8.18
G0 F1800 X9.88 Y92.531 Z0.3
M205 X3 Y3
;TYPE:SKIRT
G1 F1500 E0
G1 F1200 X10.365 Y92.486 E0.0243
G1 X10.922 Y92.476 E0.05209
G1 X10.979 Y92.475 E0.05494
G1 X54.765 Y92.475 E2.23943
G1 X57.562 Y92.435 E2.37899
G1 X60.279 Y92.32 E2.51466
G1 X63.026 Y92.125 E2.65205
G1 X65.73 Y91.857 E2.78762
G1 X68.454 Y91.509 E2.92462
G1 X71.154 Y91.084 E3.06099
G1 X73.863 Y90.581 E3.19845
G1 X76.487 Y90.016 E3.33236
G1 X79.199 Y89.352 E3.47166
G1 X81.806 Y88.634 E3.60657
G1 X84.453 Y87.824 E3.74467
G1 X87.033 Y86.953 E3.88052
G1 X88.884 Y86.28 E3.97878
G1 X89.543 Y86.032 E4.01391
G1 X89.643 Y85.996 E4.01922
G1 X90.143 Y85.827 E4.04555
G1 X90.258 Y85.791 E4.05156
G1 X92.389 Y85.159 E4.16245
G1 X94.997 Y84.303 E4.2994
G1 X98.556 Y83.005 E4.48839
G1 X99.044 Y82.87 E4.51366
G1 X99.551 Y82.813 E4.53911
G1 X99.832 Y82.804 E4.55314
G1 X99.935 Y82.802 E4.55828
G1 X104.438 Y82.804 E4.78293
G1 X104.482 Y82.804 E4.78513
G1 X105.193 Y82.814 E4.8206
G1 X105.639 Y82.852 E4.84293
G1 X105.858 Y82.886 E4.85399
G1 X105.909 Y82.894 E4.85657
G1 X108.278 Y83.301 E4.97649
G1 X111.011 Y83.692 E5.11423
G1 X113.704 Y83.998 E5.24944
G1 X116.417 Y84.231 E5.38529
G1 X119.165 Y84.387 E5.52261
G1 X121.926 Y84.465 E5.66042
G1 X123.338 Y84.476 E5.73086
G1 X198.876 Y84.475 E9.49947
G1 X198.922 Y84.475 E9.50176
G1 X199.62 Y84.485 E9.53659
G1 X200.123 Y84.532 E9.56179
G1 X200.613 Y84.658 E9.58704
G1 X201.077 Y84.86 E9.61228
G1 X201.503 Y85.132 E9.6375
G1 X201.807 Y85.393 E9.65749
G1 X201.923 Y85.506 E9.66557
G1 X202.256 Y85.886 E9.69078
G1 X202.525 Y86.314 E9.716
G1 X202.723 Y86.779 E9.74121
G1 X202.846 Y87.27 E9.76646
G1 X202.889 Y87.738 E9.78991
G1 X202.899 Y88.27 E9.81646
G1 X202.9 Y88.33 E9.81945
G1 X202.9 Y111.989 E10.9998
G1 X202.89 Y112.694 E11.03498
G1 X202.843 Y113.198 E11.06023
G1 X202.717 Y113.687 E11.08543
G1 X202.515 Y114.151 E11.11067
G1 X202.244 Y114.577 E11.13586
G1 X201.794 Y115.06 E11.1688
G1 X201.308 Y115.484 E11.20097
G1 X201.196 Y115.577 E11.20824
G1 X199.777 Y116.706 E11.29871
G1 X197.674 Y118.478 E11.4359
G1 X195.628 Y120.305 E11.57275
G1 X194.993 Y120.904 E11.6163
G1 X194.963 Y120.933 E11.61839
G1 X194.257 Y121.582 E11.66623
G1 X193.859 Y121.894 E11.69146
G1 X193.416 Y122.139 E11.71672
G1 X192.941 Y122.311 E11.74192
G1 X192.203 Y122.424 E11.77917
G1 X191.633 Y122.444 E11.80762
G1 X191.521 Y122.446 E11.81321
G1 X188.634 Y122.446 E11.95724
G1 X185.837 Y122.486 E12.0968
G1 X183.12 Y122.601 E12.23247
G1 X180.373 Y122.796 E12.36987
G1 X177.669 Y123.064 E12.50543
G1 X174.945 Y123.412 E12.64244
G1 X172.245 Y123.837 E12.7788
G1 X169.536 Y124.34 E12.91626
G1 X166.912 Y124.905 E13.05017
G1 X164.212 Y125.567 E13.18887
G1 X163.602 Y125.736 E13.22045
G1 X163.554 Y125.749 E13.22293
G1 X162.188 Y126.106 E13.29337
G1 X161.672 Y126.197 E13.31951
G1 X160.975 Y126.261 E13.35443
G1 X160.877 Y126.268 E13.35933
G1 X160.027 Y126.32 E13.40182
G1 X159.884 Y126.326 E13.40896
G1 X159.027 Y126.34 E13.45172
G1 X158.876 Y126.338 E13.45925
G1 X158.168 Y126.316 E13.49459
G1 X158.075 Y126.312 E13.49923
G1 X157.427 Y126.273 E13.53162
G1 X157.361 Y126.269 E13.53492
G1 X156.668 Y126.213 E13.56961
G1 X156.402 Y126.18 E13.58298
G1 X156.106 Y126.131 E13.59795
G1 X153.367 Y125.716 E13.73616
G1 X150.665 Y125.382 E13.87199
G1 X147.926 Y125.124 E14.00924
G1 X145.207 Y124.944 E14.14519
G1 X142.46 Y124.841 E14.28233
G1 X139.706 Y124.814 E14.41974
G1 X136.988 Y124.866 E14.55536
G1 X134.273 Y124.994 E14.69097
G1 X131.531 Y125.201 E14.82816
G1 X128.79 Y125.487 E14.96565
G1 X126.427 Y125.796 E15.08454
G1 X125.904 Y125.87 E15.11089
G1 X125.552 Y125.9 E15.12852
G1 X125.229 Y125.91 E15.14464
G1 X125.13 Y125.912 E15.14958
G1 X120.916 Y125.912 E15.35982
G1 X120.226 Y125.902 E15.39425
G1 X120.047 Y125.894 E15.40319
G1 X119.763 Y125.874 E15.41739
G1 X116.99 Y125.716 E15.55596
G1 X114.239 Y125.638 E15.69326
G1 X111.517 Y125.637 E15.82906
G1 X108.775 Y125.713 E15.96591
G1 X105.533 Y125.898 E16.12792
G1 X105.44 Y125.902 E16.13257
G1 X105.12 Y125.911 E16.14854
G1 X105.03 Y125.912 E16.15303
G1 X100.816 Y125.912 E16.36326
G1 X100.116 Y125.902 E16.39819
G1 X99.413 Y125.813 E16.43354
G1 X98.973 Y125.707 E16.45612
G1 X98.915 Y125.693 E16.4591
G1 X97.15 Y125.233 E16.5501
G1 X94.479 Y124.619 E16.68683
G1 X91.782 Y124.075 E16.82409
G1 X89.088 Y123.616 E16.96044
G1 X86.377 Y123.229 E17.09706
G1 X83.672 Y122.921 E17.23288
G1 X80.963 Y122.691 E17.36852
G1 X78.217 Y122.535 E17.50574
G1 X75.451 Y122.456 E17.64379
G1 X74.067 Y122.446 E17.71284
G1 X18.624 Y122.447 E20.47891
G1 X18.578 Y122.447 E20.4812
G1 X17.881 Y122.437 E20.51598
G1 X17.569 Y122.417 E20.53158
G1 X14.821 Y122.107 E20.66954
G1 X13.146 Y121.965 E20.75341
G1 X13.1 Y121.961 E20.75571
G1 X12.618 Y121.913 E20.77988
G1 X12.12 Y121.824 E20.80512
G1 X11.643 Y121.657 E20.83033
G1 X11.198 Y121.417 E20.85556
G1 X10.725 Y121.043 E20.88564
G1 X10.592 Y120.916 E20.89482
G1 X10.255 Y120.539 E20.92004
G1 X10.065 Y120.261 E20.93684
G1 X9.868 Y119.936 E20.9558
G1 X9.847 Y119.899 E20.95793
G1 X8.818 Y118.149 E21.05921
G1 X7.93 Y116.711 E21.14353
G1 X7.731 Y116.336 E21.16471
G1 X7.504 Y115.828 E21.19247
G1 X7.289 Y115.152 E21.22786
G1 X7.186 Y114.639 E21.25396
G1 X7.124 Y114.067 E21.28267
G1 X7.111 Y113.349 E21.31849
G1 X7.11 Y113.303 E21.32079
G1 X7.102 Y111.078 E21.43179
G1 X7.102 Y111.029 E21.43424
G1 X7.109 Y110.417 E21.46477
G1 X7.111 Y110.328 E21.46922
G1 X7.237 Y107.129 E21.62894
G1 X7.274 Y104.392 E21.7655
G1 X7.235 Y101.665 E21.90156
G1 X7.15 Y99.836 E21.99291
G1 X7.149 Y99.802 E21.99461
G1 X7.107 Y98.619 E22.05367
G1 X7.105 Y98.541 E22.05756
G1 X7.1 Y98.093 E22.07991
G1 X7.1 Y96.432 E22.16278
G1 X7.11 Y95.754 E22.19661
G1 X7.158 Y95.25 E22.22187
G1 X7.284 Y94.761 E22.24706
G1 X7.485 Y94.297 E22.27229
G1 X7.757 Y93.871 E22.2975
G1 X8.008 Y93.578 E22.31675
G1 X8.12 Y93.462 E22.3248
G1 X8.499 Y93.127 E22.35003
G1 X8.926 Y92.856 E22.37526
G1 X9.39 Y92.656 E22.40047
G1 X9.88 Y92.531 E22.4257
M205 X8.18 Y8.18
G0 F1800 X10.5 Y95.875
M205 X3 Y3
;TYPE:SUPPORT
G1 F1200 X70.221 Y95.875 E25.40519
G1 X71.103 Y95.867 E25.4492
G1 X73.657 Y95.781 E25.57669
G1 X74.027 Y95.341 E25.60537
G1 X73.873 Y94.234 E25.66113
G1 X74.627 Y94.113 E25.69923
G1 X75.158 Y94.045 E25.72594
G1 X77.471 Y93.666 E25.84287
G1 X78.506 Y93.34 E25.89701
G1 X80.516 Y92.62 E26.00353
G1 X80.858 Y93.559 E26.05339
G1 X81.397 Y93.771 E26.08228
G1 X83.562 Y92.667 E26.20353
G1 X85.677 Y91.525 E26.32344
G1 X87.226 Y90.714 E26.41068
G1 X88.37 Y90.16 E26.47409
G1 X89.184 Y89.798 E26.51854
G1 X90.065 Y89.446 E26.56587
G1 X90.941 Y89.137 E26.61221
G1 X91.856 Y88.858 E26.65993
G1 X92.804 Y88.612 E26.7088
G1 X93.918 Y88.365 E26.76572
G1 X94.951 Y88.195 E26.81795
G1 X96.292 Y88.037 E26.88532
G1 X99.47 Y87.8 E27.04431
G1 X99.848 Y87.393 E27.07202
G1 X99.848 Y86.201 E27.13149
G1 X104.953 Y86.204 E27.38618
G1 X104.953 Y87.478 E27.44974
G1 X105.352 Y87.877 E27.47789
G1 X142.958 Y87.875 E29.35406
G1 X199.5 Y87.875 E32.17496
G1 X199.5 Y112.575 E33.40724
G1 X192.399 Y112.575 E33.76151
G1 X192 Y112.974 E33.78967
G1 X192 Y119.046 E34.0926
G1 X161.452 Y119.046 E35.61665
G1 X161.056 Y119.454 E35.64501
G1 X161.17 Y122.837 E35.81389
G1 X160.008 Y122.925 E35.87202
G1 X159.223 Y122.946 E35.9112
G1 X158.44 Y122.932 E35.95027
G1 X157.121 Y122.845 E36.01622
G1 X157.234 Y119.454 E36.18549
G1 X156.838 Y119.046 E36.21386
G1 X125.659 Y119.046 E37.76939
G1 X125.26 Y119.445 E37.79754
G1 X125.26 Y122.512 E37.95055
G1 X120.464 Y122.512 E38.18982
G1 X120.596 Y119.457 E38.34238
G1 X120.2 Y119.046 E38.37085
G1 X105.559 Y119.046 E39.1013
G1 X105.16 Y119.445 E39.12945
G1 X105.16 Y122.512 E39.28246
G1 X100.364 Y122.512 E39.52174
G1 X100.496 Y119.457 E39.67429
G1 X100.1 Y119.046 E39.70277
G1 X17.999 Y119.047 E43.7988
G1 X17.49 Y118.537 E43.83475
G1 X13 Y118.537 E44.05876
G1 X13 Y116.759 E44.14746
G1 X12.736 Y116.323 E44.17289
G1 X11.532 Y115.69 E44.24075
G1 X11.501 Y115.667 E44.24268
G1 X11.121 Y115.342 E44.26763
G1 X10.818 Y114.932 E44.29306
G1 X10.609 Y114.463 E44.31868
G1 X10.512 Y113.991 E44.34272
G1 X10.5 Y110.376 E44.52307
G1 X10.548 Y109.521 E44.5658
G1 X10.726 Y108.987 E44.59388
G1 X11.015 Y108.528 E44.62094
G1 X11.435 Y108.125 E44.64998
G1 X11.902 Y107.859 E44.67679
G1 X12.475 Y107.699 E44.70647
G1 X12.809 Y107.675 E44.72318
G1 X15.1 Y107.675 E44.83748
G1 X15.1 Y109.776 E44.9423
G1 X15.499 Y110.175 E44.97045
G1 X17.592 Y110.175 E45.07487
G1 X18.199 Y110.148 E45.10518
G1 X18.828 Y109.972 E45.13777
G1 X19.399 Y109.651 E45.17045
G1 X19.886 Y109.193 E45.2038
G1 X20.236 Y108.634 E45.2367
G1 X20.452 Y107.994 E45.2704
G1 X20.5 Y107.473 E45.29651
G1 X20.5 Y104.294 E45.45511
G1 X20.486 Y103.457 E45.49687
G1 X20.371 Y102.958 E45.52242
G1 X20.126 Y102.399 E45.55287
G1 X19.694 Y101.843 E45.588
G1 X19.29 Y101.525 E45.61365
G1 X18.826 Y101.276 E45.63992
G1 X18.214 Y101.106 E45.67161
G1 X17.552 Y101.075 E45.70467
G1 X15.5 Y101.075 E45.80705
G1 X15.5 Y98.974 E45.91187
G1 X15.101 Y98.575 E45.94002
G1 X10.5 Y98.575 E46.16956
G1 X10.5 Y95.875 E46.30427
M205 X8.18 Y8.18
G0 F1800 X154.548 Y106.618
M205 X3 Y3
G1 F1200 X154.675 Y107.651 E46.35619
G1 X155.019 Y108.611 E46.40707
G1 X155.581 Y109.482 E46.45878
G1 X156.323 Y110.208 E46.51057
G1 X157.194 Y110.743 E46.56157
G1 X158.174 Y111.076 E46.61321
G1 X159.194 Y111.177 E46.66434
G1 X160.226 Y111.05 E46.71622
G1 X161.182 Y110.707 E46.76689
G1 X162.059 Y110.142 E46.81894
G1 X162.782 Y109.403 E46.87052
G1 X163.318 Y108.532 E46.92154
G1 X163.651 Y107.551 E46.97323
G1 X163.752 Y106.531 E47.02436
G1 X163.625 Y105.497 E47.07634
G1 X163.279 Y104.538 E47.1272
G1 X162.718 Y103.668 E47.17885
G1 X161.985 Y102.948 E47.23011
G1 X161.104 Y102.405 E47.28174
G1 X160.132 Y102.075 E47.33295
G1 X159.102 Y101.973 E47.38459
G1 X158.08 Y102.098 E47.43596
G1 X157.109 Y102.449 E47.48747
G1 X156.242 Y103.006 E47.53888
G1 X155.524 Y103.74 E47.59011
G1 X154.982 Y104.617 E47.64154
G1 X154.649 Y105.597 E47.69318
G1 X154.548 Y106.618 E47.74437
M205 X8.18 Y8.18
G0 F1800 X154.395 Y106.68
M205 X3 Y3
G1 F1200 X20.659 Y106.68 E54.41648
M205 X8.18 Y8.18
G0 F1800 X20.654 Y104.013
M205 X3 Y3
G1 F1200 X155.166 Y104.013 E61.12731
M205 X8.18 Y8.18
G0 F1800 X154.686 Y104.992
M205 X3 Y3
G1 F1200 X154.686 Y88.035 E61.9733
M205 X8.18 Y8.18
G0 F1800 X152.019 Y88.035
M205 X3 Y3
G1 F1200 X152.019 Y118.886 E63.51246
M205 X8.18 Y8.18
G0 F1800 X149.352 Y118.886
M205 X3 Y3
G1 F1200 X149.352 Y88.035 E65.05163
M205 X8.18 Y8.18
G0 F1800 X146.685 Y88.035
M205 X3 Y3
G1 F1200 X146.685 Y118.886 E66.59079
M205 X8.18 Y8.18
G0 F1800 X144.018 Y118.886
M205 X3 Y3
G1 F1200 X144.018 Y88.035 E68.12995
M205 X8.18 Y8.18
G0 F1800 X141.351 Y88.035
M205 X3 Y3
G1 F1200 X141.351 Y118.886 E69.66911
M205 X8.18 Y8.18
G0 F1800 X138.684 Y118.886
M205 X3 Y3
G1 F1200 X138.684 Y88.035 E71.20828
M205 X8.18 Y8.18
G0 F1800 X136.017 Y88.035
M205 X3 Y3
G1 F1200 X136.017 Y118.886 E72.74744
M205 X8.18 Y8.18
G0 F1800 X133.35 Y118.886
M205 X3 Y3
G1 F1200 X133.35 Y88.035 E74.2866
M205 X8.18 Y8.18
G0 F1800 X130.683 Y88.035
M205 X3 Y3
G1 F1200 X130.683 Y118.886 E75.82576
M205 X8.18 Y8.18
G0 F1800 X128.016 Y118.886
M205 X3 Y3
G1 F1200 X128.016 Y88.035 E77.36493
M205 X8.18 Y8.18
G0 F1800 X125.349 Y88.035
M205 X3 Y3
G1 F1200 X125.349 Y119.129 E78.91621
M205 X8.18 Y8.18
G0 F1800 X125.099 Y120.015
M205 X3 Y3
G1 F1200 X120.732 Y120.015 E79.13408
M205 X8.18 Y8.18
G0 F1800 X120.015 Y118.886
M205 X3 Y3
G1 F1200 X120.015 Y88.036 E80.6732
M205 X8.18 Y8.18
G0 F1800 X117.348 Y88.036
M205 X3 Y3
G1 F1200 X117.348 Y118.886 E82.21231
M205 X8.18 Y8.18
G0 F1800 X114.681 Y118.886
M205 X3 Y3
G1 F1200 X114.681 Y88.036 E83.75142
M205 X8.18 Y8.18
G0 F1800 X112.014 Y88.036
M205 X3 Y3
G1 F1200 X112.014 Y118.886 E85.29053
M205 X8.18 Y8.18
G0 F1800 X109.347 Y118.886
M205 X3 Y3
G1 F1200 X109.347 Y88.036 E86.82965
M205 X8.18 Y8.18
G0 F1800 X106.68 Y88.036
M205 X3 Y3
G1 F1200 X106.68 Y118.886 E88.36876
M205 X8.18 Y8.18
G0 F1800 X104.999 Y120.015
M205 X3 Y3
G1 F1200 X100.632 Y120.015 E88.58663
M205 X8.18 Y8.18
G0 F1800 X98.679 Y118.887
M205 X3 Y3
G1 F1200 X98.679 Y88.019 E90.12664
M205 X8.18 Y8.18
G0 F1800 X98.794 Y88.011
M205 X3 Y3
G1 F1200 X105.259 Y88.011 E90.44918
M205 X8.18 Y8.18
G0 F1800 X104.013 Y86.364
M205 X3 Y3
G1 F1200 X104.013 Y122.352 E92.24463
M205 X8.18 Y8.18
G0 F1800 X101.346 Y122.352
M205 X3 Y3
G1 F1200 X101.346 Y86.362 E94.04018
M205 X8.18 Y8.18
G0 F1800 X96.012 Y88.23
M205 X3 Y3
G1 F1200 X96.012 Y118.887 E95.56966
M205 X8.18 Y8.18
G0 F1800 X93.345 Y118.887
M205 X3 Y3
G1 F1200 X93.345 Y88.656 E97.07789
M205 X8.18 Y8.18
G0 F1800 X90.678 Y89.4
M205 X3 Y3
G1 F1200 X90.678 Y118.887 E98.54901
M205 X8.18 Y8.18
G0 F1800 X88.011 Y118.887
M205 X3 Y3
G1 F1200 X88.011 Y90.511 E99.96469
M205 X8.18 Y8.18
G0 F1800 X87.668 Y90.678
M205 X3 Y3
G1 F1200 X199.34 Y90.678 E105.53603
M205 X8.18 Y8.18
G0 F1800 X199.34 Y93.345
M205 X3 Y3
G1 F1200 X82.584 Y93.345 E111.36101
M205 X8.18 Y8.18
G0 F1800 X82.677 Y93.297
M205 X3 Y3
G1 F1200 X82.677 Y118.887 E112.6377
M205 X8.18 Y8.18
G0 F1800 X80.01 Y118.887
M205 X3 Y3
G1 F1200 X80.01 Y92.97 E113.9307
M205 X8.18 Y8.18
G0 F1800 X80.611 Y93.345
M205 X3 Y3
G1 F1200 X78.967 Y93.345 E114.01272
M205 X8.18 Y8.18
G0 F1800 X77.343 Y93.849
M205 X3 Y3
G1 F1200 X77.343 Y118.887 E115.26187
M205 X8.18 Y8.18
G0 F1800 X74.676 Y118.887
M205 X3 Y3
G1 F1200 X74.676 Y94.267 E116.49017
M205 X8.18 Y8.18
G0 F1800 X72.009 Y95.996
M205 X3 Y3
G1 F1200 X72.009 Y118.887 E117.63221
M205 X8.18 Y8.18
G0 F1800 X69.342 Y118.887
M205 X3 Y3
G1 F1200 X69.342 Y96.035 E118.7723
M205 X8.18 Y8.18
G0 F1800 X71.554 Y96.012
M205 X3 Y3
G1 F1200 X199.34 Y96.012 E125.14757
M205 X8.18 Y8.18
G0 F1800 X199.34 Y98.679
M205 X3 Y3
G1 F1200 X15.431 Y98.679 E134.32283
M205 X8.18 Y8.18
G0 F1800 X13.335 Y98.415
M205 X3 Y3
G1 F1200 X13.335 Y96.035 E134.44156
M205 X8.18 Y8.18
G0 F1800 X10.668 Y96.035
M205 X3 Y3
G1 F1200 X10.668 Y98.415 E134.5603
M205 X8.18 Y8.18
G0 F1800 X16.002 Y96.035
M205 X3 Y3
G1 F1200 X16.002 Y100.915 E134.80377
M205 X8.18 Y8.18
G0 F1800 X18.669 Y101.066
M205 X3 Y3
G1 F1200 X18.669 Y96.035 E135.05476
M205 X8.18 Y8.18
G0 F1800 X21.336 Y96.035
M205 X3 Y3
G1 F1200 X21.336 Y118.887 E136.19486
M205 X8.18 Y8.18
G0 F1800 X18.669 Y118.887
M205 X3 Y3
G1 F1200 X18.669 Y110.181 E136.6292
M205 X8.18 Y8.18
G0 F1800 X19.956 Y109.347
M205 X3 Y3
G1 F1200 X155.305 Y109.347 E143.38179
M205 X8.18 Y8.18
G0 F1800 X154.686 Y108.156
M205 X3 Y3
G1 F1200 X154.686 Y118.886 E143.91711
M205 X8.18 Y8.18
G0 F1800 X157.353 Y119.347
M205 X3 Y3
G1 F1200 X157.353 Y110.966 E144.33524
M205 X8.18 Y8.18
G0 F1800 X160.02 Y111.236
M205 X3 Y3
G1 F1200 X160.02 Y122.764 E144.91037
M205 X8.18 Y8.18
G0 F1800 X161.005 Y122.682
M205 X3 Y3
G1 F1200 X157.287 Y122.682 E145.09587
M205 X8.18 Y8.18
G0 F1800 X157.353 Y122.699
M205 X3 Y3
G1 F1200 X157.353 Y120.683 E145.19644
M205 X8.18 Y8.18
G0 F1800 X157.376 Y120.015
M205 X3 Y3
G1 F1200 X160.916 Y120.015 E145.37306
M205 X8.18 Y8.18
